luts/lume_20260404_213943.cube
TITLE "Lume Grade"
LUT_3D_SIZE 9
0.1473874 0.0586015 0.0000000
0.3016222 0.0542025 0.0000000
0.4481431 0.0500236 0.0000000
0.5899993 0.0459776 0.0000000
0.7285252 0.0420267 0.0000000
0.8644713 0.0381493 0.0000000
0.9983186 0.0343318 0.0000000
1.0000000 0.0311000 0.0000000
1.0000000 0.0311000 0.0000000
0.1339554 0.1891555 0.0000000
0.2881902 0.1847565 0.0000000
0.4347111 0.1805776 0.0000000
0.5765673 0.1765316 0.0000000
0.7150931 0.1725807 0.0000000
0.8510393 0.1687033 0.0000000
0.9848865 0.1648858 0.0000000
1.0000000 0.1616540 0.0000000
1.0000000 0.1616540 0.0000000
0.1210034 0.3150440 0.0000000
0.2752382 0.3106450 0.0000000
0.4217591 0.3064660 0.0000000
0.5636153 0.3024201 0.0000000
0.7021412 0.2984692 0.0000000
0.8380873 0.2945918 0.0000000
0.9719346 0.2907743 0.0000000
1.0000000 0.2875425 0.0000000
1.0000000 0.2875425 0.0000000
0.1083089 0.4384300 0.0000000
0.2625436 0.4340310 0.0000000
0.4090645 0.4298520 0.0000000
0.5509208 0.4258061 0.0000000
0.6894466 0.4218552 0.0000000
0.8253927 0.4179778 0.0000000
0.9592400 0.4141603 0.0000000
1.0000000 0.4109285 0.0000000
1.0000000 0.4109285 0.0000000
0.0957912 0.5600969 0.0000000
0.2500260 0.5556979 0.0000000
0.3965469 0.5515189 0.0000000
0.5384031 0.5474730 0.0000000
0.6769289 0.5435221 0.0000000
0.8128750 0.5396447 0.0000000
0.9467223 0.5358272 0.0000000
1.0000000 0.5325955 0.0000000
1.0000000 0.5325955 0.0000000
0.0834081 0.6804558 0.0000000
0.2376429 0.6760569 0.0000000
0.3841638 0.6718779 0.0000000
0.5260200 0.6678320 0.0000000
0.6645458 0.6638810 0.0000000
0.8004920 0.6600037 0.0000000
0.9343392 0.6561862 0.0000000
1.0000000 0.6529543 0.0000000
1.0000000 0.6529543 0.0000000
0.0711334 0.7997606 0.0000000
0.2253682 0.7953616 0.0000000
0.3718891 0.7911826 0.0000000
0.5137454 0.7871367 0.0000000
0.6522712 0.7831857 0.0000000
0.7882173 0.7793084 0.0000000
0.9220646 0.7754909 0.0000000
1.0000000 0.7722591 0.0000000
1.0000000 0.7722591 0.0000000
0.0589496 0.9181832 0.0000000
0.2131844 0.9137843 0.0000000
0.3597052 0.9096053 0.0000000
0.5015615 0.9055594 0.0000000
0.6400873 0.9016084 0.0000000
0.7760335 0.8977311 0.0000000
0.9098807 0.8939135 0.0000000
1.0000000 0.8906817 0.0000000
1.0000000 0.8906817 0.0000000
0.0468436 1.0000000 0.0000000
0.2010784 1.0000000 0.0000000
0.3475993 1.0000000 0.0000000
0.4894555 1.0000000 0.0000000
0.6279813 1.0000000 0.0000000
0.7639275 1.0000000 0.0000000
0.8977747 1.0000000 0.0000000
1.0000000 1.0000000 0.0000000
1.0000000 1.0000000 0.0000000
0.1467018 0.0579159 0.0612487
0.3009366 0.0535169 0.0568497
0.4474575 0.0493379 0.0526707
0.5893137 0.0452920 0.0486248
0.7278395 0.0413411 0.0446739
0.8637857 0.0374637 0.0407965
0.9976329 0.0336462 0.0369790
1.0000000 0.0304144 0.0337472
1.0000000 0.0304144 0.0337472
0.1332698 0.1884699 0.0478167
0.2875046 0.1840709 0.0434177
0.4340255 0.1798919 0.0392387
0.5758817 0.1758460 0.0351928
0.7144075 0.1718951 0.0312418
0.8503537 0.1680177 0.0273645
0.9842009 0.1642002 0.0235470
1.0000000 0.1609684 0.0203152
1.0000000 0.1609684 0.0203152
0.1203178 0.3143584 0.0348647
0.2745526 0.3099594 0.0304657
0.4210735 0.3057804 0.0262867
0.5629297 0.3017345 0.0222408
0.7014555 0.2977836 0.0182898
0.8374016 0.2939062 0.0144125
0.9712489 0.2900887 0.0105950
1.0000000 0.2868569 0.0073632
1.0000000 0.2868569 0.0073632
0.1076232 0.4377443 0.0221701
0.2618580 0.4333454 0.0177712
0.4083789 0.4291664 0.0135922
0.5502352 0.4251205 0.0095463
0.6887610 0.4211695 0.0055953
0.8247072 0.4172921 0.0017179
0.9585544 0.4134747 0.0000000
1.0000000 0.4102429 0.0000000
1.0000000 0.4102429 0.0000000
0.0951056 0.5594113 0.0096525
0.2493404 0.5550123 0.0052535
0.3958613 0.5508333 0.0010745
0.5377175 0.5467874 0.0000000
0.6762433 0.5428365 0.0000000
0.8121895 0.5389591 0.0000000
0.9460367 0.5351416 0.0000000
1.0000000 0.5319098 0.0000000
1.0000000 0.5319098 0.0000000
0.0827225 0.6797702 0.0000000
0.2369573 0.6753712 0.0000000
0.3834782 0.6711922 0.0000000
0.5253344 0.6671463 0.0000000
0.6638602 0.6631954 0.0000000
0.7998064 0.6593180 0.0000000
0.9336536 0.6555005 0.0000000
1.0000000 0.6522688 0.0000000
1.0000000 0.6522688 0.0000000
0.0704479 0.7990749 0.0000000
0.2246826 0.7946759 0.0000000
0.3712035 0.7904970 0.0000000
0.5130597 0.7864510 0.0000000
0.6515856 0.7825001 0.0000000
0.7875317 0.7786227 0.0000000
0.9213790 0.7748052 0.0000000
1.0000000 0.7715735 0.0000000
1.0000000 0.7715735 0.0000000
0.0582640 0.9174976 0.0000000
0.2124987 0.9130986 0.0000000
0.3590196 0.9089197 0.0000000
0.5008758 0.9048737 0.0000000
0.6394017 0.9009228 0.0000000
0.7753478 0.8970454 0.0000000
0.9091951 0.8932279 0.0000000
1.0000000 0.8899962 0.0000000
1.0000000 0.8899962 0.0000000
0.0461580 1.0000000 0.0000000
0.2003928 1.0000000 0.0000000
0.3469137 1.0000000 0.0000000
0.4887699 1.0000000 0.0000000
0.6272957 1.0000000 0.0000000
0.7632419 1.0000000 0.0000000
0.8970891 1.0000000 0.0000000
1.0000000 1.0000000 0.0000000
1.0000000 1.0000000 0.0000000
0.1456734 0.0568875 0.1694206
0.2999082 0.0524885 0.1650216
0.4464291 0.0483096 0.1608427
0.5882853 0.0442636 0.1567967
0.7268112 0.0403127 0.1528458
0.8627573 0.0364353 0.1489684
0.9966046 0.0326178 0.1451509
1.0000000 0.0293860 0.1419191
1.0000000 0.0293860 0.1419191
0.1322414 0.1874415 0.1559886
0.2864762 0.1830425 0.1515896
0.4329971 0.1788636 0.1474106
0.5748533 0.1748176 0.1433647
0.7133791 0.1708667 0.1394138
0.8493253 0.1669893 0.1355364
0.9831725 0.1631718 0.1317189
1.0000000 0.1599400 0.1284871
1.0000000 0.1599400 0.1284871
0.1192894 0.3133300 0.1430366
0.2735242 0.3089310 0.1386376
0.4200451 0.3047520 0.1344586
0.5619013 0.3007061 0.1304127
0.7004271 0.2967552 0.1264618
0.8363733 0.2928778 0.1225844
0.9702205 0.2890603 0.1187669
1.0000000 0.2858285 0.1155351
1.0000000 0.2858285 0.1155351
0.1065949 0.4367160 0.1303421
0.2608296 0.4323170 0.1259431
0.4073505 0.4281380 0.1217641
0.5492067 0.4240921 0.1177182
0.6877326 0.4201411 0.1137672
0.8236787 0.4162638 0.1098899
0.9575260 0.4124463 0.1060724
1.0000000 0.4092145 0.1028406
1.0000000 0.4092145 0.1028406
0.0940772 0.5583829 0.1178244
0.2483120 0.5539839 0.1134254
0.3948329 0.5498049 0.1092464
0.5366891 0.5457590 0.1052005
0.6752149 0.5418081 0.1012495
0.8111610 0.5379307 0.0973722
0.9450083 0.5341132 0.0935547
1.0000000 0.5308814 0.0903229
1.0000000 0.5308814 0.0903229
0.0816941 0.6787418 0.1054413
0.2359289 0.6743429 0.1010423
0.3824498 0.6701639 0.0968633
0.5243060 0.6661180 0.0928174
0.6628318 0.6621670 0.0888665
0.7987779 0.6582896 0.0849891
0.9326252 0.6544721 0.0811716
1.0000000 0.6512403 0.0779398
1.0000000 0.6512403 0.0779398
0.0694194 0.7980466 0.0931666
0.2236542 0.7936476 0.0887676
0.3701752 0.7894686 0.0845887
0.5120314 0.7854227 0.0805427
0.6505572 0.7814717 0.0765918
0.7865033 0.7775943 0.0727144
0.9203506 0.7737769 0.0688969
1.0000000 0.7705451 0.0656652
1.0000000 0.7705451 0.0656652
0.0572356 0.9164692 0.0809827
0.2114703 0.9120703 0.0765838
0.3579912 0.9078913 0.0724048
0.4998475 0.9038453 0.0683589
0.6383733 0.8998944 0.0644079
0.7743195 0.8960170 0.0605305
0.9081667 0.8921995 0.0567130
1.0000000 0.8889678 0.0534813
1.0000000 0.8889678 0.0534813
0.0451296 1.0000000 0.0688768
0.1993644 1.0000000 0.0644778
0.3458853 1.0000000 0.0602989
0.4877415 1.0000000 0.0562529
0.6262673 1.0000000 0.0523019
0.7622135 1.0000000 0.0484246
0.8960607 1.0000000 0.0446071
1.0000000 1.0000000 0.0413753
1.0000000 1.0000000 0.0413753
0.1445749 0.0557890 0.2849665
0.2988097 0.0513900 0.2805675
0.4453306 0.0472111 0.2763885
0.5871869 0.0431651 0.2723426
0.7257127 0.0392142 0.2683917
0.8616588 0.0353368 0.2645143
0.9955060 0.0315193 0.2606968
1.0000000 0.0282876 0.2574650
1.0000000 0.0282876 0.2574650
0.1311429 0.1863430 0.2715345
0.2853777 0.1819440 0.2671355
0.4318986 0.1777651 0.2629565
0.5737548 0.1737191 0.2589106
0.7122806 0.1697682 0.2549596
0.8482268 0.1658908 0.2510823
0.9820740 0.1620733 0.2472648
1.0000000 0.1588416 0.2440330
1.0000000 0.1588416 0.2440330
0.1181909 0.3122315 0.2585825
0.2724257 0.3078325 0.2541835
0.4189466 0.3036535 0.2500045
0.5608028 0.2996076 0.2459586
0.6993287 0.2956567 0.2420076
0.8352748 0.2917793 0.2381303
0.9691221 0.2879618 0.2343128
1.0000000 0.2847300 0.2310810
1.0000000 0.2847300 0.2310810
0.1054964 0.4356175 0.2458879
0.2597312 0.4312185 0.2414889
0.4062521 0.4270395 0.2373100
0.5481083 0.4229936 0.2332640
0.6866341 0.4190426 0.2293131
0.8225802 0.4151653 0.2254357
0.9564275 0.4113478 0.2216182
1.0000000 0.4081160 0.2183865
1.0000000 0.4081160 0.2183865
0.0929787 0.5572844 0.2333702
0.2472135 0.5528854 0.2289713
0.3937344 0.5487065 0.2247923
0.5355906 0.5446605 0.2207464
0.6741164 0.5407096 0.2167954
0.8100626 0.5368322 0.2129181
0.9439098 0.5330147 0.2091006
1.0000000 0.5297830 0.2058688
1.0000000 0.5297830 0.2058688
0.0805956 0.6776434 0.2209872
0.2348304 0.6732444 0.2165882
0.3813513 0.6690654 0.2124092
0.5232075 0.6650195 0.2083633
0.6617333 0.6610685 0.2044123
0.7976795 0.6571912 0.2005350
0.9315268 0.6533737 0.1967175
1.0000000 0.6501419 0.1934857
1.0000000 0.6501419 0.1934857
0.0683210 0.7969481 0.2087125
0.2225558 0.7925491 0.2043135
0.3690767 0.7883701 0.2001346
0.5109329 0.7843242 0.1960886
0.6494587 0.7803732 0.1921377
0.7854049 0.7764959 0.1882603
0.9192521 0.7726784 0.1844428
1.0000000 0.7694466 0.1812111
1.0000000 0.7694466 0.1812111
0.0561371 0.9153708 0.1965286
0.2103719 0.9109718 0.1921297
0.3568928 0.9067928 0.1879507
0.4987490 0.9027469 0.1839048
0.6372748 0.8987959 0.1799538
0.7732210 0.8949186 0.1760765
0.9070682 0.8911011 0.1722590
1.0000000 0.8878693 0.1690271
1.0000000 0.8878693 0.1690271
0.0440311 1.0000000 0.1844227
0.1982659 1.0000000 0.1800237
0.3447868 1.0000000 0.1758447
0.4866430 1.0000000 0.1717988
0.6251689 1.0000000 0.1678479
0.7611150 1.0000000 0.1639705
0.8949623 1.0000000 0.1601530
1.0000000 1.0000000 0.1569212
1.0000000 1.0000000 0.1569212
0.1434307 0.0546448 0.4053260
0.2976655 0.0502458 0.4009270
0.4441864 0.0460668 0.3967481
0.5860426 0.0420209 0.3927021
0.7245684 0.0380699 0.3887512
0.8605146 0.0341926 0.3848738
0.9943619 0.0303751 0.3810563
1.0000000 0.0271433 0.3778245
1.0000000 0.0271433 0.3778245
0.1299987 0.1851988 0.3918940
0.2842335 0.1807998 0.3874950
0.4307544 0.1766208 0.3833160
0.5726106 0.1725749 0.3792701
0.7111364 0.1686240 0.3753192
0.8470825 0.1647466 0.3714418
0.9809299 0.1609291 0.3676243
1.0000000 0.1576973 0.3643925
1.0000000 0.1576973 0.3643925
0.1170467 0.3110873 0.3789420
0.2712815 0.3066882 0.3745430
0.4178023 0.3025093 0.3703640
0.5596586 0.2984633 0.3663181
0.6981844 0.2945124 0.3623672
0.8341305 0.2906350 0.3584898
0.9679778 0.2868176 0.3546723
1.0000000 0.2835858 0.3514405
1.0000000 0.2835858 0.3514405
0.1043521 0.4344732 0.3662474
0.2585869 0.4300742 0.3618485
0.4051078 0.4258953 0.3576695
0.5469640 0.4218493 0.3536236
0.6854898 0.4178984 0.3496726
0.8214360 0.4140210 0.3457953
0.9552833 0.4102035 0.3419778
1.0000000 0.4069718 0.3387460
1.0000000 0.4069718 0.3387460
0.0918345 0.5561402 0.3537298
0.2460692 0.5517412 0.3493308
0.3925901 0.5475622 0.3451518
0.5344464 0.5435163 0.3411059
0.6729722 0.5395653 0.3371550
0.8089184 0.5356880 0.3332776
0.9427656 0.5318705 0.3294601
1.0000000 0.5286387 0.3262283
1.0000000 0.5286387 0.3262283
0.0794514 0.6764991 0.3413467
0.2336861 0.6721001 0.3369477
0.3802071 0.6679211 0.3327687
0.5220633 0.6638752 0.3287228
0.6605891 0.6599243 0.3247719
0.7965353 0.6560469 0.3208945
0.9303825 0.6522294 0.3170770
1.0000000 0.6489976 0.3138452
1.0000000 0.6489976 0.3138452
0.0671768 0.7958038 0.3290721
0.2214115 0.7914048 0.3246731
0.3679324 0.7872258 0.3204941
0.5097886 0.7831799 0.3164482
0.6483145 0.7792290 0.3124972
0.7842606 0.7753516 0.3086199
0.9181079 0.7715341 0.3048024
1.0000000 0.7683024 0.3015706
1.0000000 0.7683024 0.3015706
0.0549929 0.9142265 0.3168882
0.2092276 0.9098275 0.3124892
0.3557485 0.9056485 0.3083102
0.4976048 0.9016026 0.3042643
0.6361306 0.8976517 0.3003134
0.7720767 0.8937743 0.2964360
0.9059240 0.8899568 0.2926185
1.0000000 0.8867250 0.2893867
1.0000000 0.8867250 0.2893867
0.0428869 1.0000000 0.3047822
0.1971217 1.0000000 0.3003832
0.3436426 1.0000000 0.2962043
0.4854988 1.0000000 0.2921583
0.6240246 1.0000000 0.2882074
0.7599707 1.0000000 0.2843300
0.8938180 1.0000000 0.2805125
1.0000000 1.0000000 0.2772807
1.0000000 1.0000000 0.2772807
0.1422519 0.0534660 0.5293167
0.2964867 0.0490670 0.5249177
0.4430076 0.0448881 0.5207387
0.5848638 0.0408421 0.5166928
0.7233896 0.0368912 0.5127419
0.8593358 0.0330138 0.5088645
0.9931830 0.0291963 0.5050470
1.0000000 0.0259645 0.5018152
1.0000000 0.0259645 0.5018152
0.1288199 0.1840200 0.5158847
0.2830547 0.1796210 0.5114857
0.4295756 0.1754421 0.5073067
0.5714318 0.1713961 0.5032608
0.7099576 0.1674452 0.4993098
0.8459038 0.1635678 0.4954325
0.9797510 0.1597503 0.4916150
1.0000000 0.1565185 0.4883832
1.0000000 0.1565185 0.4883832
0.1158679 0.3099085 0.5029327
0.2701027 0.3055095 0.4985337
0.4166236 0.3013305 0.4943547
0.5584798 0.2972846 0.4903088
0.6970056 0.2933336 0.4863578
0.8329518 0.2894563 0.4824805
0.9667990 0.2856388 0.4786630
1.0000000 0.2824070 0.4754312
1.0000000 0.2824070 0.4754312
0.1031733 0.4332945 0.4902381
0.2574081 0.4288955 0.4858392
0.4039291 0.4247165 0.4816602
0.5457852 0.4206706 0.4776143
0.6843111 0.4167196 0.4736633
0.8202572 0.4128423 0.4697859
0.9541045 0.4090248 0.4659684
1.0000000 0.4057930 0.4627367
1.0000000 0.4057930 0.4627367
0.0906557 0.5549614 0.4777205
0.2448905 0.5505624 0.4733215
0.3914114 0.5463834 0.4691425
0.5332676 0.5423375 0.4650966
0.6717934 0.5383866 0.4611456
0.8077396 0.5345092 0.4572683
0.9415868 0.5306917 0.4534508
1.0000000 0.5274599 0.4502190
1.0000000 0.5274599 0.4502190
0.0782726 0.6753203 0.4653374
0.2325074 0.6709213 0.4609384
0.3790283 0.6667424 0.4567594
0.5208845 0.6626964 0.4527135
0.6594103 0.6587455 0.4487625
0.7953565 0.6548681 0.4448852
0.9292037 0.6510506 0.4410677
1.0000000 0.6478189 0.4378359
1.0000000 0.6478189 0.4378359
0.0659980 0.7946250 0.4530627
0.2202327 0.7902261 0.4486637
0.3667536 0.7860471 0.4444848
0.5086099 0.7820011 0.4404388
0.6471357 0.7780502 0.4364879
0.7830818 0.7741728 0.4326105
0.9169291 0.7703553 0.4287930
1.0000000 0.7671236 0.4255612
1.0000000 0.7671236 0.4255612
0.0538141 0.9130477 0.4408788
0.2080488 0.9086487 0.4364799
0.3545697 0.9044697 0.4323009
0.4964260 0.9004238 0.4282550
0.6349518 0.8964729 0.4243040
0.7708979 0.8925955 0.4204266
0.9047452 0.8887780 0.4166091
1.0000000 0.8855463 0.4133774
1.0000000 0.8855463 0.4133774
0.0417081 1.0000000 0.4287729
0.1959429 1.0000000 0.4243739
0.3424638 1.0000000 0.4201949
0.4843200 1.0000000 0.4161490
0.6228458 1.0000000 0.4121980
0.7587920 1.0000000 0.4083207
0.8926392 1.0000000 0.4045032
1.0000000 1.0000000 0.4012714
1.0000000 1.0000000 0.4012714
0.1410452 0.0522593 0.6562435
0.2952800 0.0478603 0.6518446
0.4418009 0.0436814 0.6476656
0.5836571 0.0396354 0.6436196
0.7221830 0.0356845 0.6396687
0.8581290 0.0318071 0.6357913
0.9919764 0.0279896 0.6319739
1.0000000 0.0247579 0.6287420
1.0000000 0.0247579 0.6287420
0.1276132 0.1828133 0.6428115
0.2818480 0.1784143 0.6384125
0.4283689 0.1742354 0.6342336
0.5702251 0.1701894 0.6301876
0.7087510 0.1662385 0.6262367
0.8446971 0.1623611 0.6223593
0.9785444 0.1585436 0.6185418
1.0000000 0.1553119 0.6153101
1.0000000 0.1553119 0.6153101
0.1146612 0.3087018 0.6298595
0.2688960 0.3043028 0.6254605
0.4154169 0.3001238 0.6212816
0.5572731 0.2960779 0.6172356
0.6957989 0.2921270 0.6132847
0.8317451 0.2882496 0.6094073
0.9655923 0.2844321 0.6055898
1.0000000 0.2812003 0.6023580
1.0000000 0.2812003 0.6023580
0.1019667 0.4320878 0.6171650
0.2562014 0.4276888 0.6127660
0.4027224 0.4235098 0.6085870
0.5445786 0.4194639 0.6045411
0.6831044 0.4155129 0.6005901
0.8190506 0.4116356 0.5967128
0.9528978 0.4078181 0.5928953
1.0000000 0.4045863 0.5896635
1.0000000 0.4045863 0.5896635
0.0894490 0.5537547 0.6046473
0.2436838 0.5493557 0.6002483
0.3902047 0.5451767 0.5960693
0.5320609 0.5411308 0.5920234
0.6705867 0.5371799 0.5880725
0.8065329 0.5333025 0.5841951
0.9403801 0.5294850 0.5803776
1.0000000 0.5262532 0.5771458
1.0000000 0.5262532 0.5771458
0.0770659 0.6741136 0.5922642
0.2313007 0.6697147 0.5878652
0.3778216 0.6655357 0.5836862
0.5196778 0.6614898 0.5796403
0.6582037 0.6575388 0.5756894
0.7941498 0.6536614 0.5718120
0.9279970 0.6498439 0.5679945
1.0000000 0.6466122 0.5647627
1.0000000 0.6466122 0.5647627
0.0647913 0.7934183 0.5799896
0.2190261 0.7890194 0.5755906
0.3655470 0.7848404 0.5714116
0.5074032 0.7807945 0.5673656
0.6459290 0.7768435 0.5634148
0.7818751 0.7729661 0.5595374
0.9157224 0.7691486 0.5557199
1.0000000 0.7659169 0.5524881
1.0000000 0.7659169 0.5524881
0.0526074 0.9118410 0.5678056
0.2068422 0.9074421 0.5634067
0.3533631 0.9032631 0.5592277
0.4952193 0.8992171 0.5551818
0.6337451 0.8952662 0.5512308
0.7696912 0.8913888 0.5473535
0.9035385 0.8875713 0.5435359
1.0000000 0.8843396 0.5403042
1.0000000 0.8843396 0.5403042
0.0405014 1.0000000 0.5556997
0.1947362 1.0000000 0.5513008
0.3412571 1.0000000 0.5471218
0.4831133 1.0000000 0.5430758
0.6216391 1.0000000 0.5391248
0.7575853 1.0000000 0.5352475
0.8914325 1.0000000 0.5314300
1.0000000 1.0000000 0.5281982
1.0000000 1.0000000 0.5281982
0.1398150 0.0510291 0.7856454
0.2940498 0.0466301 0.7812465
0.4405707 0.0424512 0.7770675
0.5824269 0.0384052 0.7730216
0.7209527 0.0344543 0.7690706
0.8568989 0.0305769 0.7651932
0.9907461 0.0267594 0.7613758
1.0000000 0.0235277 0.7581440
1.0000000 0.0235277 0.7581440
0.1263830 0.1815831 0.7722134
0.2806178 0.1771841 0.7678145
0.4271387 0.1730052 0.7636355
0.5689949 0.1689592 0.7595896
0.7075207 0.1650083 0.7556386
0.8434669 0.1611309 0.7517612
0.9773141 0.1573134 0.7479438
1.0000000 0.1540816 0.7447120
1.0000000 0.1540816 0.7447120
0.1134310 0.3074716 0.7592614
0.2676658 0.3030726 0.7548624
0.4141867 0.2988936 0.7506834
0.5560429 0.2948477 0.7466375
0.6945688 0.2908968 0.7426866
0.8305149 0.2870194 0.7388092
0.9643621 0.2832019 0.7349917
1.0000000 0.2799701 0.7317600
1.0000000 0.2799701 0.7317600
0.1007365 0.4308576 0.7465669
0.2549712 0.4264586 0.7421679
0.4014921 0.4222796 0.7379889
0.5433484 0.4182337 0.7339430
0.6818742 0.4142827 0.7299920
0.8178203 0.4104054 0.7261147
0.9516675 0.4065879 0.7222972
1.0000000 0.4033561 0.7190654
1.0000000 0.4033561 0.7190654
0.0882188 0.5525245 0.7340492
0.2424536 0.5481255 0.7296503
0.3889745 0.5439466 0.7254713
0.5308307 0.5399006 0.7214253
0.6693565 0.5359496 0.7174744
0.8053027 0.5320723 0.7135970
0.9391499 0.5282548 0.7097795
1.0000000 0.5250230 0.7065477
1.0000000 0.5250230 0.7065477
0.0758357 0.6728835 0.7216661
0.2300705 0.6684844 0.7172672
0.3765914 0.6643054 0.7130882
0.5184476 0.6602595 0.7090423
0.6569734 0.6563086 0.7050913
0.7929196 0.6524312 0.7012139
0.9267668 0.6486138 0.6973964
1.0000000 0.6453819 0.6941646
1.0000000 0.6453819 0.6941646
0.0635611 0.7921882 0.7093915
0.2177958 0.7877892 0.7049925
0.3643167 0.7836102 0.7008135
0.5061730 0.7795643 0.6967676
0.6446988 0.7756133 0.6928167
0.7806450 0.7717360 0.6889393
0.9144922 0.7679185 0.6851218
1.0000000 0.7646867 0.6818900
1.0000000 0.7646867 0.6818900
0.0513772 0.9106109 0.6972076
0.2056119 0.9062119 0.6928086
0.3521329 0.9020329 0.6886296
0.4939891 0.8979869 0.6845837
0.6325149 0.8940360 0.6806328
0.7684610 0.8901587 0.6767554
0.9023083 0.8863412 0.6729379
1.0000000 0.8831093 0.6697061
1.0000000 0.8831093 0.6697061
0.0392712 1.0000000 0.6851016
0.1935060 1.0000000 0.6807026
0.3400269 1.0000000 0.6765237
0.4818831 1.0000000 0.6724777
0.6204089 1.0000000 0.6685268
0.7563550 1.0000000 0.6646494
0.8902023 1.0000000 0.6608319
1.0000000 1.0000000 0.6576002
1.0000000 1.0000000 0.6576002
0.1385644 0.0497785 0.9171928
0.2927992 0.0453795 0.9127939
0.4393201 0.0412005 0.9086149
0.5811763 0.0371546 0.9045689
0.7197021 0.0332037 0.9006181
0.8556483 0.0293263 0.8967407
0.9894955 0.0255088 0.8929231
1.0000000 0.0222770 0.8896914
1.0000000 0.0222770 0.8896914
0.1251324 0.1803325 0.9037609
0.2793672 0.1759335 0.8993618
0.4258881 0.1717545 0.8951828
0.5677443 0.1677086 0.8911369
0.7062701 0.1637577 0.8871861
0.8422163 0.1598803 0.8833086
0.9760635 0.1560628 0.8794912
1.0000000 0.1528310 0.8762594
1.0000000 0.1528310 0.8762594
0.1121804 0.3062210 0.8908088
0.2664152 0.3018220 0.8864099
0.4129361 0.2976430 0.8822309
0.5547923 0.2935971 0.8781849
0.6933181 0.2896461 0.8742340
0.8292643 0.2857688 0.8703567
0.9631115 0.2819513 0.8665391
1.0000000 0.2787195 0.8633074
1.0000000 0.2787195 0.8633074
0.0994858 0.4296069 0.8781143
0.2537206 0.4252080 0.8737153
0.4002415 0.4210290 0.8695363
0.5420977 0.4169831 0.8654904
0.6806236 0.4130321 0.8615395
0.8165697 0.4091548 0.8576621
0.9504170 0.4053373 0.8538446
1.0000000 0.4021055 0.8506129
1.0000000 0.4021055 0.8506129
0.0869682 0.5512739 0.8655967
0.2412030 0.5468749 0.8611977
0.3877239 0.5426959 0.8570187
0.5295801 0.5386500 0.8529727
0.6681059 0.5346991 0.8490218
0.8040521 0.5308217 0.8451445
0.9378993 0.5270042 0.8413270
1.0000000 0.5237724 0.8380952
1.0000000 0.5237724 0.8380952
0.0745851 0.6716328 0.8532135
0.2288199 0.6672338 0.8488145
0.3753408 0.6630549 0.8446356
0.5171970 0.6590089 0.8405896
0.6557228 0.6550580 0.8366387
0.7916690 0.6511806 0.8327613
0.9255162 0.6473631 0.8289438
1.0000000 0.6441314 0.8257121
1.0000000 0.6441314 0.8257121
0.0623105 0.7909375 0.8409389
0.2165452 0.7865385 0.8365399
0.3630661 0.7823596 0.8323610
0.5049224 0.7783136 0.8283150
0.6434482 0.7743627 0.8243641
0.7793943 0.7704853 0.8204867
0.9132416 0.7666678 0.8166692
1.0000000 0.7634361 0.8134375
1.0000000 0.7634361 0.8134375
0.0501266 0.9093602 0.8287550
0.2043613 0.9049612 0.8243560
0.3508822 0.9007823 0.8201771
0.4927385 0.8967363 0.8161311
0.6312643 0.8927854 0.8121802
0.7672104 0.8889080 0.8083028
0.9010577 0.8850905 0.8044853
1.0000000 0.8818588 0.8012536
1.0000000 0.8818588 0.8012536
0.0380206 1.0000000 0.8166491
0.1922554 1.0000000 0.8122501
0.3387763 1.0000000 0.8080711
0.4806325 1.0000000 0.8040252
0.6191583 1.0000000 0.8000742
0.7551045 1.0000000 0.7961968
0.8889517 1.0000000 0.7923794
1.0000000 0.9995241 0.7891476
1.0000000 0.9995241 0.7891476
