luts/lume_20260404_214048.cube
TITLE "Lume Grade"
LUT_3D_SIZE 5
0.0000000 0.0000000 0.0200538
0.3237163 0.0000000 0.0056652
0.7002394 0.0000000 0.0000000
1.0000000 0.0000000 0.0000000
1.0000000 0.0000000 0.0000000
0.0000000 0.2280056 0.0000000
0.2856097 0.2136169 0.0000000
0.6621329 0.1968962 0.0000000
1.0000000 0.1806376 0.0000000
1.0000000 0.1748557 0.0000000
0.0000000 0.5513741 0.0000000
0.2316345 0.5369855 0.0000000
0.6081576 0.5202647 0.0000000
0.9742746 0.5040061 0.0000000
1.0000000 0.4982242 0.0000000
0.0000000 0.8747426 0.0000000
0.1776592 0.8603539 0.0000000
0.5541824 0.8436332 0.0000000
0.9202994 0.8273746 0.0000000
1.0000000 0.8215927 0.0000000
0.0000000 1.0000000 0.0000000
0.1449164 1.0000000 0.0000000
0.5214397 1.0000000 0.0000000
0.8875567 1.0000000 0.0000000
1.0000000 1.0000000 0.0000000
0.0000000 0.0000000 0.2010114
0.3210649 0.0000000 0.1866228
0.6975881 0.0000000 0.1699021
1.0000000 0.0000000 0.1536435
1.0000000 0.0000000 0.1478616
0.0000000 0.2253543 0.1629049
0.2829584 0.2109656 0.1485163
0.6594816 0.1942449 0.1317955
1.0000000 0.1779863 0.1155369
1.0000000 0.1722043 0.1097550
0.0000000 0.5487227 0.1089296
0.2289831 0.5343341 0.0945410
0.6055063 0.5176134 0.0778203
0.9716234 0.5013548 0.0615616
1.0000000 0.4955729 0.0557798
0.0000000 0.8720912 0.0549544
0.1750079 0.8577026 0.0405658
0.5515311 0.8409819 0.0238450
0.9176481 0.8247232 0.0075864
1.0000000 0.8189414 0.0018045
0.0000000 1.0000000 0.0222116
0.1422651 1.0000000 0.0078231
0.5187883 1.0000000 0.0000000
0.8849053 1.0000000 0.0000000
1.0000000 1.0000000 0.0000000
0.0000000 0.0000000 0.5159028
0.3164513 0.0000000 0.5015141
0.6929745 0.0000000 0.4847934
1.0000000 0.0000000 0.4685348
1.0000000 0.0000000 0.4627529
0.0000000 0.2207406 0.4777962
0.2783448 0.2063520 0.4634076
0.6548679 0.1896312 0.4466869
1.0000000 0.1733726 0.4304282
1.0000000 0.1675907 0.4246463
0.0000000 0.5441091 0.4238210
0.2243695 0.5297205 0.4094324
0.6008927 0.5129997 0.3927116
0.9670097 0.4967411 0.3764530
1.0000000 0.4909592 0.3706711
0.0000000 0.8674776 0.3698457
0.1703942 0.8530890 0.3554571
0.5469174 0.8363682 0.3387364
0.9130344 0.8201096 0.3224778
1.0000000 0.8143277 0.3166958
0.0000000 1.0000000 0.3371029
0.1376514 1.0000000 0.3227143
0.5141747 1.0000000 0.3059936
0.8802917 1.0000000 0.2897350
1.0000000 1.0000000 0.2839531
0.0000000 0.0000000 0.8414248
0.3116819 0.0000000 0.8270361
0.6882051 0.0000000 0.8103154
1.0000000 0.0000000 0.7940568
1.0000000 0.0000000 0.7882749
0.0000000 0.2159712 0.8033182
0.2735753 0.2015826 0.7889296
0.6500985 0.1848618 0.7722088
1.0000000 0.1686032 0.7559502
1.0000000 0.1628213 0.7501683
0.0000000 0.5393397 0.7493429
0.2196001 0.5249510 0.7349543
0.5961233 0.5082303 0.7182336
0.9622403 0.4919717 0.7019750
1.0000000 0.4861898 0.6961930
0.0000000 0.8627082 0.6953677
0.1656249 0.8483195 0.6809791
0.5421480 0.8315988 0.6642584
0.9082651 0.8153402 0.6479998
1.0000000 0.8095583 0.6422178
0.0000000 1.0000000 0.6626250
0.1328821 1.0000000 0.6482363
0.5094053 1.0000000 0.6315156
0.8755223 1.0000000 0.6152570
1.0000000 1.0000000 0.6094750
0.0000000 0.0000000 1.0000000
0.3074768 0.0000000 1.0000000
0.6840000 0.0000000 1.0000000
1.0000000 0.0000000 1.0000000
1.0000000 0.0000000 1.0000000
0.0000000 0.2117661 1.0000000
0.2693703 0.1973775 1.0000000
0.6458935 0.1806567 1.0000000
1.0000000 0.1643981 1.0000000
1.0000000 0.1586162 1.0000000
0.0000000 0.5351346 1.0000000
0.2153950 0.5207460 1.0000000
0.5919182 0.5040252 1.0000000
0.9580352 0.4877666 0.9889809
1.0000000 0.4819847 0.9831990
0.0000000 0.8585031 0.9823736
0.1614197 0.8441145 0.9679850
0.5379429 0.8273938 0.9512643
0.9040599 0.8111351 0.9350057
1.0000000 0.8053532 0.9292237
0.0000000 1.0000000 0.9496309
0.1286770 1.0000000 0.9352422
0.5052001 1.0000000 0.9185215
0.8713172 1.0000000 0.9022629
1.0000000 1.0000000 0.8964810
