luts/lume_20260406_003513.cube
TITLE "Lume Grade"
LUT_3D_SIZE 33
0.0263243 0.0105439 0.0000000
0.0481445 0.0097423 0.0000000
0.0960242 0.0079835 0.0000000
0.1427049 0.0062686 0.0000000
0.1886284 0.0045816 0.0000000
0.2339983 0.0029150 0.0000000
0.2789326 0.0012643 0.0000000
0.3235082 0.0000000 0.0000000
0.3677793 0.0000000 0.0000000
0.4117858 0.0000000 0.0000000
0.4555590 0.0000000 0.0000000
0.4991232 0.0000000 0.0000000
0.5424985 0.0000000 0.0000000
0.5857013 0.0000000 0.0000000
0.6287456 0.0000000 0.0000000
0.6716435 0.0000000 0.0000000
0.7144048 0.0000000 0.0000000
0.7570389 0.0000000 0.0000000
0.7995534 0.0000000 0.0000000
0.8419553 0.0000000 0.0000000
0.8842509 0.0000000 0.0000000
0.9264455 0.0000000 0.0000000
0.9685447 0.0000000 0.0000000
1.0000000 0.0000000 0.0000000
1.0000000 0.0000000 0.0000000
1.0000000 0.0000000 0.0000000
1.0000000 0.0000000 0.0000000
1.0000000 0.0000000 0.0000000
1.0000000 0.0000000 0.0000000
1.0000000 0.0000000 0.0000000
1.0000000 0.0000000 0.0000000
1.0000000 0.0000000 0.0000000
1.0000000 0.0000000 0.0000000
0.0263243 0.0105439 0.0000000
0.0481445 0.0097423 0.0000000
0.0960242 0.0079835 0.0000000
0.1427049 0.0062686 0.0000000
0.1886284 0.0045816 0.0000000
0.2339983 0.0029150 0.0000000
0.2789326 0.0012643 0.0000000
0.3235082 0.0000000 0.0000000
0.3677793 0.0000000 0.0000000
0.4117858 0.0000000 0.0000000
0.4555590 0.0000000 0.0000000
0.4991232 0.0000000 0.0000000
0.5424985 0.0000000 0.0000000
0.5857013 0.0000000 0.0000000
0.6287456 0.0000000 0.0000000
0.6716435 0.0000000 0.0000000
0.7144048 0.0000000 0.0000000
0.7570389 0.0000000 0.0000000
0.7995534 0.0000000 0.0000000
0.8419553 0.0000000 0.0000000
0.8842509 0.0000000 0.0000000
0.9264455 0.0000000 0.0000000
0.9685447 0.0000000 0.0000000
1.0000000 0.0000000 0.0000000
1.0000000 0.0000000 0.0000000
1.0000000 0.0000000 0.0000000
1.0000000 0.0000000 0.0000000
1.0000000 0.0000000 0.0000000
1.0000000 0.0000000 0.0000000
1.0000000 0.0000000 0.0000000
1.0000000 0.0000000 0.0000000
1.0000000 0.0000000 0.0000000
1.0000000 0.0000000 0.0000000
0.0233402 0.0325942 0.0000000
0.0451604 0.0317926 0.0000000
0.0930401 0.0300338 0.0000000
0.1397209 0.0283190 0.0000000
0.1856443 0.0266320 0.0000000
0.2310142 0.0249653 0.0000000
0.2759485 0.0233146 0.0000000
0.3205241 0.0216772 0.0000000
0.3647952 0.0200509 0.0000000
0.4088018 0.0184343 0.0000000
0.4525749 0.0168263 0.0000000
0.4961391 0.0152259 0.0000000
0.5395144 0.0136326 0.0000000
0.5827172 0.0120455 0.0000000
0.6257616 0.0104643 0.0000000
0.6686593 0.0088884 0.0000000
0.7114207 0.0073176 0.0000000
0.7540548 0.0057514 0.0000000
0.7965692 0.0041897 0.0000000
0.8389712 0.0026320 0.0000000
0.8812668 0.0010783 0.0000000
0.9234614 0.0000000 0.0000000
0.9655606 0.0000000 0.0000000
1.0000000 0.0000000 0.0000000
1.0000000 0.0000000 0.0000000
1.0000000 0.0000000 0.0000000
1.0000000 0.0000000 0.0000000
1.0000000 0.0000000 0.0000000
1.0000000 0.0000000 0.0000000
1.0000000 0.0000000 0.0000000
1.0000000 0.0000000 0.0000000
1.0000000 0.0000000 0.0000000
1.0000000 0.0000000 0.0000000
0.0179648 0.0723145 0.0000000
0.0397849 0.0715129 0.0000000
0.0876647 0.0697541 0.0000000
0.1343454 0.0680392 0.0000000
0.1802689 0.0663522 0.0000000
0.2256388 0.0646856 0.0000000
0.2705731 0.0630349 0.0000000
0.3151487 0.0613974 0.0000000
0.3594198 0.0597711 0.0000000
0.4034263 0.0581546 0.0000000
0.4471995 0.0565466 0.0000000
0.4907637 0.0549462 0.0000000
0.5341390 0.0533528 0.0000000
0.5773418 0.0517658 0.0000000
0.6203861 0.0501845 0.0000000
0.6632839 0.0486087 0.0000000
0.7060453 0.0470379 0.0000000
0.7486794 0.0454717 0.0000000
0.7911938 0.0439099 0.0000000
0.8335958 0.0423523 0.0000000
0.8758914 0.0407986 0.0000000
0.9180861 0.0392485 0.0000000
0.9601852 0.0377020 0.0000000
1.0000000 0.0361589 0.0000000
1.0000000 0.0346189 0.0000000
1.0000000 0.0330820 0.0000000
1.0000000 0.0315480 0.0000000
1.0000000 0.0308190 0.0000000
1.0000000 0.0308190 0.0000000
1.0000000 0.0308190 0.0000000
1.0000000 0.0308190 0.0000000
1.0000000 0.0308190 0.0000000
1.0000000 0.0308190 0.0000000
0.0126502 0.1115851 0.0000000
0.0344704 0.1107836 0.0000000
0.0823501 0.1090247 0.0000000
0.1290309 0.1073099 0.0000000
0.1749543 0.1056229 0.0000000
0.2203242 0.1039562 0.0000000
0.2652585 0.1023056 0.0000000
0.3098341 0.1006681 0.0000000
0.3541052 0.0990418 0.0000000
0.3981118 0.0974252 0.0000000
0.4418849 0.0958172 0.0000000
0.4854492 0.0942169 0.0000000
0.5288244 0.0926235 0.0000000
0.5720273 0.0910364 0.0000000
0.6150715 0.0894552 0.0000000
0.6579694 0.0878793 0.0000000
0.7007307 0.0863085 0.0000000
0.7433648 0.0847423 0.0000000
0.7858793 0.0831806 0.0000000
0.8282812 0.0816229 0.0000000
0.8705769 0.0800692 0.0000000
0.9127716 0.0785192 0.0000000
0.9548706 0.0769727 0.0000000
0.9968785 0.0754295 0.0000000
1.0000000 0.0738896 0.0000000
1.0000000 0.0723527 0.0000000
1.0000000 0.0708187 0.0000000
1.0000000 0.0700897 0.0000000
1.0000000 0.0700897 0.0000000
1.0000000 0.0700897 0.0000000
1.0000000 0.0700897 0.0000000
1.0000000 0.0700897 0.0000000
1.0000000 0.0700897 0.0000000
0.0073733 0.1505779 0.0000000
0.0291934 0.1497764 0.0000000
0.0770732 0.1480175 0.0000000
0.1237539 0.1463027 0.0000000
0.1696774 0.1446157 0.0000000
0.2150473 0.1429490 0.0000000
0.2599815 0.1412984 0.0000000
0.3045572 0.1396609 0.0000000
0.3488283 0.1380346 0.0000000
0.3928348 0.1364180 0.0000000
0.4366080 0.1348100 0.0000000
0.4801722 0.1332097 0.0000000
0.5235474 0.1316163 0.0000000
0.5667503 0.1300292 0.0000000
0.6097946 0.1284480 0.0000000
0.6526924 0.1268722 0.0000000
0.6954538 0.1253013 0.0000000
0.7380879 0.1237352 0.0000000
0.7806023 0.1221734 0.0000000
0.8230042 0.1206158 0.0000000
0.8652998 0.1190620 0.0000000
0.9074945 0.1175120 0.0000000
0.9495937 0.1159655 0.0000000
0.9916015 0.1144223 0.0000000
1.0000000 0.1128824 0.0000000
1.0000000 0.1113455 0.0000000
1.0000000 0.1098115 0.0000000
1.0000000 0.1090825 0.0000000
1.0000000 0.1090825 0.0000000
1.0000000 0.1090825 0.0000000
1.0000000 0.1090825 0.0000000
1.0000000 0.1090825 0.0000000
1.0000000 0.1090825 0.0000000
0.0021237 0.1893689 0.0000000
0.0239438 0.1885673 0.0000000
0.0718236 0.1868084 0.0000000
0.1185043 0.1850936 0.0000000
0.1644277 0.1834066 0.0000000
0.2097977 0.1817400 0.0000000
0.2547319 0.1800893 0.0000000
0.2993075 0.1784518 0.0000000
0.3435786 0.1768255 0.0000000
0.3875852 0.1752089 0.0000000
0.4313583 0.1736009 0.0000000
0.4749226 0.1720006 0.0000000
0.5182978 0.1704072 0.0000000
0.5615007 0.1688202 0.0000000
0.6045450 0.1672389 0.0000000
0.6474428 0.1656631 0.0000000
0.6902041 0.1640922 0.0000000
0.7328382 0.1625261 0.0000000
0.7753527 0.1609643 0.0000000
0.8177546 0.1594067 0.0000000
0.8600502 0.1578529 0.0000000
0.9022449 0.1563029 0.0000000
0.9443439 0.1547564 0.0000000
0.9863518 0.1532133 0.0000000
1.0000000 0.1516733 0.0000000
1.0000000 0.1501364 0.0000000
1.0000000 0.1486024 0.0000000
1.0000000 0.1478734 0.0000000
1.0000000 0.1478734 0.0000000
1.0000000 0.1478734 0.0000000
1.0000000 0.1478734 0.0000000
1.0000000 0.1478734 0.0000000
1.0000000 0.1478734 0.0000000
0.0000000 0.2280012 0.0000000
0.0187156 0.2271996 0.0000000
0.0665954 0.2254408 0.0000000
0.1132761 0.2237260 0.0000000
0.1591996 0.2220390 0.0000000
0.2045695 0.2203723 0.0000000
0.2495037 0.2187217 0.0000000
0.2940794 0.2170842 0.0000000
0.3383504 0.2154579 0.0000000
0.3823570 0.2138413 0.0000000
0.4261301 0.2122333 0.0000000
0.4696944 0.2106330 0.0000000
0.5130696 0.2090396 0.0000000
0.5562725 0.2074525 0.0000000
0.5993168 0.2058713 0.0000000
0.6422147 0.2042954 0.0000000
0.6849760 0.2027246 0.0000000
0.7276101 0.2011584 0.0000000
0.7701245 0.1995967 0.0000000
0.8125265 0.1980390 0.0000000
0.8548220 0.1964853 0.0000000
0.8970167 0.1949353 0.0000000
0.9391159 0.1933888 0.0000000
0.9811238 0.1918456 0.0000000
1.0000000 0.1903057 0.0000000
1.0000000 0.1887687 0.0000000
1.0000000 0.1872348 0.0000000
1.0000000 0.1865057 0.0000000
1.0000000 0.1865057 0.0000000
1.0000000 0.1865057 0.0000000
1.0000000 0.1865057 0.0000000
1.0000000 0.1865057 0.0000000
1.0000000 0.1865057 0.0000000
0.0000000 0.2665030 0.0000000
0.0135051 0.2657015 0.0000000
0.0613849 0.2639426 0.0000000
0.1080656 0.2622278 0.0000000
0.1539891 0.2605408 0.0000000
0.1993590 0.2588741 0.0000000
0.2442932 0.2572235 0.0000000
0.2888688 0.2555860 0.0000000
0.3331400 0.2539597 0.0000000
0.3771465 0.2523431 0.0000000
0.4209196 0.2507351 0.0000000
0.4644839 0.2491348 0.0000000
0.5078591 0.2475414 0.0000000
0.5510620 0.2459543 0.0000000
0.5941063 0.2443731 0.0000000
0.6370041 0.2427973 0.0000000
0.6797655 0.2412264 0.0000000
0.7223995 0.2396603 0.0000000
0.7649140 0.2380985 0.0000000
0.8073159 0.2365409 0.0000000
0.8496116 0.2349871 0.0000000
0.8918062 0.2334371 0.0000000
0.9339054 0.2318906 0.0000000
0.9759132 0.2303474 0.0000000
1.0000000 0.2288075 0.0000000
1.0000000 0.2272706 0.0000000
1.0000000 0.2257366 0.0000000
1.0000000 0.2250076 0.0000000
1.0000000 0.2250076 0.0000000
1.0000000 0.2250076 0.0000000
1.0000000 0.2250076 0.0000000
1.0000000 0.2250076 0.0000000
1.0000000 0.2250076 0.0000000
0.0000000 0.3048940 0.0000000
0.0083096 0.3040924 0.0000000
0.0561894 0.3023335 0.0000000
0.1028701 0.3006187 0.0000000
0.1487936 0.2989317 0.0000000
0.1941635 0.2972651 0.0000000
0.2390977 0.2956144 0.0000000
0.2836733 0.2939769 0.0000000
0.3279445 0.2923506 0.0000000
0.3719510 0.2907341 0.0000000
0.4157241 0.2891260 0.0000000
0.4592884 0.2875257 0.0000000
0.5026636 0.2859323 0.0000000
0.5458665 0.2843453 0.0000000
0.5889108 0.2827640 0.0000000
0.6318086 0.2811882 0.0000000
0.6745700 0.2796173 0.0000000
0.7172040 0.2780512 0.0000000
0.7597185 0.2764894 0.0000000
0.8021204 0.2749318 0.0000000
0.8444160 0.2733780 0.0000000
0.8866107 0.2718280 0.0000000
0.9287098 0.2702815 0.0000000
0.9707178 0.2687384 0.0000000
1.0000000 0.2671984 0.0000000
1.0000000 0.2656615 0.0000000
1.0000000 0.2641275 0.0000000
1.0000000 0.2633985 0.0000000
1.0000000 0.2633985 0.0000000
1.0000000 0.2633985 0.0000000
1.0000000 0.2633985 0.0000000
1.0000000 0.2633985 0.0000000
1.0000000 0.2633985 0.0000000
0.0000000 0.3431885 0.0000000
0.0031271 0.3423870 0.0000000
0.0510069 0.3406281 0.0000000
0.0976876 0.3389133 0.0000000
0.1436111 0.3372263 0.0000000
0.1889810 0.3355596 0.0000000
0.2339153 0.3339089 0.0000000
0.2784909 0.3322715 0.0000000
0.3227620 0.3306452 0.0000000
0.3667686 0.3290286 0.0000000
0.4105417 0.3274206 0.0000000
0.4541059 0.3258202 0.0000000
0.4974812 0.3242269 0.0000000
0.5406840 0.3226398 0.0000000
0.5837283 0.3210586 0.0000000
0.6266261 0.3194827 0.0000000
0.6693875 0.3179119 0.0000000
0.7120216 0.3163457 0.0000000
0.7545360 0.3147840 0.0000000
0.7969380 0.3132263 0.0000000
0.8392336 0.3116726 0.0000000
0.8814282 0.3101226 0.0000000
0.9235274 0.3085760 0.0000000
0.9655353 0.3070329 0.0000000
1.0000000 0.3054929 0.0000000
1.0000000 0.3039560 0.0000000
1.0000000 0.3024220 0.0000000
1.0000000 0.3016930 0.0000000
1.0000000 0.3016930 0.0000000
1.0000000 0.3016930 0.0000000
1.0000000 0.3016930 0.0000000
1.0000000 0.3016930 0.0000000
1.0000000 0.3016930 0.0000000
0.0000000 0.3813979 0.0000000
0.0000000 0.3805963 0.0000000
0.0458360 0.3788375 0.0000000
0.0925167 0.3771226 0.0000000
0.1384402 0.3754357 0.0000000
0.1838101 0.3737690 0.0000000
0.2287443 0.3721183 0.0000000
0.2733200 0.3704808 0.0000000
0.3175910 0.3688545 0.0000000
0.3615976 0.3672380 0.0000000
0.4053707 0.3656299 0.0000000
0.4489350 0.3640296 0.0000000
0.4923102 0.3624362 0.0000000
0.5355131 0.3608492 0.0000000
0.5785574 0.3592680 0.0000000
0.6214552 0.3576921 0.0000000
0.6642165 0.3561212 0.0000000
0.7068506 0.3545551 0.0000000
0.7493651 0.3529933 0.0000000
0.7917671 0.3514357 0.0000000
0.8340627 0.3498819 0.0000000
0.8762573 0.3483319 0.0000000
0.9183564 0.3467854 0.0000000
0.9603643 0.3452423 0.0000000
1.0000000 0.3437023 0.0000000
1.0000000 0.3421654 0.0000000
1.0000000 0.3406314 0.0000000
1.0000000 0.3399024 0.0000000
1.0000000 0.3399024 0.0000000
1.0000000 0.3399024 0.0000000
1.0000000 0.3399024 0.0000000
1.0000000 0.3399024 0.0000000
1.0000000 0.3399024 0.0000000
0.0000000 0.4195310 0.0000000
0.0000000 0.4187294 0.0000000
0.0406754 0.4169705 0.0000000
0.0873561 0.4152557 0.0000000
0.1332796 0.4135687 0.0000000
0.1786495 0.4119020 0.0000000
0.2235837 0.4102514 0.0000000
0.2681593 0.4086139 0.0000000
0.3124304 0.4069876 0.0000000
0.3564370 0.4053710 0.0000000
0.4002101 0.4037630 0.0000000
0.4437744 0.4021627 0.0000000
0.4871496 0.4005693 0.0000000
0.5303525 0.3989823 0.0000000
0.5733968 0.3974010 0.0000000
0.6162946 0.3958252 0.0000000
0.6590559 0.3942543 0.0000000
0.7016900 0.3926882 0.0000000
0.7442045 0.3911264 0.0000000
0.7866064 0.3895687 0.0000000
0.8289021 0.3880150 0.0000000
0.8710967 0.3864650 0.0000000
0.9131958 0.3849185 0.0000000
0.9552037 0.3833753 0.0000000
0.9971244 0.3818354 0.0000000
1.0000000 0.3802985 0.0000000
1.0000000 0.3787645 0.0000000
1.0000000 0.3780355 0.0000000
1.0000000 0.3780355 0.0000000
1.0000000 0.3780355 0.0000000
1.0000000 0.3780355 0.0000000
1.0000000 0.3780355 0.0000000
1.0000000 0.3780355 0.0000000
0.0000000 0.4575948 0.0000000
0.0000000 0.4567932 0.0000000
0.0355241 0.4550344 0.0000000
0.0822048 0.4533196 0.0000000
0.1281283 0.4516326 0.0000000
0.1734982 0.4499659 0.0000000
0.2184325 0.4483153 0.0000000
0.2630081 0.4466778 0.0000000
0.3072792 0.4450515 0.0000000
0.3512858 0.4434349 0.0000000
0.3950589 0.4418269 0.0000000
0.4386231 0.4402266 0.0000000
0.4819984 0.4386332 0.0000000
0.5252013 0.4370461 0.0000000
0.5682455 0.4354649 0.0000000
0.6111434 0.4338890 0.0000000
0.6539047 0.4323182 0.0000000
0.6965388 0.4307520 0.0000000
0.7390532 0.4291902 0.0000000
0.7814552 0.4276326 0.0000000
0.8237508 0.4260789 0.0000000
0.8659455 0.4245289 0.0000000
0.9080446 0.4229824 0.0000000
0.9500525 0.4214392 0.0000000
0.9919732 0.4198993 0.0000000
1.0000000 0.4183623 0.0000000
1.0000000 0.4168284 0.0000000
1.0000000 0.4160993 0.0000000
1.0000000 0.4160993 0.0000000
1.0000000 0.4160993 0.0000000
1.0000000 0.4160993 0.0000000
1.0000000 0.4160993 0.0000000
1.0000000 0.4160993 0.0000000
0.0000000 0.4955956 0.0000000
0.0000000 0.4947940 0.0000000
0.0303814 0.4930351 0.0000000
0.0770622 0.4913203 0.0000000
0.1229856 0.4896333 0.0000000
0.1683555 0.4879667 0.0000000
0.2132898 0.4863160 0.0000000
0.2578654 0.4846785 0.0000000
0.3021365 0.4830522 0.0000000
0.3461431 0.4814356 0.0000000
0.3899162 0.4798276 0.0000000
0.4334804 0.4782273 0.0000000
0.4768557 0.4766339 0.0000000
0.5200585 0.4750468 0.0000000
0.5631028 0.4734656 0.0000000
0.6060007 0.4718898 0.0000000
0.6487620 0.4703189 0.0000000
0.6913961 0.4687528 0.0000000
0.7339106 0.4671910 0.0000000
0.7763125 0.4656334 0.0000000
0.8186081 0.4640796 0.0000000
0.8608028 0.4625296 0.0000000
0.9029019 0.4609831 0.0000000
0.9449098 0.4594399 0.0000000
0.9868305 0.4579000 0.0000000
1.0000000 0.4563631 0.0000000
1.0000000 0.4548291 0.0000000
1.0000000 0.4541001 0.0000000
1.0000000 0.4541001 0.0000000
1.0000000 0.4541001 0.0000000
1.0000000 0.4541001 0.0000000
1.0000000 0.4541001 0.0000000
1.0000000 0.4541001 0.0000000
0.0000000 0.5335382 0.0000000
0.0000000 0.5327366 0.0000000
0.0252466 0.5309777 0.0000000
0.0719273 0.5292629 0.0000000
0.1178508 0.5275759 0.0000000
0.1632207 0.5259092 0.0000000
0.2081549 0.5242586 0.0000000
0.2527306 0.5226211 0.0000000
0.2970017 0.5209948 0.0000000
0.3410082 0.5193782 0.0000000
0.3847814 0.5177702 0.0000000
0.4283456 0.5161699 0.0000000
0.4717208 0.5145765 0.0000000
0.5149237 0.5129895 0.0000000
0.5579680 0.5114082 0.0000000
0.6008658 0.5098324 0.0000000
0.6436272 0.5082615 0.0000000
0.6862612 0.5066953 0.0000000
0.7287757 0.5051336 0.0000000
0.7711776 0.5035760 0.0000000
0.8134733 0.5020222 0.0000000
0.8556679 0.5004722 0.0000000
0.8977671 0.4989257 0.0000000
0.9397750 0.4973825 0.0000000
0.9816957 0.4958426 0.0000000
1.0000000 0.4943057 0.0000000
1.0000000 0.4927717 0.0000000
1.0000000 0.4920427 0.0000000
1.0000000 0.4920427 0.0000000
1.0000000 0.4920427 0.0000000
1.0000000 0.4920427 0.0000000
1.0000000 0.4920427 0.0000000
1.0000000 0.4920427 0.0000000
0.0000000 0.5714269 0.0000000
0.0000000 0.5706254 0.0000000
0.0201190 0.5688665 0.0000000
0.0667998 0.5671517 0.0000000
0.1127233 0.5654647 0.0000000
0.1580932 0.5637981 0.0000000
0.2030274 0.5621474 0.0000000
0.2476030 0.5605099 0.0000000
0.2918741 0.5588836 0.0000000
0.3358807 0.5572670 0.0000000
0.3796538 0.5556590 0.0000000
0.4232181 0.5540587 0.0000000
0.4665933 0.5524653 0.0000000
0.5097961 0.5508782 0.0000000
0.5528405 0.5492970 0.0000000
0.5957383 0.5477211 0.0000000
0.6384996 0.5461503 0.0000000
0.6811337 0.5445842 0.0000000
0.7236481 0.5430224 0.0000000
0.7660501 0.5414647 0.0000000
0.8083457 0.5399110 0.0000000
0.8505404 0.5383610 0.0000000
0.8926395 0.5368145 0.0000000
0.9346474 0.5352713 0.0000000
0.9765681 0.5337314 0.0000000
1.0000000 0.5321945 0.0000000
1.0000000 0.5306605 0.0000000
1.0000000 0.5299314 0.0000000
1.0000000 0.5299314 0.0000000
1.0000000 0.5299314 0.0000000
1.0000000 0.5299314 0.0000000
1.0000000 0.5299314 0.0000000
1.0000000 0.5299314 0.0000000
0.0000000 0.6092657 0.0000000
0.0000000 0.6084641 0.0000000
0.0149983 0.6067052 0.0000000
0.0616790 0.6049904 0.0000000
0.1076024 0.6033034 0.0000000
0.1529724 0.6016368 0.0000000
0.1979066 0.5999861 0.0000000
0.2424823 0.5983486 0.0000000
0.2867534 0.5967223 0.0000000
0.3307599 0.5951057 0.0000000
0.3745331 0.5934978 0.0000000
0.4180973 0.5918974 0.0000000
0.4614725 0.5903040 0.0000000
0.5046754 0.5887169 0.0000000
0.5477197 0.5871357 0.0000000
0.5906175 0.5855598 0.0000000
0.6333789 0.5839890 0.0000000
0.6760129 0.5824229 0.0000000
0.7185274 0.5808611 0.0000000
0.7609293 0.5793034 0.0000000
0.8032249 0.5777497 0.0000000
0.8454196 0.5761997 0.0000000
0.8875188 0.5746532 0.0000000
0.9295266 0.5731100 0.0000000
0.9714473 0.5715701 0.0000000
1.0000000 0.5700332 0.0000000
1.0000000 0.5684992 0.0000000
1.0000000 0.5677702 0.0000000
1.0000000 0.5677702 0.0000000
1.0000000 0.5677702 0.0000000
1.0000000 0.5677702 0.0000000
1.0000000 0.5677702 0.0000000
1.0000000 0.5677702 0.0000000
0.0000000 0.6470575 0.0000000
0.0000000 0.6462559 0.0000000
0.0098839 0.6444970 0.0000000
0.0565646 0.6427822 0.0000000
0.1024880 0.6410953 0.0000000
0.1478580 0.6394286 0.0000000
0.1927922 0.6377779 0.0000000
0.2373678 0.6361405 0.0000000
0.2816389 0.6345142 0.0000000
0.3256455 0.6328976 0.0000000
0.3694186 0.6312895 0.0000000
0.4129829 0.6296892 0.0000000
0.4563581 0.6280959 0.0000000
0.4995610 0.6265088 0.0000000
0.5426053 0.6249275 0.0000000
0.5855031 0.6233517 0.0000000
0.6282644 0.6217809 0.0000000
0.6708985 0.6202147 0.0000000
0.7134129 0.6186529 0.0000000
0.7558149 0.6170953 0.0000000
0.7981105 0.6155416 0.0000000
0.8403052 0.6139916 0.0000000
0.8824043 0.6124451 0.0000000
0.9244122 0.6109019 0.0000000
0.9663329 0.6093619 0.0000000
1.0000000 0.6078250 0.0000000
1.0000000 0.6062911 0.0000000
1.0000000 0.6055620 0.0000000
1.0000000 0.6055620 0.0000000
1.0000000 0.6055620 0.0000000
1.0000000 0.6055620 0.0000000
1.0000000 0.6055620 0.0000000
1.0000000 0.6055620 0.0000000
0.0000000 0.6848051 0.0000000
0.0000000 0.6840035 0.0000000
0.0047754 0.6822447 0.0000000
0.0514562 0.6805298 0.0000000
0.0973796 0.6788428 0.0000000
0.1427495 0.6771762 0.0000000
0.1876838 0.6755255 0.0000000
0.2322594 0.6738880 0.0000000
0.2765305 0.6722617 0.0000000
0.3205371 0.6706452 0.0000000
0.3643102 0.6690372 0.0000000
0.4078744 0.6674368 0.0000000
0.4512497 0.6658434 0.0000000
0.4944525 0.6642564 0.0000000
0.5374968 0.6626751 0.0000000
0.5803946 0.6610993 0.0000000
0.6231560 0.6595285 0.0000000
0.6657901 0.6579623 0.0000000
0.7083045 0.6564006 0.0000000
0.7507065 0.6548429 0.0000000
0.7930021 0.6532892 0.0000000
0.8351967 0.6517392 0.0000000
0.8772959 0.6501926 0.0000000
0.9193038 0.6486495 0.0000000
0.9612244 0.6471095 0.0000000
1.0000000 0.6455726 0.0000000
1.0000000 0.6440386 0.0000000
1.0000000 0.6433096 0.0000000
1.0000000 0.6433096 0.0000000
1.0000000 0.6433096 0.0000000
1.0000000 0.6433096 0.0000000
1.0000000 0.6433096 0.0000000
1.0000000 0.6433096 0.0000000
0.0000000 0.7225113 0.0000000
0.0000000 0.7217097 0.0000000
0.0000000 0.7199509 0.0000000
0.0463533 0.7182361 0.0000000
0.0922768 0.7165490 0.0000000
0.1376467 0.7148824 0.0000000
0.1825809 0.7132317 0.0000000
0.2271565 0.7115942 0.0000000
0.2714276 0.7099680 0.0000000
0.3154342 0.7083514 0.0000000
0.3592073 0.7067434 0.0000000
0.4027716 0.7051430 0.0000000
0.4461468 0.7035496 0.0000000
0.4893497 0.7019626 0.0000000
0.5323939 0.7003814 0.0000000
0.5752918 0.6988055 0.0000000
0.6180531 0.6972347 0.0000000
0.6606872 0.6956685 0.0000000
0.7032017 0.6941068 0.0000000
0.7456036 0.6925491 0.0000000
0.7878993 0.6909954 0.0000000
0.8300939 0.6894454 0.0000000
0.8721930 0.6878989 0.0000000
0.9142009 0.6863557 0.0000000
0.9561216 0.6848158 0.0000000
0.9979594 0.6832789 0.0000000
1.0000000 0.6817449 0.0000000
1.0000000 0.6810158 0.0000000
1.0000000 0.6810158 0.0000000
1.0000000 0.6810158 0.0000000
1.0000000 0.6810158 0.0000000
1.0000000 0.6810158 0.0000000
1.0000000 0.6810158 0.0000000
0.0000000 0.7601782 0.0000000
0.0000000 0.7593766 0.0000000
0.0000000 0.7576178 0.0000000
0.0412558 0.7559030 0.0000000
0.0871792 0.7542160 0.0000000
0.1325492 0.7525493 0.0000000
0.1774834 0.7508987 0.0000000
0.2220590 0.7492611 0.0000000
0.2663301 0.7476349 0.0000000
0.3103367 0.7460183 0.0000000
0.3541098 0.7444103 0.0000000
0.3976741 0.7428100 0.0000000
0.4410493 0.7412165 0.0000000
0.4842522 0.7396295 0.0000000
0.5272964 0.7380483 0.0000000
0.5701942 0.7364724 0.0000000
0.6129556 0.7349016 0.0000000
0.6555897 0.7333354 0.0000000
0.6981041 0.7317737 0.0000000
0.7405061 0.7302160 0.0000000
0.7828017 0.7286623 0.0000000
0.8249964 0.7271123 0.0000000
0.8670955 0.7255658 0.0000000
0.9091034 0.7240226 0.0000000
0.9510241 0.7224826 0.0000000
0.9928619 0.7209457 0.0000000
1.0000000 0.7194118 0.0000000
1.0000000 0.7186828 0.0000000
1.0000000 0.7186828 0.0000000
1.0000000 0.7186828 0.0000000
1.0000000 0.7186828 0.0000000
1.0000000 0.7186828 0.0000000
1.0000000 0.7186828 0.0000000
0.0000000 0.7978079 0.0000000
0.0000000 0.7970063 0.0000000
0.0000000 0.7952474 0.0000000
0.0361633 0.7935326 0.0000000
0.0820868 0.7918456 0.0000000
0.1274567 0.7901790 0.0000000
0.1723909 0.7885283 0.0000000
0.2169665 0.7868909 0.0000000
0.2612376 0.7852646 0.0000000
0.3052442 0.7836480 0.0000000
0.3490173 0.7820399 0.0000000
0.3925816 0.7804396 0.0000000
0.4359568 0.7788463 0.0000000
0.4791597 0.7772592 0.0000000
0.5222040 0.7756779 0.0000000
0.5651018 0.7741021 0.0000000
0.6078631 0.7725313 0.0000000
0.6504972 0.7709651 0.0000000
0.6930116 0.7694033 0.0000000
0.7354136 0.7678457 0.0000000
0.7777092 0.7662920 0.0000000
0.8199039 0.7647420 0.0000000
0.8620030 0.7631955 0.0000000
0.9040109 0.7616523 0.0000000
0.9459316 0.7601123 0.0000000
0.9877694 0.7585754 0.0000000
1.0000000 0.7570415 0.0000000
1.0000000 0.7563124 0.0000000
1.0000000 0.7563124 0.0000000
1.0000000 0.7563124 0.0000000
1.0000000 0.7563124 0.0000000
1.0000000 0.7563124 0.0000000
1.0000000 0.7563124 0.0000000
0.0000000 0.8354021 0.0000000
0.0000000 0.8346006 0.0000000
0.0000000 0.8328418 0.0000000
0.0310756 0.8311269 0.0000000
0.0769991 0.8294399 0.0000000
0.1223690 0.8277732 0.0000000
0.1673032 0.8261226 0.0000000
0.2118788 0.8244851 0.0000000
0.2561499 0.8228588 0.0000000
0.3001565 0.8212422 0.0000000
0.3439296 0.8196342 0.0000000
0.3874939 0.8180339 0.0000000
0.4308691 0.8164405 0.0000000
0.4740720 0.8148534 0.0000000
0.5171163 0.8132722 0.0000000
0.5600141 0.8116964 0.0000000
0.6027755 0.8101255 0.0000000
0.6454095 0.8085594 0.0000000
0.6879240 0.8069976 0.0000000
0.7303259 0.8054399 0.0000000
0.7726216 0.8038862 0.0000000
0.8148162 0.8023362 0.0000000
0.8569154 0.8007897 0.0000000
0.8989232 0.7992465 0.0000000
0.9408439 0.7977066 0.0000000
0.9826817 0.7961697 0.0000000
1.0000000 0.7946357 0.0000000
1.0000000 0.7939067 0.0000000
1.0000000 0.7939067 0.0000000
1.0000000 0.7939067 0.0000000
1.0000000 0.7939067 0.0000000
1.0000000 0.7939067 0.0000000
1.0000000 0.7939067 0.0000000
0.0000000 0.8729625 0.0000000
0.0000000 0.8721610 0.0000000
0.0000000 0.8704021 0.0000000
0.0259925 0.8686873 0.0000000
0.0719160 0.8670003 0.0000000
0.1172859 0.8653336 0.0000000
