luts/lume_20260406_003456.cube
TITLE "Lume Grade"
LUT_3D_SIZE 5
0.0000000 0.0000000 0.0177885
0.3004472 0.0000000 0.0118650
0.6249856 0.0000000 0.0054689
0.9408864 0.0000000 0.0000000
1.0000000 0.0000000 0.0000000
0.0000000 0.2394563 0.0011288
0.2837874 0.2335328 0.0000000
0.6083258 0.2271367 0.0000000
0.9242265 0.2209109 0.0000000
1.0000000 0.2181964 0.0000000
0.0000000 0.5364864 0.0000000
0.2631321 0.5305629 0.0000000
0.5876705 0.5241668 0.0000000
0.9035712 0.5179410 0.0000000
1.0000000 0.5152265 0.0000000
0.0000000 0.8300718 0.0000000
0.2427163 0.8241483 0.0000000
0.5672547 0.8177522 0.0000000
0.8831555 0.8115264 0.0000000
1.0000000 0.8088118 0.0000000
0.0000000 1.0000000 0.0000000
0.2289273 1.0000000 0.0000000
0.5534657 1.0000000 0.0000000
0.8693664 1.0000000 0.0000000
1.0000000 1.0000000 0.0000000
0.0000000 0.0000000 0.1952920
0.2992744 0.0000000 0.1893684
0.6238129 0.0000000 0.1829724
0.9397136 0.0000000 0.1767465
1.0000000 0.0000000 0.1740320
0.0000000 0.2382836 0.1786322
0.2826146 0.2323600 0.1727087
0.6071531 0.2259640 0.1663126
0.9230539 0.2197381 0.1600868
1.0000000 0.2170236 0.1573722
0.0000000 0.5353137 0.1579769
0.2619593 0.5293902 0.1520533
0.5864978 0.5229941 0.1456573
0.9023985 0.5167682 0.1394314
1.0000000 0.5140537 0.1367169
0.0000000 0.8288990 0.1375611
0.2415435 0.8229755 0.1316375
0.5660820 0.8165795 0.1252415
0.8819827 0.8103536 0.1190156
1.0000000 0.8076391 0.1163011
0.0000000 1.0000000 0.1237721
0.2277545 1.0000000 0.1178485
0.5522929 1.0000000 0.1114525
0.8681937 1.0000000 0.1052266
1.0000000 1.0000000 0.1025121
0.0000000 0.0000000 0.4630015
0.2975056 0.0000000 0.4570780
0.6220441 0.0000000 0.4506819
0.9379448 0.0000000 0.4444561
1.0000000 0.0000000 0.4417416
0.0000000 0.2365148 0.4463418
0.2808459 0.2305913 0.4404182
0.6053843 0.2241952 0.4340221
0.9212850 0.2179694 0.4277963
1.0000000 0.2152548 0.4250818
0.0000000 0.5335449 0.4256864
0.2601905 0.5276214 0.4197629
0.5847290 0.5212253 0.4133668
0.9006298 0.5149995 0.4071410
1.0000000 0.5122850 0.4044265
0.0000000 0.8271303 0.4052706
0.2397747 0.8212067 0.3993471
0.5643132 0.8148107 0.3929510
0.8802140 0.8085849 0.3867252
1.0000000 0.8058703 0.3840107
0.0000000 1.0000000 0.3914816
0.2259857 1.0000000 0.3855580
0.5505242 1.0000000 0.3791620
0.8664249 1.0000000 0.3729362
1.0000000 1.0000000 0.3702217
0.0000000 0.0000000 0.7391869
0.2956809 0.0000000 0.7332634
0.6202193 0.0000000 0.7268674
0.9361201 0.0000000 0.7206416
1.0000000 0.0000000 0.7179270
0.0000000 0.2346901 0.7225272
0.2790211 0.2287665 0.7166036
0.6035596 0.2223704 0.7102076
0.9194603 0.2161446 0.7039818
1.0000000 0.2134301 0.7012672
0.0000000 0.5317202 0.7018719
0.2583658 0.5257967 0.6959483
0.5829042 0.5194005 0.6895522
0.8988050 0.5131747 0.6833264
1.0000000 0.5104602 0.6806119
0.0000000 0.8253055 0.6814561
0.2379500 0.8193820 0.6755325
0.5624884 0.8129859 0.6691365
0.8783892 0.8067601 0.6629106
1.0000000 0.8040456 0.6601961
0.0000000 1.0000000 0.6676670
0.2241610 1.0000000 0.6617435
0.5486994 1.0000000 0.6553474
0.8646002 1.0000000 0.6491216
1.0000000 1.0000000 0.6464071
0.0000000 0.0000000 1.0000000
0.2939514 0.0000000 0.9950316
0.6184899 0.0000000 0.9886355
0.9343905 0.0000000 0.9824096
1.0000000 0.0000000 0.9796951
0.0000000 0.2329606 0.9842954
0.2772916 0.2270370 0.9783718
0.6018301 0.2206409 0.9719757
0.9177308 0.2144151 0.9657499
1.0000000 0.2117006 0.9630353
0.0000000 0.5299907 0.9636400
0.2566363 0.5240671 0.9577165
0.5811747 0.5176710 0.9513204
0.8970755 0.5114452 0.9450946
1.0000000 0.5087307 0.9423801
0.0000000 0.8235760 0.9432242
0.2362205 0.8176525 0.9373007
0.5607589 0.8112564 0.9309046
0.8766597 0.8050306 0.9246788
1.0000000 0.8023161 0.9219643
0.0000000 1.0000000 0.9294352
0.2224314 1.0000000 0.9235116
0.5469699 1.0000000 0.9171156
0.8628706 1.0000000 0.9108897
1.0000000 1.0000000 0.9081752
