luts/lume_20260404_214014.cube
TITLE "Lume Grade"
LUT_3D_SIZE 5
0.0000000 0.0000000 0.0185436
0.3065487 0.0000000 0.0097955
0.6431055 0.0000000 0.0001964
0.9706296 0.0000000 0.0000000
1.0000000 0.0000000 0.0000000
0.0000000 0.2357390 0.0000000
0.2822768 0.2269909 0.0000000
0.6188335 0.2173918 0.0000000
0.9463576 0.2080504 0.0000000
1.0000000 0.2038491 0.0000000
0.0000000 0.5368244 0.0000000
0.2512997 0.5280763 0.0000000
0.5878564 0.5184772 0.0000000
0.9153805 0.5091358 0.0000000
1.0000000 0.5049345 0.0000000
0.0000000 0.8379098 0.0000000
0.2203226 0.8291616 0.0000000
0.5568793 0.8195626 0.0000000
0.8844034 0.8102211 0.0000000
1.0000000 0.8060198 0.0000000
0.0000000 1.0000000 0.0000000
0.1992689 1.0000000 0.0000000
0.5358256 1.0000000 0.0000000
0.8633497 1.0000000 0.0000000
1.0000000 1.0000000 0.0000000
0.0000000 0.0000000 0.2073963
0.3047534 0.0000000 0.1986482
0.6413101 0.0000000 0.1890491
0.9688342 0.0000000 0.1797077
1.0000000 0.0000000 0.1755064
0.0000000 0.2339436 0.1831243
0.2804814 0.2251955 0.1743762
0.6170381 0.2155964 0.1647771
0.9445622 0.2062550 0.1554357
1.0000000 0.2020537 0.1512344
0.0000000 0.5350290 0.1521472
0.2495043 0.5262809 0.1433991
0.5860610 0.5166818 0.1338000
0.9135851 0.5073404 0.1244586
1.0000000 0.5031391 0.1202573
0.0000000 0.8361143 0.1211701
0.2185272 0.8273662 0.1124220
0.5550839 0.8177671 0.1028230
0.8826080 0.8084257 0.0934815
1.0000000 0.8042244 0.0892802
0.0000000 1.0000000 0.1001164
0.1974735 1.0000000 0.0913683
0.5340302 1.0000000 0.0817692
0.8615543 1.0000000 0.0724278
1.0000000 1.0000000 0.0682265
0.0000000 0.0000000 0.4866377
0.3020986 0.0000000 0.4778895
0.6386554 0.0000000 0.4682904
0.9661795 0.0000000 0.4589490
1.0000000 0.0000000 0.4547477
0.0000000 0.2312889 0.4623657
0.2778266 0.2225407 0.4536175
0.6143833 0.2129417 0.4440185
0.9419075 0.2036003 0.4346770
1.0000000 0.1993990 0.4304757
0.0000000 0.5323743 0.4313886
0.2468496 0.5236261 0.4226404
0.5834063 0.5140271 0.4130414
0.9109304 0.5046856 0.4036999
1.0000000 0.5004843 0.3994986
0.0000000 0.8334596 0.4004115
0.2158725 0.8247114 0.3916633
0.5524292 0.8151124 0.3820643
0.8799533 0.8057710 0.3727228
1.0000000 0.8015697 0.3685215
0.0000000 1.0000000 0.3793578
0.1948188 1.0000000 0.3706096
0.5313755 1.0000000 0.3610106
0.8588996 1.0000000 0.3516691
1.0000000 1.0000000 0.3474678
0.0000000 0.0000000 0.7746414
0.2993606 0.0000000 0.7658933
0.6359173 0.0000000 0.7562943
0.9634414 0.0000000 0.7469529
1.0000000 0.0000000 0.7427515
0.0000000 0.2285509 0.7503695
0.2750886 0.2198027 0.7416213
0.6116453 0.2102036 0.7320223
0.9391694 0.2008622 0.7226809
1.0000000 0.1966609 0.7184795
0.0000000 0.5296363 0.7193924
0.2441115 0.5208881 0.7106442
0.5806683 0.5112891 0.7010452
0.9081924 0.5019476 0.6917037
1.0000000 0.4977463 0.6875024
0.0000000 0.8307216 0.6884153
0.2131344 0.8219734 0.6796671
0.5496911 0.8123744 0.6700681
0.8772153 0.8030329 0.6607267
1.0000000 0.7988316 0.6565254
0.0000000 1.0000000 0.6673616
0.1920807 1.0000000 0.6586134
0.5286375 1.0000000 0.6490144
0.8561615 1.0000000 0.6396730
1.0000000 1.0000000 0.6354716
0.0000000 0.0000000 1.0000000
0.2968051 0.0000000 1.0000000
0.6333618 0.0000000 1.0000000
0.9608860 0.0000000 1.0000000
1.0000000 0.0000000 1.0000000
0.0000000 0.2259953 1.0000000
0.2725331 0.2172472 1.0000000
0.6090899 0.2076481 1.0000000
0.9366139 0.1983067 0.9914863
1.0000000 0.1941054 0.9872850
0.0000000 0.5270808 0.9881978
0.2415560 0.5183326 0.9794497
0.5781127 0.5087336 0.9698507
0.9056368 0.4993921 0.9605092
1.0000000 0.4951908 0.9563079
0.0000000 0.8281661 0.9572208
0.2105789 0.8194180 0.9484726
0.5471357 0.8098189 0.9388736
0.8746598 0.8004774 0.9295322
1.0000000 0.7962762 0.9253308
0.0000000 1.0000000 0.9361671
0.1895252 1.0000000 0.9274189
0.5260819 1.0000000 0.9178199
0.8536060 1.0000000 0.9084784
1.0000000 1.0000000 0.9042771
