luts/lume_20260406_003456.cube
TITLE "Lume Grade"
LUT_3D_SIZE 9
0.0000000 0.0000000 0.0177885
0.1318435 0.0000000 0.0151879
0.3004472 0.0000000 0.0118650
0.4641669 0.0000000 0.0086384
0.6249856 0.0000000 0.0054689
0.7837377 0.0000000 0.0023402
0.9408864 0.0000000 0.0000000
1.0000000 0.0000000 0.0000000
1.0000000 0.0000000 0.0000000
0.0000000 0.0883243 0.0116384
0.1256934 0.0857236 0.0090377
0.2942970 0.0824007 0.0057149
0.4580168 0.0791741 0.0024883
0.6188355 0.0760047 0.0000000
0.7775877 0.0728759 0.0000000
0.9347363 0.0697788 0.0000000
1.0000000 0.0670643 0.0000000
1.0000000 0.0670643 0.0000000
0.0000000 0.2394563 0.0011288
0.1151837 0.2368557 0.0000000
0.2837874 0.2335328 0.0000000
0.4475071 0.2303062 0.0000000
0.6083258 0.2271367 0.0000000
0.7670779 0.2240080 0.0000000
0.9242265 0.2209109 0.0000000
1.0000000 0.2181964 0.0000000
1.0000000 0.2181964 0.0000000
0.0000000 0.3885541 0.0000000
0.1048156 0.3859534 0.0000000
0.2734192 0.3826305 0.0000000
0.4371389 0.3794039 0.0000000
0.5979577 0.3762345 0.0000000
0.7567098 0.3731058 0.0000000
0.9138584 0.3700086 0.0000000
1.0000000 0.3672941 0.0000000
1.0000000 0.3672941 0.0000000
0.0000000 0.5364864 0.0000000
0.0945284 0.5338858 0.0000000
0.2631321 0.5305629 0.0000000
0.4268518 0.5273363 0.0000000
0.5876705 0.5241668 0.0000000
0.7464226 0.5210381 0.0000000
0.9035712 0.5179410 0.0000000
1.0000000 0.5152265 0.0000000
1.0000000 0.5152265 0.0000000
0.0000000 0.6835968 0.0000000
0.0842984 0.6809961 0.0000000
0.2529021 0.6776732 0.0000000
0.4166218 0.6744466 0.0000000
0.5774406 0.6712772 0.0000000
0.7361926 0.6681485 0.0000000
0.8933413 0.6650513 0.0000000
1.0000000 0.6623368 0.0000000
1.0000000 0.6623368 0.0000000
0.0000000 0.8300718 0.0000000
0.0741126 0.8274711 0.0000000
0.2427163 0.8241483 0.0000000
0.4064360 0.8209217 0.0000000
0.5672547 0.8177522 0.0000000
0.7260068 0.8146235 0.0000000
0.8831555 0.8115264 0.0000000
1.0000000 0.8088118 0.0000000
1.0000000 0.8088118 0.0000000
0.0000000 0.9760290 0.0000000
0.0639628 0.9734284 0.0000000
0.2325665 0.9701055 0.0000000
0.3962862 0.9668789 0.0000000
0.5571049 0.9637095 0.0000000
0.7158570 0.9605808 0.0000000
0.8730057 0.9574836 0.0000000
1.0000000 0.9547691 0.0000000
1.0000000 0.9547691 0.0000000
0.0000000 1.0000000 0.0000000
0.0603236 1.0000000 0.0000000
0.2289273 1.0000000 0.0000000
0.3926470 1.0000000 0.0000000
0.5534657 1.0000000 0.0000000
0.7122177 1.0000000 0.0000000
0.8693664 1.0000000 0.0000000
1.0000000 1.0000000 0.0000000
1.0000000 1.0000000 0.0000000
0.0000000 0.0000000 0.0675341
0.1315148 0.0000000 0.0649334
0.3001185 0.0000000 0.0616106
0.4638382 0.0000000 0.0583839
0.6246569 0.0000000 0.0552145
0.7834090 0.0000000 0.0520858
0.9405576 0.0000000 0.0489887
1.0000000 0.0000000 0.0462741
1.0000000 0.0000000 0.0462741
0.0000000 0.0879956 0.0613840
0.1253647 0.0853949 0.0587833
0.2939684 0.0820721 0.0554605
0.4576881 0.0788454 0.0522338
0.6185068 0.0756760 0.0490644
0.7772589 0.0725473 0.0459357
0.9344076 0.0694502 0.0428385
1.0000000 0.0667356 0.0401240
1.0000000 0.0667356 0.0401240
0.0000000 0.2391277 0.0508743
0.1148551 0.2365270 0.0482737
0.2834587 0.2332041 0.0449508
0.4471785 0.2299775 0.0417242
0.6079972 0.2268081 0.0385547
0.7667493 0.2236793 0.0354260
0.9238979 0.2205822 0.0323289
1.0000000 0.2178677 0.0296144
1.0000000 0.2178677 0.0296144
0.0000000 0.3882254 0.0405061
0.1044869 0.3856247 0.0379055
0.2730905 0.3823019 0.0345826
0.4368103 0.3790752 0.0313560
0.5976290 0.3759058 0.0281865
0.7563810 0.3727771 0.0250578
0.9135298 0.3696800 0.0219607
1.0000000 0.3669654 0.0192462
1.0000000 0.3669654 0.0192462
0.0000000 0.5361578 0.0302190
0.0941997 0.5335571 0.0276183
0.2628034 0.5302342 0.0242954
0.4265231 0.5270076 0.0210688
0.5873418 0.5238382 0.0178994
0.7460939 0.5207095 0.0147707
0.9032426 0.5176123 0.0116736
1.0000000 0.5148978 0.0089591
1.0000000 0.5148978 0.0089591
0.0000000 0.6832681 0.0199890
0.0839697 0.6806675 0.0173883
0.2525734 0.6773446 0.0140654
0.4162931 0.6741180 0.0108389
0.5771118 0.6709485 0.0076694
0.7358639 0.6678198 0.0045407
0.8930126 0.6647227 0.0014436
1.0000000 0.6620082 0.0000000
1.0000000 0.6620082 0.0000000
0.0000000 0.8297431 0.0098032
0.0737839 0.8271425 0.0072026
0.2423876 0.8238196 0.0038797
0.4061073 0.8205930 0.0006531
0.5669261 0.8174235 0.0000000
0.7256781 0.8142948 0.0000000
0.8828268 0.8111977 0.0000000
1.0000000 0.8084832 0.0000000
1.0000000 0.8084832 0.0000000
0.0000000 0.9757004 0.0000000
0.0636342 0.9730997 0.0000000
0.2322378 0.9697769 0.0000000
0.3959575 0.9665502 0.0000000
0.5567763 0.9633808 0.0000000
0.7155284 0.9602520 0.0000000
0.8726770 0.9571550 0.0000000
1.0000000 0.9544404 0.0000000
1.0000000 0.9544404 0.0000000
0.0000000 1.0000000 0.0000000
0.0599949 1.0000000 0.0000000
0.2285985 1.0000000 0.0000000
0.3923183 1.0000000 0.0000000
0.5531371 1.0000000 0.0000000
0.7118891 1.0000000 0.0000000
0.8690377 1.0000000 0.0000000
1.0000000 1.0000000 0.0000000
1.0000000 1.0000000 0.0000000
0.0000000 0.0000000 0.1952920
0.1306707 0.0000000 0.1926913
0.2992744 0.0000000 0.1893684
0.4629941 0.0000000 0.1861418
0.6238129 0.0000000 0.1829724
0.7825649 0.0000000 0.1798436
0.9397136 0.0000000 0.1767465
1.0000000 0.0000000 0.1740320
1.0000000 0.0000000 0.1740320
0.0000000 0.0871515 0.1891419
0.1245206 0.0845508 0.1865412
0.2931243 0.0812280 0.1832183
0.4568440 0.0780013 0.1799917
0.6176628 0.0748319 0.1768222
0.7764148 0.0717032 0.1736935
0.9335635 0.0686061 0.1705964
1.0000000 0.0658915 0.1678819
1.0000000 0.0658915 0.1678819
0.0000000 0.2382836 0.1786322
0.1140110 0.2356829 0.1760315
0.2826146 0.2323600 0.1727087
0.4463344 0.2291334 0.1694821
0.6071531 0.2259640 0.1663126
0.7659051 0.2228352 0.1631839
0.9230539 0.2197381 0.1600868
1.0000000 0.2170236 0.1573722
1.0000000 0.2170236 0.1573722
0.0000000 0.3873813 0.1682640
0.1036428 0.3847806 0.1656633
0.2722465 0.3814577 0.1623405
0.4359662 0.3782311 0.1591139
0.5967849 0.3750617 0.1559444
0.7555370 0.3719330 0.1528157
0.9126856 0.3688359 0.1497186
1.0000000 0.3661214 0.1470041
1.0000000 0.3661214 0.1470041
0.0000000 0.5353137 0.1579769
0.0933556 0.5327130 0.1553762
0.2619593 0.5293902 0.1520533
0.4256790 0.5261635 0.1488267
0.5864978 0.5229941 0.1456573
0.7452498 0.5198653 0.1425285
0.9023985 0.5167682 0.1394314
1.0000000 0.5140537 0.1367169
1.0000000 0.5140537 0.1367169
0.0000000 0.6824241 0.1477469
0.0831257 0.6798233 0.1451462
0.2517293 0.6765005 0.1418233
0.4154490 0.6732739 0.1385967
0.5762678 0.6701044 0.1354273
0.7350198 0.6669757 0.1322985
0.8921685 0.6638786 0.1292015
1.0000000 0.6611640 0.1264869
1.0000000 0.6611640 0.1264869
0.0000000 0.8288990 0.1375611
0.0729399 0.8262984 0.1349604
0.2415435 0.8229755 0.1316375
0.4052632 0.8197489 0.1284109
0.5660820 0.8165795 0.1252415
0.7248340 0.8134507 0.1221128
0.8819827 0.8103536 0.1190156
1.0000000 0.8076391 0.1163011
1.0000000 0.8076391 0.1163011
0.0000000 0.9748563 0.1274112
0.0627900 0.9722556 0.1248106
0.2313937 0.9689327 0.1214878
0.3951134 0.9657061 0.1182611
0.5559322 0.9625367 0.1150917
0.7146842 0.9594080 0.1119630
0.8718329 0.9563109 0.1088659
1.0000000 0.9535964 0.1061513
1.0000000 0.9535964 0.1061513
0.0000000 1.0000000 0.1237721
0.0591508 1.0000000 0.1211714
0.2277545 1.0000000 0.1178485
0.3914742 1.0000000 0.1146219
0.5522929 1.0000000 0.1114525
0.7110450 1.0000000 0.1083238
0.8681937 1.0000000 0.1052266
1.0000000 1.0000000 0.1025121
1.0000000 1.0000000 0.1025121
0.0000000 0.0000000 0.3277426
0.1297956 0.0000000 0.3251419
0.2983993 0.0000000 0.3218191
0.4621190 0.0000000 0.3185924
0.6229377 0.0000000 0.3154230
0.7816899 0.0000000 0.3122943
0.9388385 0.0000000 0.3091972
1.0000000 0.0000000 0.3064826
1.0000000 0.0000000 0.3064826
0.0000000 0.0862764 0.3215925
0.1236455 0.0836757 0.3189918
0.2922492 0.0803529 0.3156689
0.4559689 0.0771262 0.3124423
0.6167877 0.0739568 0.3092729
0.7755398 0.0708281 0.3061442
0.9326884 0.0677310 0.3030471
1.0000000 0.0650164 0.3003325
1.0000000 0.0650164 0.3003325
0.0000000 0.2374085 0.3110828
0.1131359 0.2348078 0.3084822
0.2817395 0.2314849 0.3051593
0.4454592 0.2282583 0.3019327
0.6062780 0.2250889 0.2987632
0.7650300 0.2219601 0.2956345
0.9221787 0.2188630 0.2925374
1.0000000 0.2161485 0.2898229
1.0000000 0.2161485 0.2898229
0.0000000 0.3865062 0.3007146
0.1027677 0.3839055 0.2981140
0.2713713 0.3805827 0.2947911
0.4350911 0.3773561 0.2915645
0.5959098 0.3741866 0.2883950
0.7546619 0.3710579 0.2852663
0.9118105 0.3679608 0.2821692
1.0000000 0.3652462 0.2794547
1.0000000 0.3652462 0.2794547
0.0000000 0.5344386 0.2904275
0.0924805 0.5318379 0.2878268
0.2610842 0.5285150 0.2845039
0.4248039 0.5252884 0.2812774
0.5856227 0.5221190 0.2781079
0.7443748 0.5189903 0.2749792
0.9015234 0.5158932 0.2718821
1.0000000 0.5131786 0.2691675
1.0000000 0.5131786 0.2691675
0.0000000 0.6815490 0.2801975
0.0822505 0.6789483 0.2775968
0.2508542 0.6756254 0.2742740
0.4145739 0.6723987 0.2710474
0.5753927 0.6692293 0.2678779
0.7341447 0.6661006 0.2647492
0.8912934 0.6630035 0.2616521
1.0000000 0.6602890 0.2589376
1.0000000 0.6602890 0.2589376
0.0000000 0.8280239 0.2700117
0.0720648 0.8254232 0.2674111
0.2406684 0.8221004 0.2640882
0.4043881 0.8188738 0.2608615
0.5652069 0.8157043 0.2576921
0.7239589 0.8125756 0.2545634
0.8811076 0.8094785 0.2514663
1.0000000 0.8067640 0.2487518
1.0000000 0.8067640 0.2487518
0.0000000 0.9739812 0.2598619
0.0619149 0.9713805 0.2572612
0.2305186 0.9680576 0.2539384
0.3942384 0.9648311 0.2507117
0.5550570 0.9616616 0.2475423
0.7138091 0.9585329 0.2444136
0.8709578 0.9554358 0.2413164
1.0000000 0.9527212 0.2386019
1.0000000 0.9527212 0.2386019
0.0000000 1.0000000 0.2562227
0.0582757 1.0000000 0.2536220
0.2268794 1.0000000 0.2502992
0.3905991 1.0000000 0.2470725
0.5514178 1.0000000 0.2439030
0.7101699 1.0000000 0.2407743
0.8673186 1.0000000 0.2376773
1.0000000 1.0000000 0.2349628
1.0000000 1.0000000 0.2349628
0.0000000 0.0000000 0.4630015
0.1289020 0.0000000 0.4604008
0.2975056 0.0000000 0.4570780
0.4612254 0.0000000 0.4538513
0.6220441 0.0000000 0.4506819
0.7807962 0.0000000 0.4475532
0.9379448 0.0000000 0.4444561
1.0000000 0.0000000 0.4417416
1.0000000 0.0000000 0.4417416
0.0000000 0.0853827 0.4568514
0.1227519 0.0827821 0.4542507
0.2913556 0.0794592 0.4509279
0.4550753 0.0762326 0.4477012
0.6158940 0.0730631 0.4445318
0.7746460 0.0699344 0.4414031
0.9317948 0.0668373 0.4383060
1.0000000 0.0641228 0.4355915
1.0000000 0.0641228 0.4355915
0.0000000 0.2365148 0.4463418
0.1122422 0.2339141 0.4437411
0.2808459 0.2305913 0.4404182
0.4445656 0.2273646 0.4371916
0.6053843 0.2241952 0.4340221
0.7641364 0.2210665 0.4308934
0.9212850 0.2179694 0.4277963
1.0000000 0.2152548 0.4250818
1.0000000 0.2152548 0.4250818
0.0000000 0.3856125 0.4359736
0.1018740 0.3830119 0.4333729
0.2704777 0.3796890 0.4300500
0.4341974 0.3764624 0.4268234
0.5950161 0.3732930 0.4236540
0.7537682 0.3701642 0.4205253
0.9109169 0.3670671 0.4174281
1.0000000 0.3643526 0.4147136
1.0000000 0.3643526 0.4147136
0.0000000 0.5335449 0.4256864
0.0915869 0.5309442 0.4230857
0.2601905 0.5276214 0.4197629
0.4239103 0.5243948 0.4165363
0.5847290 0.5212253 0.4133668
0.7434810 0.5180966 0.4102381
0.9006298 0.5149995 0.4071410
1.0000000 0.5122850 0.4044265
1.0000000 0.5122850 0.4044265
0.0000000 0.6806552 0.4154564
0.0813569 0.6780546 0.4128557
0.2499605 0.6747317 0.4095329
0.4136803 0.6715051 0.4063063
0.5744990 0.6683357 0.4031368
0.7332511 0.6652070 0.4000081
0.8903998 0.6621099 0.3969110
1.0000000 0.6593953 0.3941965
1.0000000 0.6593953 0.3941965
0.0000000 0.8271303 0.4052706
0.0711711 0.8245296 0.4026700
0.2397747 0.8212067 0.3993471
0.4034945 0.8179801 0.3961205
0.5643132 0.8148107 0.3929510
0.7230653 0.8116820 0.3898223
0.8802140 0.8085849 0.3867252
1.0000000 0.8058703 0.3840107
1.0000000 0.8058703 0.3840107
0.0000000 0.9730875 0.3951208
0.0610213 0.9704869 0.3925202
0.2296250 0.9671640 0.3891973
0.3933447 0.9639374 0.3859707
0.5541634 0.9607679 0.3828012
0.7129155 0.9576392 0.3796725
0.8700641 0.9545421 0.3765754
1.0000000 0.9518276 0.3738609
1.0000000 0.9518276 0.3738609
0.0000000 1.0000000 0.3914816
0.0573820 1.0000000 0.3888809
0.2259857 1.0000000 0.3855580
0.3897054 1.0000000 0.3823314
0.5505242 1.0000000 0.3791620
0.7092763 1.0000000 0.3760332
0.8664249 1.0000000 0.3729362
1.0000000 1.0000000 0.3702217
1.0000000 1.0000000 0.3702217
0.0000000 0.0000000 0.6002935
0.1279949 0.0000000 0.5976928
0.2965986 0.0000000 0.5943699
0.4603183 0.0000000 0.5911433
0.6211370 0.0000000 0.5879739
0.7798891 0.0000000 0.5848451
0.9370378 0.0000000 0.5817480
1.0000000 0.0000000 0.5790335
1.0000000 0.0000000 0.5790335
0.0000000 0.0844757 0.5941433
0.1218448 0.0818750 0.5915427
0.2904484 0.0785521 0.5882198
0.4541681 0.0753255 0.5849932
0.6149869 0.0721561 0.5818238
0.7737390 0.0690273 0.5786951
0.9308876 0.0659302 0.5755979
1.0000000 0.0632157 0.5728834
1.0000000 0.0632157 0.5728834
0.0000000 0.2356077 0.5836337
0.1113351 0.2330070 0.5810330
0.2799388 0.2296842 0.5777102
0.4436585 0.2264576 0.5744835
0.6044773 0.2232881 0.5713141
0.7632293 0.2201594 0.5681854
0.9203780 0.2170623 0.5650883
1.0000000 0.2143478 0.5623738
1.0000000 0.2143478 0.5623738
0.0000000 0.3847055 0.5732655
0.1009669 0.3821048 0.5706648
0.2695706 0.3787819 0.5673419
0.4332903 0.3755553 0.5641153
0.5941091 0.3723859 0.5609459
0.7528611 0.3692572 0.5578172
0.9100098 0.3661600 0.5547200
1.0000000 0.3634455 0.5520055
1.0000000 0.3634455 0.5520055
0.0000000 0.5326378 0.5629784
0.0906798 0.5300372 0.5603777
0.2592835 0.5267143 0.5570548
0.4230032 0.5234877 0.5538282
0.5838219 0.5203182 0.5506588
0.7425740 0.5171895 0.5475301
0.8997226 0.5140924 0.5444329
1.0000000 0.5113779 0.5417184
1.0000000 0.5113779 0.5417184
0.0000000 0.6797482 0.5527484
0.0804498 0.6771475 0.5501477
0.2490535 0.6738247 0.5468248
0.4127732 0.6705980 0.5435982
0.5735919 0.6674286 0.5404288
0.7323440 0.6642998 0.5373001
0.8894926 0.6612027 0.5342029
1.0000000 0.6584882 0.5314884
1.0000000 0.6584882 0.5314884
0.0000000 0.8262232 0.5425625
0.0702640 0.8236225 0.5399619
0.2388677 0.8202996 0.5366390
0.4025874 0.8170730 0.5334124
0.5634061 0.8139036 0.5302430
0.7221582 0.8107749 0.5271143
0.8793069 0.8076777 0.5240171
1.0000000 0.8049632 0.5213026
1.0000000 0.8049632 0.5213026
0.0000000 0.9721805 0.5324128
0.0601142 0.9695798 0.5298121
0.2287179 0.9662569 0.5264893
0.3924376 0.9630303 0.5232626
0.5532563 0.9598609 0.5200932
0.7120084 0.9567322 0.5169644
0.8691571 0.9536350 0.5138674
1.0000000 0.9509205 0.5111528
1.0000000 0.9509205 0.5111528
0.0000000 1.0000000 0.5287735
0.0564750 1.0000000 0.5261729
0.2250786 1.0000000 0.5228500
0.3887984 1.0000000 0.5196234
0.5496171 1.0000000 0.5164539
0.7083691 1.0000000 0.5133252
0.8655179 1.0000000 0.5102281
1.0000000 1.0000000 0.5075135
1.0000000 1.0000000 0.5075135
0.0000000 0.0000000 0.7391869
0.1270772 0.0000000 0.7365863
0.2956809 0.0000000 0.7332634
0.4594006 0.0000000 0.7300368
0.6202193 0.0000000 0.7268674
0.7789714 0.0000000 0.7237386
0.9361201 0.0000000 0.7206416
1.0000000 0.0000000 0.7179270
1.0000000 0.0000000 0.7179270
0.0000000 0.0835580 0.7330369
0.1209271 0.0809573 0.7304361
0.2895308 0.0776344 0.7271133
0.4532505 0.0744078 0.7238867
0.6140692 0.0712384 0.7207173
0.7728213 0.0681097 0.7175885
0.9299700 0.0650126 0.7144914
1.0000000 0.0622980 0.7117769
1.0000000 0.0622980 0.7117769
0.0000000 0.2346901 0.7225272
0.1104174 0.2320894 0.7199265
0.2790211 0.2287665 0.7166036
0.4427409 0.2255399 0.7133770
0.6035596 0.2223704 0.7102076
0.7623116 0.2192417 0.7070789
0.9194603 0.2161446 0.7039818
1.0000000 0.2134301 0.7012672
1.0000000 0.2134301 0.7012672
0.0000000 0.3837878 0.7121590
0.1000493 0.3811871 0.7095584
0.2686529 0.3778642 0.7062355
0.4323727 0.3746376 0.7030089
0.5931914 0.3714682 0.6998394
0.7519435 0.3683395 0.6967107
0.9090921 0.3652424 0.6936136
1.0000000 0.3625278 0.6908990
1.0000000 0.3625278 0.6908990
0.0000000 0.5317202 0.7018719
0.0897621 0.5291195 0.6992712
0.2583658 0.5257967 0.6959483
0.4220855 0.5225700 0.6927217
0.5829042 0.5194005 0.6895522
0.7416563 0.5162718 0.6864235
0.8988050 0.5131747 0.6833264
1.0000000 0.5104602 0.6806119
1.0000000 0.5104602 0.6806119
0.0000000 0.6788305 0.6916419
0.0795321 0.6762298 0.6890412
0.2481358 0.6729070 0.6857183
0.4118555 0.6696804 0.6824917
0.5726743 0.6665109 0.6793222
0.7314263 0.6633822 0.6761935
0.8885750 0.6602851 0.6730964
1.0000000 0.6575705 0.6703819
1.0000000 0.6575705 0.6703819
0.0000000 0.8253055 0.6814561
0.0693463 0.8227049 0.6788554
0.2379500 0.8193820 0.6755325
0.4016697 0.8161554 0.6723059
0.5624884 0.8129859 0.6691365
0.7212405 0.8098572 0.6660078
0.8783892 0.8067601 0.6629106
1.0000000 0.8040456 0.6601961
1.0000000 0.8040456 0.6601961
0.0000000 0.9712628 0.6713063
0.0591965 0.9686621 0.6687056
0.2278002 0.9653392 0.6653827
0.3915199 0.9621126 0.6621561
0.5523387 0.9589432 0.6589867
0.7110907 0.9558145 0.6558579
0.8682394 0.9527174 0.6527609
1.0000000 0.9500028 0.6500463
1.0000000 0.9500028 0.6500463
0.0000000 1.0000000 0.6676670
0.0555573 1.0000000 0.6650664
0.2241610 1.0000000 0.6617435
0.3878807 1.0000000 0.6585169
0.5486994 1.0000000 0.6553474
0.7074515 1.0000000 0.6522187
0.8646002 1.0000000 0.6491216
1.0000000 1.0000000 0.6464071
1.0000000 1.0000000 0.6464071
0.0000000 0.0000000 0.8794053
0.1261508 0.0000000 0.8768046
0.2947545 0.0000000 0.8734817
0.4584742 0.0000000 0.8702551
0.6192929 0.0000000 0.8670856
0.7780451 0.0000000 0.8639569
0.9351937 0.0000000 0.8608598
1.0000000 0.0000000 0.8581453
1.0000000 0.0000000 0.8581453
0.0000000 0.0826316 0.8732551
0.1200007 0.0800309 0.8706545
0.2886043 0.0767080 0.8673315
0.4523241 0.0734814 0.8641050
0.6131428 0.0703120 0.8609356
0.7718949 0.0671832 0.8578068
0.9290435 0.0640861 0.8547097
1.0000000 0.0613716 0.8519951
1.0000000 0.0613716 0.8519951
0.0000000 0.2337636 0.8627455
0.1094910 0.2311630 0.8601448
0.2780947 0.2278401 0.8568220
0.4418144 0.2246135 0.8535953
0.6026331 0.2214440 0.8504258
0.7613852 0.2183153 0.8472972
0.9185339 0.2152182 0.8442000
1.0000000 0.2125037 0.8414855
1.0000000 0.2125037 0.8414855
0.0000000 0.3828614 0.8523773
0.0991229 0.3802607 0.8497766
0.2677265 0.3769378 0.8464538
0.4314462 0.3737112 0.8432271
0.5922650 0.3705418 0.8400577
0.7510170 0.3674130 0.8369290
0.9081657 0.3643159 0.8338318
1.0000000 0.3616014 0.8311173
1.0000000 0.3616014 0.8311173
0.0000000 0.5307937 0.8420901
0.0888357 0.5281931 0.8394895
0.2574394 0.5248702 0.8361666
0.4211591 0.5216436 0.8329400
0.5819778 0.5184742 0.8297706
0.7407299 0.5153455 0.8266418
0.8978785 0.5122483 0.8235447
1.0000000 0.5095338 0.8208302
1.0000000 0.5095338 0.8208302
0.0000000 0.6779041 0.8318602
0.0786057 0.6753035 0.8292595
0.2472094 0.6719806 0.8259366
0.4109291 0.6687539 0.8227100
0.5717478 0.6655845 0.8195406
0.7304999 0.6624558 0.8164119
0.8876486 0.6593587 0.8133147
1.0000000 0.6566441 0.8106002
1.0000000 0.6566441 0.8106002
0.0000000 0.8243791 0.8216743
0.0684199 0.8217784 0.8190737
0.2370236 0.8184556 0.8157508
0.4007433 0.8152289 0.8125242
0.5615621 0.8120595 0.8093547
0.7203141 0.8089308 0.8062260
0.8774627 0.8058337 0.8031289
1.0000000 0.8031191 0.8004144
1.0000000 0.8031191 0.8004144
0.0000000 0.9703364 0.8115246
0.0582701 0.9677357 0.8089239
0.2268738 0.9644128 0.8056010
0.3905935 0.9611862 0.8023744
0.5514122 0.9580168 0.7992049
0.7101643 0.9548880 0.7960762
0.8673130 0.9517909 0.7929791
1.0000000 0.9490764 0.7902646
1.0000000 0.9490764 0.7902646
0.0000000 1.0000000 0.8078853
0.0546309 1.0000000 0.8052846
0.2232345 1.0000000 0.8019618
0.3869542 1.0000000 0.7987351
0.5477730 1.0000000 0.7955657
0.7065251 1.0000000 0.7924370
0.8636737 1.0000000 0.7893399
1.0000000 1.0000000 0.7866254
1.0000000 1.0000000 0.7866254
0.0000000 0.0000000 1.0000000
0.1253477 0.0000000 0.9983544
0.2939514 0.0000000 0.9950316
0.4576711 0.0000000 0.9918050
0.6184899 0.0000000 0.9886355
0.7772419 0.0000000 0.9855068
0.9343905 0.0000000 0.9824096
1.0000000 0.0000000 0.9796951
1.0000000 0.0000000 0.9796951
0.0000000 0.0818285 0.9948050
0.1191976 0.0792278 0.9922043
0.2878013 0.0759049 0.9888815
0.4515210 0.0726783 0.9856548
0.6123397 0.0695089 0.9824854
0.7710918 0.0663802 0.9793567
0.9282405 0.0632831 0.9762596
1.0000000 0.0605685 0.9735450
1.0000000 0.0605685 0.9735450
0.0000000 0.2329606 0.9842954
0.1086880 0.2303599 0.9816947
0.2772916 0.2270370 0.9783718
0.4410113 0.2238104 0.9751452
0.6018301 0.2206409 0.9719757
0.7605821 0.2175122 0.9688470
0.9177308 0.2144151 0.9657499
1.0000000 0.2117006 0.9630353
1.0000000 0.2117006 0.9630353
0.0000000 0.3820583 0.9739271
0.0983198 0.3794576 0.9713265
0.2669234 0.3761348 0.9680036
0.4306431 0.3729081 0.9647770
0.5914619 0.3697387 0.9616076
0.7502140 0.3666100 0.9584788
0.9073626 0.3635128 0.9553818
1.0000000 0.3607983 0.9526672
1.0000000 0.3607983 0.9526672
0.0000000 0.5299907 0.9636400
0.0880326 0.5273900 0.9610393
0.2566363 0.5240671 0.9577165
0.4203560 0.5208405 0.9544898
0.5811747 0.5176710 0.9513204
0.7399268 0.5145423 0.9481916
0.8970755 0.5114452 0.9450946
1.0000000 0.5087307 0.9423801
1.0000000 0.5087307 0.9423801
0.0000000 0.6771010 0.9534100
0.0778026 0.6745003 0.9508094
0.2464063 0.6711774 0.9474865
0.4101260 0.6679509 0.9442599
0.5709448 0.6647814 0.9410905
0.7296968 0.6616527 0.9379617
0.8868455 0.6585556 0.9348646
1.0000000 0.6558411 0.9321501
1.0000000 0.6558411 0.9321501
0.0000000 0.8235760 0.9432242
0.0676168 0.8209754 0.9406235
0.2362205 0.8176525 0.9373007
0.3999402 0.8144259 0.9340740
0.5607589 0.8112564 0.9309046
0.7195110 0.8081277 0.9277759
0.8766597 0.8050306 0.9246788
1.0000000 0.8023161 0.9219643
1.0000000 0.8023161 0.9219643
0.0000000 0.9695333 0.9330744
0.0574670 0.9669326 0.9304737
0.2260707 0.9636098 0.9271509
0.3897904 0.9603831 0.9239243
0.5506091 0.9572136 0.9207548
0.7093612 0.9540850 0.9176261
0.8665099 0.9509878 0.9145290
1.0000000 0.9482733 0.9118145
1.0000000 0.9482733 0.9118145
0.0000000 1.0000000 0.9294352
0.0538278 1.0000000 0.9268345
0.2224314 1.0000000 0.9235116
0.3861512 1.0000000 0.9202850
0.5469699 1.0000000 0.9171156
0.7057220 1.0000000 0.9139869
0.8628706 1.0000000 0.9108897
1.0000000 1.0000000 0.9081752
1.0000000 1.0000000 0.9081752
