luts/lume_20260404_214048.cube
TITLE "Lume Grade"
LUT_3D_SIZE 9
0.0000000 0.0000000 0.0200538
0.1274955 0.0000000 0.0143790
0.3237163 0.0000000 0.0056652
0.5137455 0.0000000 0.0000000
0.7002394 0.0000000 0.0000000
0.8842524 0.0000000 0.0000000
1.0000000 0.0000000 0.0000000
1.0000000 0.0000000 0.0000000
1.0000000 0.0000000 0.0000000
0.0000000 0.0663213 0.0089349
0.1163765 0.0606465 0.0032601
0.3125973 0.0519327 0.0000000
0.5026265 0.0434939 0.0000000
0.6891205 0.0352120 0.0000000
0.8731335 0.0270403 0.0000000
1.0000000 0.0189534 0.0000000
1.0000000 0.0131715 0.0000000
1.0000000 0.0131715 0.0000000
0.0000000 0.2280056 0.0000000
0.0893889 0.2223308 0.0000000
0.2856097 0.2136169 0.0000000
0.4756389 0.2051781 0.0000000
0.6621329 0.1968962 0.0000000
0.8461459 0.1887245 0.0000000
1.0000000 0.1806376 0.0000000
1.0000000 0.1748557 0.0000000
1.0000000 0.1748557 0.0000000
0.0000000 0.3896898 0.0000000
0.0624013 0.3840150 0.0000000
0.2586221 0.3753012 0.0000000
0.4486513 0.3668623 0.0000000
0.6351452 0.3585805 0.0000000
0.8191583 0.3504088 0.0000000
1.0000000 0.3423218 0.0000000
1.0000000 0.3365399 0.0000000
1.0000000 0.3365399 0.0000000
0.0000000 0.5513741 0.0000000
0.0354137 0.5456992 0.0000000
0.2316345 0.5369855 0.0000000
0.4216637 0.5285466 0.0000000
0.6081576 0.5202647 0.0000000
0.7921706 0.5120930 0.0000000
0.9742746 0.5040061 0.0000000
1.0000000 0.4982242 0.0000000
1.0000000 0.4982242 0.0000000
0.0000000 0.7130583 0.0000000
0.0084261 0.7073835 0.0000000
0.2046468 0.6986697 0.0000000
0.3946761 0.6902308 0.0000000
0.5811700 0.6819490 0.0000000
0.7651830 0.6737773 0.0000000
0.9472871 0.6656904 0.0000000
1.0000000 0.6599084 0.0000000
1.0000000 0.6599084 0.0000000
0.0000000 0.8747426 0.0000000
0.0000000 0.8690677 0.0000000
0.1776592 0.8603539 0.0000000
0.3676884 0.8519151 0.0000000
0.5541824 0.8436332 0.0000000
0.7381954 0.8354615 0.0000000
0.9202994 0.8273746 0.0000000
1.0000000 0.8215927 0.0000000
1.0000000 0.8215927 0.0000000
0.0000000 1.0000000 0.0000000
0.0000000 1.0000000 0.0000000
0.1506716 1.0000000 0.0000000
0.3407008 1.0000000 0.0000000
0.5271948 1.0000000 0.0000000
0.7112077 0.9971457 0.0000000
0.8933118 0.9890588 0.0000000
1.0000000 0.9832768 0.0000000
1.0000000 0.9832768 0.0000000
0.0000000 1.0000000 0.0000000
0.0000000 1.0000000 0.0000000
0.1449164 1.0000000 0.0000000
0.3349457 1.0000000 0.0000000
0.5214397 1.0000000 0.0000000
0.7054526 1.0000000 0.0000000
0.8875567 1.0000000 0.0000000
1.0000000 1.0000000 0.0000000
1.0000000 1.0000000 0.0000000
0.0000000 0.0000000 0.0518066
0.1270303 0.0000000 0.0461318
0.3232510 0.0000000 0.0374180
0.5132803 0.0000000 0.0289791
0.6997743 0.0000000 0.0206973
0.8837873 0.0000000 0.0125256
1.0000000 0.0000000 0.0044387
1.0000000 0.0000000 0.0000000
1.0000000 0.0000000 0.0000000
0.0000000 0.0658561 0.0406877
0.1159113 0.0601813 0.0350129
0.3121321 0.0514675 0.0262990
0.5021613 0.0430286 0.0178602
0.6886553 0.0347468 0.0095783
0.8726683 0.0265751 0.0014066
1.0000000 0.0184882 0.0000000
1.0000000 0.0127062 0.0000000
1.0000000 0.0127062 0.0000000
0.0000000 0.2275403 0.0137001
0.0889237 0.2218655 0.0080252
0.2851445 0.2131517 0.0000000
0.4751737 0.2047129 0.0000000
0.6616676 0.1964310 0.0000000
0.8456807 0.1882593 0.0000000
1.0000000 0.1801724 0.0000000
1.0000000 0.1743904 0.0000000
1.0000000 0.1743904 0.0000000
0.0000000 0.3892246 0.0000000
0.0619361 0.3835498 0.0000000
0.2581568 0.3748360 0.0000000
0.4481861 0.3663971 0.0000000
0.6346800 0.3581152 0.0000000
0.8186930 0.3499435 0.0000000
1.0000000 0.3418566 0.0000000
1.0000000 0.3360747 0.0000000
1.0000000 0.3360747 0.0000000
0.0000000 0.5509088 0.0000000
0.0349485 0.5452340 0.0000000
0.2311692 0.5365202 0.0000000
0.4211984 0.5280814 0.0000000
0.6076924 0.5197995 0.0000000
0.7917054 0.5116278 0.0000000
0.9738094 0.5035409 0.0000000
1.0000000 0.4977589 0.0000000
1.0000000 0.4977589 0.0000000
0.0000000 0.7125931 0.0000000
0.0079608 0.7069182 0.0000000
0.2041816 0.6982045 0.0000000
0.3942108 0.6897656 0.0000000
0.5807048 0.6814837 0.0000000
0.7647178 0.6733121 0.0000000
0.9468218 0.6652251 0.0000000
1.0000000 0.6594432 0.0000000
1.0000000 0.6594432 0.0000000
0.0000000 0.8742774 0.0000000
0.0000000 0.8686025 0.0000000
0.1771940 0.8598887 0.0000000
0.3672232 0.8514498 0.0000000
0.5537171 0.8431680 0.0000000
0.7377301 0.8349963 0.0000000
0.9198342 0.8269094 0.0000000
1.0000000 0.8211274 0.0000000
1.0000000 0.8211274 0.0000000
0.0000000 1.0000000 0.0000000
0.0000000 1.0000000 0.0000000
0.1502064 1.0000000 0.0000000
0.3402356 1.0000000 0.0000000
0.5267296 1.0000000 0.0000000
0.7107425 0.9966805 0.0000000
0.8928466 0.9885936 0.0000000
1.0000000 0.9828116 0.0000000
1.0000000 0.9828116 0.0000000
0.0000000 1.0000000 0.0000000
0.0000000 1.0000000 0.0000000
0.1444513 1.0000000 0.0000000
0.3344805 1.0000000 0.0000000
0.5209744 1.0000000 0.0000000
0.7049874 1.0000000 0.0000000
0.8870915 1.0000000 0.0000000
1.0000000 1.0000000 0.0000000
1.0000000 1.0000000 0.0000000
0.0000000 0.0000000 0.2010114
0.1248442 0.0000000 0.1953367
0.3210649 0.0000000 0.1866228
0.5110942 0.0000000 0.1781840
0.6975881 0.0000000 0.1699021
0.8816011 0.0000000 0.1617304
1.0000000 0.0000000 0.1536435
1.0000000 0.0000000 0.1478616
1.0000000 0.0000000 0.1478616
0.0000000 0.0636700 0.1898925
0.1137252 0.0579952 0.1842177
0.3099460 0.0492814 0.1755039
0.4999753 0.0408425 0.1670650
0.6864692 0.0325607 0.1587831
0.8704822 0.0243890 0.1506115
1.0000000 0.0163021 0.1425245
1.0000000 0.0105201 0.1367426
1.0000000 0.0105201 0.1367426
0.0000000 0.2253543 0.1629049
0.0867376 0.2196794 0.1572301
0.2829584 0.2109656 0.1485163
0.4729876 0.2025268 0.1400774
0.6594816 0.1942449 0.1317955
0.8434945 0.1860732 0.1236238
1.0000000 0.1779863 0.1155369
1.0000000 0.1722043 0.1097550
1.0000000 0.1722043 0.1097550
0.0000000 0.3870385 0.1359172
0.0597500 0.3813637 0.1302425
0.2559708 0.3726499 0.1215286
0.4460000 0.3642110 0.1130898
0.6324940 0.3559291 0.1048079
0.8165069 0.3477575 0.0966362
0.9986110 0.3396705 0.0885493
1.0000000 0.3338886 0.0827673
1.0000000 0.3338886 0.0827673
0.0000000 0.5487227 0.1089296
0.0327623 0.5430479 0.1032548
0.2289831 0.5343341 0.0945410
0.4190124 0.5258952 0.0861022
0.6055063 0.5176134 0.0778203
0.7895193 0.5094417 0.0696486
0.9716234 0.5013548 0.0615616
1.0000000 0.4955729 0.0557798
1.0000000 0.4955729 0.0557798
0.0000000 0.7104070 0.0819420
0.0057747 0.7047322 0.0762672
0.2019955 0.6960183 0.0675534
0.3920248 0.6875795 0.0591145
0.5785187 0.6792976 0.0508327
0.7625317 0.6711259 0.0426610
0.9446357 0.6630390 0.0345741
1.0000000 0.6572571 0.0287921
1.0000000 0.6572571 0.0287921
0.0000000 0.8720912 0.0549544
0.0000000 0.8664165 0.0492796
0.1750079 0.8577026 0.0405658
0.3650371 0.8492637 0.0321269
0.5515311 0.8409819 0.0238450
0.7355441 0.8328102 0.0156733
0.9176481 0.8247232 0.0075864
1.0000000 0.8189414 0.0018045
1.0000000 0.8189414 0.0018045
0.0000000 1.0000000 0.0279668
0.0000000 1.0000000 0.0222920
0.1480203 1.0000000 0.0135782
0.3380495 1.0000000 0.0051393
0.5245435 1.0000000 0.0000000
0.7085564 0.9944944 0.0000000
0.8906605 0.9864075 0.0000000
1.0000000 0.9806255 0.0000000
1.0000000 0.9806255 0.0000000
0.0000000 1.0000000 0.0222116
0.0000000 1.0000000 0.0165368
0.1422651 1.0000000 0.0078231
0.3322943 1.0000000 0.0000000
0.5187883 1.0000000 0.0000000
0.7028013 1.0000000 0.0000000
0.8849053 1.0000000 0.0000000
1.0000000 1.0000000 0.0000000
1.0000000 1.0000000 0.0000000
0.0000000 0.0000000 0.3566633
0.1225636 0.0000000 0.3509885
0.3187844 0.0000000 0.3422747
0.5088136 0.0000000 0.3338358
0.6953076 0.0000000 0.3255540
0.8793206 0.0000000 0.3173823
1.0000000 0.0000000 0.3092954
1.0000000 0.0000000 0.3035134
1.0000000 0.0000000 0.3035134
0.0000000 0.0613895 0.3455444
0.1114447 0.0557147 0.3398696
0.3076655 0.0470009 0.3311557
0.4976947 0.0385620 0.3227169
0.6841887 0.0302801 0.3144350
0.8682016 0.0221084 0.3062633
1.0000000 0.0140215 0.2981764
1.0000000 0.0082396 0.2923945
1.0000000 0.0082396 0.2923945
0.0000000 0.2230737 0.3185567
0.0844571 0.2173989 0.3128819
0.2806779 0.2086851 0.3041681
0.4707071 0.2002462 0.2957292
0.6572011 0.1919644 0.2874474
0.8412141 0.1837927 0.2792757
1.0000000 0.1757057 0.2711888
1.0000000 0.1699238 0.2654068
1.0000000 0.1699238 0.2654068
0.0000000 0.3847579 0.2915691
0.0574695 0.3790832 0.2858943
0.2536902 0.3703693 0.2771805
0.4437194 0.3619305 0.2687416
0.6302134 0.3536486 0.2604598
0.8142264 0.3454769 0.2522880
0.9963304 0.3373900 0.2442011
1.0000000 0.3316081 0.2384192
1.0000000 0.3316081 0.2384192
0.0000000 0.5464422 0.2645815
0.0304818 0.5407674 0.2589067
0.2267026 0.5320536 0.2501929
0.4167318 0.5236147 0.2417540
0.6032258 0.5153328 0.2334721
0.7872387 0.5071611 0.2253004
0.9693428 0.4990742 0.2172135
1.0000000 0.4932923 0.2114316
1.0000000 0.4932923 0.2114316
0.0000000 0.7081264 0.2375939
0.0034942 0.7024516 0.2319191
0.1997150 0.6937378 0.2232052
0.3897442 0.6852990 0.2147664
0.5762382 0.6770171 0.2064845
0.7602512 0.6688454 0.1983128
0.9423552 0.6607585 0.1902259
1.0000000 0.6549765 0.1844440
1.0000000 0.6549765 0.1844440
0.0000000 0.8698107 0.2106062
0.0000000 0.8641359 0.2049314
0.1727273 0.8554221 0.1962176
0.3627566 0.8469832 0.1877787
0.5492505 0.8387014 0.1794969
0.7332635 0.8305296 0.1713252
0.9153675 0.8224427 0.1632382
1.0000000 0.8166608 0.1574564
1.0000000 0.8166608 0.1574564
0.0000000 1.0000000 0.1836186
0.0000000 1.0000000 0.1779438
0.1457397 1.0000000 0.1692300
0.3357689 1.0000000 0.1607912
0.5222629 1.0000000 0.1525093
0.7062759 0.9922138 0.1443375
0.8883799 0.9841269 0.1362506
1.0000000 0.9783450 0.1304687
1.0000000 0.9783450 0.1304687
0.0000000 1.0000000 0.1778635
0.0000000 1.0000000 0.1721886
0.1399845 1.0000000 0.1634749
0.3300138 1.0000000 0.1550360
0.5165077 1.0000000 0.1467541
0.7005208 1.0000000 0.1385825
0.8826248 1.0000000 0.1304955
1.0000000 1.0000000 0.1247135
1.0000000 1.0000000 0.1247135
0.0000000 0.0000000 0.5159028
0.1202305 0.0000000 0.5102280
0.3164513 0.0000000 0.5015141
0.5064805 0.0000000 0.4930753
0.6929745 0.0000000 0.4847934
0.8769875 0.0000000 0.4766217
1.0000000 0.0000000 0.4685348
1.0000000 0.0000000 0.4627529
1.0000000 0.0000000 0.4627529
0.0000000 0.0590564 0.5047838
0.1091116 0.0533816 0.4991090
0.3053324 0.0446678 0.4903952
0.4953616 0.0362289 0.4819564
0.6818556 0.0279470 0.4736745
0.8658685 0.0197753 0.4655028
1.0000000 0.0116884 0.4574159
1.0000000 0.0059065 0.4516339
1.0000000 0.0059065 0.4516339
0.0000000 0.2207406 0.4777962
0.0821240 0.2150658 0.4721214
0.2783448 0.2063520 0.4634076
0.4683740 0.1979131 0.4549687
0.6548679 0.1896312 0.4466869
0.8388809 0.1814595 0.4385152
1.0000000 0.1733726 0.4304282
1.0000000 0.1675907 0.4246463
1.0000000 0.1675907 0.4246463
0.0000000 0.3824248 0.4508086
0.0551363 0.3767501 0.4451338
0.2513571 0.3680362 0.4364200
0.4413863 0.3595974 0.4279811
0.6278803 0.3513155 0.4196992
0.8118933 0.3431438 0.4115275
0.9939973 0.3350569 0.4034406
1.0000000 0.3292750 0.3976587
1.0000000 0.3292750 0.3976587
0.0000000 0.5441091 0.4238210
0.0281487 0.5384343 0.4181461
0.2243695 0.5297205 0.4094324
0.4143987 0.5212816 0.4009935
0.6008927 0.5129997 0.3927116
0.7849057 0.5048280 0.3845399
0.9670097 0.4967411 0.3764530
1.0000000 0.4909592 0.3706711
1.0000000 0.4909592 0.3706711
0.0000000 0.7057933 0.3968333
0.0011611 0.7001185 0.3911585
0.1973819 0.6914047 0.3824447
0.3874111 0.6829659 0.3740059
0.5739051 0.6746840 0.3657240
0.7579180 0.6665123 0.3575523
0.9400221 0.6584254 0.3494654
1.0000000 0.6526434 0.3436834
1.0000000 0.6526434 0.3436834
0.0000000 0.8674776 0.3698457
0.0000000 0.8618028 0.3641709
0.1703942 0.8530890 0.3554571
0.3604234 0.8446501 0.3470182
0.5469174 0.8363682 0.3387364
0.7309304 0.8281965 0.3305647
0.9130344 0.8201096 0.3224778
1.0000000 0.8143277 0.3166958
1.0000000 0.8143277 0.3166958
0.0000000 1.0000000 0.3428581
0.0000000 1.0000000 0.3371833
0.1434067 1.0000000 0.3284695
0.3334358 1.0000000 0.3200306
0.5199298 0.9980524 0.3117487
0.7039428 0.9898807 0.3035771
0.8860468 0.9817938 0.2954901
1.0000000 0.9760119 0.2897082
1.0000000 0.9760119 0.2897082
0.0000000 1.0000000 0.3371029
0.0000000 1.0000000 0.3314281
0.1376514 1.0000000 0.3227143
0.3276807 1.0000000 0.3142755
0.5141747 1.0000000 0.3059936
0.6981876 1.0000000 0.2978219
0.8802917 1.0000000 0.2897350
1.0000000 1.0000000 0.2839531
1.0000000 1.0000000 0.2839531
0.0000000 0.0000000 0.6776776
0.1178603 0.0000000 0.6720028
0.3140810 0.0000000 0.6632890
0.5041103 0.0000000 0.6548501
0.6906043 0.0000000 0.6465682
0.8746172 0.0000000 0.6383966
1.0000000 0.0000000 0.6303096
1.0000000 0.0000000 0.6245277
1.0000000 0.0000000 0.6245277
0.0000000 0.0566861 0.6665586
0.1067413 0.0510113 0.6608839
0.3029621 0.0422975 0.6521701
0.4929913 0.0338586 0.6437312
0.6794853 0.0255768 0.6354493
0.8634982 0.0174051 0.6272776
1.0000000 0.0093181 0.6191907
1.0000000 0.0035362 0.6134087
1.0000000 0.0035362 0.6134087
0.0000000 0.2183703 0.6395711
0.0797537 0.2126955 0.6338962
0.2759745 0.2039817 0.6251824
0.4660037 0.1955429 0.6167436
0.6524976 0.1872610 0.6084617
0.8365107 0.1790893 0.6002900
1.0000000 0.1710024 0.5922031
1.0000000 0.1652204 0.5864211
1.0000000 0.1652204 0.5864211
0.0000000 0.3800546 0.6125834
0.0527661 0.3743798 0.6069086
0.2489869 0.3656660 0.5981948
0.4390161 0.3572271 0.5897559
0.6255100 0.3489452 0.5814741
0.8095230 0.3407735 0.5733024
0.9916271 0.3326866 0.5652155
1.0000000 0.3269047 0.5594335
1.0000000 0.3269047 0.5594335
0.0000000 0.5417389 0.5855958
0.0257785 0.5360640 0.5799210
0.2219992 0.5273502 0.5712072
0.4120284 0.5189114 0.5627683
0.5985224 0.5106295 0.5544864
0.7825354 0.5024578 0.5463147
0.9646394 0.4943709 0.5382278
1.0000000 0.4885889 0.5324459
1.0000000 0.4885889 0.5324459
0.0000000 0.7034231 0.5586082
0.0000000 0.6977483 0.5529333
0.1950116 0.6890345 0.5442196
0.3850408 0.6805956 0.5357807
0.5715348 0.6723137 0.5274988
0.7555478 0.6641420 0.5193271
0.9376518 0.6560551 0.5112402
1.0000000 0.6502732 0.5054582
1.0000000 0.6502732 0.5054582
0.0000000 0.8651073 0.5316205
0.0000000 0.8594325 0.5259457
0.1680240 0.8507187 0.5172319
0.3580532 0.8422799 0.5087931
0.5445472 0.8339980 0.5005112
0.7285601 0.8258263 0.4923395
0.9106642 0.8177394 0.4842526
1.0000000 0.8119574 0.4784706
1.0000000 0.8119574 0.4784706
0.0000000 1.0000000 0.5046329
0.0000000 1.0000000 0.4989581
0.1410363 1.0000000 0.4902443
0.3310656 1.0000000 0.4818054
0.5175595 0.9956822 0.4735236
0.7015725 0.9875104 0.4653519
0.8836766 0.9794235 0.4572650
1.0000000 0.9736416 0.4514830
1.0000000 0.9736416 0.4514830
0.0000000 1.0000000 0.4988778
0.0000000 1.0000000 0.4932030
0.1352813 1.0000000 0.4844891
0.3253105 1.0000000 0.4760503
0.5118044 1.0000000 0.4677684
0.6958174 1.0000000 0.4595968
0.8779215 1.0000000 0.4515098
1.0000000 1.0000000 0.4457279
1.0000000 1.0000000 0.4457279
0.0000000 0.0000000 0.8414248
0.1154611 0.0000000 0.8357500
0.3116819 0.0000000 0.8270361
0.5017111 0.0000000 0.8185973
0.6882051 0.0000000 0.8103154
0.8722181 0.0000000 0.8021437
1.0000000 0.0000000 0.7940568
1.0000000 0.0000000 0.7882749
1.0000000 0.0000000 0.7882749
0.0000000 0.0542870 0.8303058
0.1043422 0.0486122 0.8246310
0.3005629 0.0398984 0.8159173
0.4905922 0.0314595 0.8074783
0.6770861 0.0231776 0.7991965
0.8610991 0.0150059 0.7910247
1.0000000 0.0069190 0.7829378
1.0000000 0.0011371 0.7771559
1.0000000 0.0011371 0.7771559
0.0000000 0.2159712 0.8033182
0.0773546 0.2102964 0.7976434
0.2735753 0.2015826 0.7889296
0.4636045 0.1931437 0.7804907
0.6500985 0.1848618 0.7722088
0.8341115 0.1766901 0.7640371
1.0000000 0.1686032 0.7559502
1.0000000 0.1628213 0.7501683
1.0000000 0.1628213 0.7501683
0.0000000 0.3776554 0.7763306
0.0503669 0.3719806 0.7706558
0.2465877 0.3632668 0.7619419
0.4366169 0.3548279 0.7535031
0.6231109 0.3465461 0.7452212
0.8071239 0.3383744 0.7370495
0.9892279 0.3302875 0.7289626
1.0000000 0.3245055 0.7231807
1.0000000 0.3245055 0.7231807
0.0000000 0.5393397 0.7493429
0.0233793 0.5336649 0.7436681
0.2196001 0.5249510 0.7349543
0.4096293 0.5165122 0.7265155
0.5961233 0.5082303 0.7182336
0.7801362 0.5000587 0.7100619
0.9622403 0.4919717 0.7019750
1.0000000 0.4861898 0.6961930
1.0000000 0.4861898 0.6961930
0.0000000 0.7010239 0.7223553
0.0000000 0.6953491 0.7166805
0.1926125 0.6866353 0.7079667
0.3826417 0.6781964 0.6995279
0.5691357 0.6699146 0.6912460
0.7531486 0.6617429 0.6830743
0.9352527 0.6536560 0.6749874
1.0000000 0.6478741 0.6692054
1.0000000 0.6478741 0.6692054
0.0000000 0.8627082 0.6953677
0.0000000 0.8570334 0.6896929
0.1656249 0.8483195 0.6809791
0.3556541 0.8398807 0.6725402
0.5421480 0.8315988 0.6642584
0.7261610 0.8234271 0.6560867
0.9082651 0.8153402 0.6479998
1.0000000 0.8095583 0.6422178
1.0000000 0.8095583 0.6422178
0.0000000 1.0000000 0.6683801
0.0000000 1.0000000 0.6627053
0.1386372 1.0000000 0.6539915
0.3286664 1.0000000 0.6455526
0.5151604 0.9932830 0.6372707
0.6991734 0.9851114 0.6290990
0.8812774 0.9770244 0.6210121
1.0000000 0.9712425 0.6152302
1.0000000 0.9712425 0.6152302
0.0000000 1.0000000 0.6626250
0.0000000 1.0000000 0.6569501
0.1328821 1.0000000 0.6482363
0.3229113 1.0000000 0.6397974
0.5094053 1.0000000 0.6315156
0.6934183 1.0000000 0.6233439
0.8755223 1.0000000 0.6152570
1.0000000 1.0000000 0.6094750
1.0000000 1.0000000 0.6094750
0.0000000 0.0000000 1.0000000
0.1130383 0.0000000 1.0000000
0.3092590 0.0000000 0.9924021
0.4992883 0.0000000 0.9839632
0.6857822 0.0000000 0.9756814
0.8697952 0.0000000 0.9675096
1.0000000 0.0000000 0.9594227
1.0000000 0.0000000 0.9536408
1.0000000 0.0000000 0.9536408
0.0000000 0.0518641 0.9956717
0.1019193 0.0461893 0.9899969
0.2981401 0.0374755 0.9812831
0.4881693 0.0290366 0.9728442
0.6746632 0.0207548 0.9645624
0.8586763 0.0125830 0.9563907
1.0000000 0.0044961 0.9483038
1.0000000 0.0000000 0.9425219
1.0000000 0.0000000 0.9425219
0.0000000 0.2135483 0.9686841
0.0749317 0.2078735 0.9630092
0.2711525 0.1991597 0.9542955
0.4611817 0.1907208 0.9458567
0.6476756 0.1824390 0.9375747
0.8316886 0.1742673 0.9294031
1.0000000 0.1661803 0.9213161
1.0000000 0.1603984 0.9155342
1.0000000 0.1603984 0.9155342
0.0000000 0.3752326 0.9416965
0.0479441 0.3695578 0.9360217
0.2441648 0.3608440 0.9273078
0.4341941 0.3524051 0.9188690
0.6206880 0.3441232 0.9105871
0.8047010 0.3359515 0.9024154
0.9868051 0.3278646 0.8943285
1.0000000 0.3220827 0.8885466
1.0000000 0.3220827 0.8885466
0.0000000 0.5369168 0.9147089
0.0209564 0.5312420 0.9090340
0.2171772 0.5225282 0.9003202
0.4072064 0.5140893 0.8918813
0.5937004 0.5058075 0.8835995
0.7777134 0.4976358 0.8754278
0.9598174 0.4895489 0.8673409
1.0000000 0.4837669 0.8615590
1.0000000 0.4837669 0.8615590
0.0000000 0.6986011 0.8877212
0.0000000 0.6929263 0.8820465
0.1901896 0.6842124 0.8733326
0.3802188 0.6757736 0.8648938
0.5667128 0.6674917 0.8566119
0.7507257 0.6593200 0.8484402
0.9328298 0.6512331 0.8403533
1.0000000 0.6454512 0.8345714
1.0000000 0.6454512 0.8345714
0.0000000 0.8602853 0.8607336
0.0000000 0.8546105 0.8550588
0.1632020 0.8458967 0.8463450
0.3532312 0.8374578 0.8379061
0.5397252 0.8291759 0.8296243
0.7237381 0.8210043 0.8214526
0.9058422 0.8129174 0.8133656
1.0000000 0.8071354 0.8075837
1.0000000 0.8071354 0.8075837
0.0000000 1.0000000 0.8337460
0.0000000 1.0000000 0.8280712
0.1362143 1.0000000 0.8193574
0.3262436 0.9991420 0.8109185
0.5127375 0.9908602 0.8026366
0.6967505 0.9826884 0.7944649
0.8788546 0.9746015 0.7863780
1.0000000 0.9688196 0.7805961
1.0000000 0.9688196 0.7805961
0.0000000 1.0000000 0.8279909
0.0000000 1.0000000 0.8223161
0.1304592 1.0000000 0.8136022
0.3204885 1.0000000 0.8051634
0.5069824 1.0000000 0.7968815
0.6909954 1.0000000 0.7887098
0.8730994 1.0000000 0.7806229
1.0000000 1.0000000 0.7748410
1.0000000 1.0000000 0.7748410
0.0000000 0.0000000 1.0000000
0.1112560 0.0000000 1.0000000
0.3074768 0.0000000 1.0000000
0.4975060 0.0000000 1.0000000
0.6840000 0.0000000 1.0000000
0.8680130 0.0000000 1.0000000
1.0000000 0.0000000 1.0000000
1.0000000 0.0000000 1.0000000
1.0000000 0.0000000 1.0000000
0.0000000 0.0500819 1.0000000
0.1001371 0.0444071 1.0000000
0.2963579 0.0356933 1.0000000
0.4863871 0.0272544 1.0000000
0.6728810 0.0189725 1.0000000
0.8568940 0.0108008 1.0000000
1.0000000 0.0027139 1.0000000
1.0000000 0.0000000 1.0000000
1.0000000 0.0000000 1.0000000
0.0000000 0.2117661 1.0000000
0.0731495 0.2060913 1.0000000
0.2693703 0.1973775 1.0000000
0.4593995 0.1889386 1.0000000
0.6458935 0.1806567 1.0000000
0.8299064 0.1724851 1.0000000
1.0000000 0.1643981 1.0000000
1.0000000 0.1586162 1.0000000
1.0000000 0.1586162 1.0000000
0.0000000 0.3734503 1.0000000
0.0461618 0.3677756 1.0000000
0.2423826 0.3590617 1.0000000
0.4324118 0.3506229 1.0000000
0.6189058 0.3423410 1.0000000
0.8029188 0.3341693 1.0000000
0.9850228 0.3260824 1.0000000
1.0000000 0.3203005 1.0000000
1.0000000 0.3203005 1.0000000
0.0000000 0.5351346 1.0000000
0.0191742 0.5294598 1.0000000
0.2153950 0.5207460 1.0000000
0.4054242 0.5123071 1.0000000
0.5919182 0.5040252 1.0000000
0.7759311 0.4958535 0.9970678
0.9580352 0.4877666 0.9889809
1.0000000 0.4819847 0.9831990
1.0000000 0.4819847 0.9831990
0.0000000 0.6968188 1.0000000
0.0000000 0.6911440 1.0000000
0.1884074 0.6824302 0.9949726
0.3784366 0.6739914 0.9865338
0.5649306 0.6657095 0.9782519
0.7489436 0.6575378 0.9700802
0.9310476 0.6494509 0.9619933
1.0000000 0.6436689 0.9562113
1.0000000 0.6436689 0.9562113
0.0000000 0.8585031 0.9823736
0.0000000 0.8528283 0.9766988
0.1614197 0.8441145 0.9679850
0.3514490 0.8356756 0.9595461
0.5379429 0.8273938 0.9512643
0.7219559 0.8192220 0.9430926
0.9040599 0.8111351 0.9350057
1.0000000 0.8053532 0.9292237
1.0000000 0.8053532 0.9292237
0.0000000 1.0000000 0.9553860
0.0000000 1.0000000 0.9497112
0.1344321 1.0000000 0.9409974
0.3244613 0.9973598 0.9325585
0.5109553 0.9890779 0.9242766
0.6949683 0.9809062 0.9161050
0.8770723 0.9728193 0.9080181
1.0000000 0.9670374 0.9022361
1.0000000 0.9670374 0.9022361
0.0000000 1.0000000 0.9496309
0.0000000 1.0000000 0.9439560
0.1286770 1.0000000 0.9352422
0.3187062 1.0000000 0.9268034
0.5052001 1.0000000 0.9185215
0.6892132 1.0000000 0.9103498
0.8713172 1.0000000 0.9022629
1.0000000 1.0000000 0.8964810
1.0000000 1.0000000 0.8964810
