luts/lume_20260404_214014.cube
TITLE "Lume Grade"
LUT_3D_SIZE 33
0.0000000 0.0000000 0.0185436
0.0000000 0.0000000 0.0185436
0.0398024 0.0000000 0.0174035
0.0863383 0.0000000 0.0160762
0.1315869 0.0000000 0.0147856
0.1760553 0.0000000 0.0135173
0.2199633 0.0000000 0.0122650
0.2634347 0.0000000 0.0110252
0.3065487 0.0000000 0.0097955
0.3493609 0.0000000 0.0085744
0.3919117 0.0000000 0.0073608
0.4342325 0.0000000 0.0061538
0.4763478 0.0000000 0.0049526
0.5182775 0.0000000 0.0037567
0.5600381 0.0000000 0.0025656
0.6016435 0.0000000 0.0013790
0.6431055 0.0000000 0.0001964
0.6844342 0.0000000 0.0000000
0.7256384 0.0000000 0.0000000
0.7667260 0.0000000 0.0000000
0.8077037 0.0000000 0.0000000
0.8485776 0.0000000 0.0000000
0.8893535 0.0000000 0.0000000
0.9300360 0.0000000 0.0000000
0.9706296 0.0000000 0.0000000
1.0000000 0.0000000 0.0000000
1.0000000 0.0000000 0.0000000
1.0000000 0.0000000 0.0000000
1.0000000 0.0000000 0.0000000
1.0000000 0.0000000 0.0000000
1.0000000 0.0000000 0.0000000
1.0000000 0.0000000 0.0000000
1.0000000 0.0000000 0.0000000
0.0000000 0.0000000 0.0185436
0.0000000 0.0000000 0.0185436
0.0398024 0.0000000 0.0174035
0.0863383 0.0000000 0.0160762
0.1315869 0.0000000 0.0147856
0.1760553 0.0000000 0.0135173
0.2199633 0.0000000 0.0122650
0.2634347 0.0000000 0.0110252
0.3065487 0.0000000 0.0097955
0.3493609 0.0000000 0.0085744
0.3919117 0.0000000 0.0073608
0.4342325 0.0000000 0.0061538
0.4763478 0.0000000 0.0049526
0.5182775 0.0000000 0.0037567
0.5600381 0.0000000 0.0025656
0.6016435 0.0000000 0.0013790
0.6431055 0.0000000 0.0001964
0.6844342 0.0000000 0.0000000
0.7256384 0.0000000 0.0000000
0.7667260 0.0000000 0.0000000
0.8077037 0.0000000 0.0000000
0.8485776 0.0000000 0.0000000
0.8893535 0.0000000 0.0000000
0.9300360 0.0000000 0.0000000
0.9706296 0.0000000 0.0000000
1.0000000 0.0000000 0.0000000
1.0000000 0.0000000 0.0000000
1.0000000 0.0000000 0.0000000
1.0000000 0.0000000 0.0000000
1.0000000 0.0000000 0.0000000
1.0000000 0.0000000 0.0000000
1.0000000 0.0000000 0.0000000
1.0000000 0.0000000 0.0000000
0.0000000 0.0099250 0.0175045
0.0000000 0.0099250 0.0175045
0.0387632 0.0087848 0.0163643
0.0852991 0.0074575 0.0150370
0.1305478 0.0061670 0.0137465
0.1750161 0.0048987 0.0124782
0.2189241 0.0036464 0.0112259
0.2623955 0.0024065 0.0099860
0.3055096 0.0011768 0.0087563
0.3483218 0.0000000 0.0075353
0.3908726 0.0000000 0.0063217
0.4331933 0.0000000 0.0051146
0.4753086 0.0000000 0.0039134
0.5172383 0.0000000 0.0027175
0.5589989 0.0000000 0.0015265
0.6006044 0.0000000 0.0003398
0.6420664 0.0000000 0.0000000
0.6833950 0.0000000 0.0000000
0.7245993 0.0000000 0.0000000
0.7656869 0.0000000 0.0000000
0.8066646 0.0000000 0.0000000
0.8475385 0.0000000 0.0000000
0.8883143 0.0000000 0.0000000
0.9289969 0.0000000 0.0000000
0.9695904 0.0000000 0.0000000
1.0000000 0.0000000 0.0000000
1.0000000 0.0000000 0.0000000
1.0000000 0.0000000 0.0000000
1.0000000 0.0000000 0.0000000
1.0000000 0.0000000 0.0000000
1.0000000 0.0000000 0.0000000
1.0000000 0.0000000 0.0000000
1.0000000 0.0000000 0.0000000
0.0000000 0.0475607 0.0136323
0.0000000 0.0475607 0.0136323
0.0348911 0.0464205 0.0124922
0.0814270 0.0450932 0.0111649
0.1266756 0.0438027 0.0098743
0.1711440 0.0425344 0.0086060
0.2150520 0.0412820 0.0073537
0.2585233 0.0400422 0.0061139
0.3016375 0.0388125 0.0048842
0.3444496 0.0375914 0.0036631
0.3870004 0.0363778 0.0024495
0.4293212 0.0351708 0.0012425
0.4714365 0.0339696 0.0000413
0.5133662 0.0327737 0.0000000
0.5551268 0.0315827 0.0000000
0.5967323 0.0303960 0.0000000
0.6381942 0.0292135 0.0000000
0.6795229 0.0280347 0.0000000
0.7207271 0.0268595 0.0000000
0.7618147 0.0256876 0.0000000
0.8027924 0.0245189 0.0000000
0.8436663 0.0233531 0.0000000
0.8844422 0.0221901 0.0000000
0.9251247 0.0210298 0.0000000
0.9657183 0.0198720 0.0000000
1.0000000 0.0187167 0.0000000
1.0000000 0.0175636 0.0000000
1.0000000 0.0164127 0.0000000
1.0000000 0.0156707 0.0000000
1.0000000 0.0156707 0.0000000
1.0000000 0.0156707 0.0000000
1.0000000 0.0156707 0.0000000
1.0000000 0.0156707 0.0000000
0.0000000 0.0851963 0.0097602
0.0000000 0.0851963 0.0097602
0.0310190 0.0840561 0.0086200
0.0775548 0.0827289 0.0072927
0.1228035 0.0814383 0.0060022
0.1672719 0.0801700 0.0047339
0.2111799 0.0789177 0.0034816
0.2546512 0.0776778 0.0022417
0.2977653 0.0764482 0.0010121
0.3405775 0.0752271 0.0000000
0.3831283 0.0740135 0.0000000
0.4254490 0.0728065 0.0000000
0.4675643 0.0716053 0.0000000
0.5094941 0.0704094 0.0000000
0.5512547 0.0692183 0.0000000
0.5928601 0.0680317 0.0000000
0.6343221 0.0668491 0.0000000
0.6756508 0.0656704 0.0000000
0.7168550 0.0644952 0.0000000
0.7579426 0.0633233 0.0000000
0.7989202 0.0621546 0.0000000
0.8397942 0.0609888 0.0000000
0.8805700 0.0598258 0.0000000
0.9212525 0.0586655 0.0000000
0.9618462 0.0575077 0.0000000
1.0000000 0.0563523 0.0000000
1.0000000 0.0551993 0.0000000
1.0000000 0.0540484 0.0000000
1.0000000 0.0533064 0.0000000
1.0000000 0.0533064 0.0000000
1.0000000 0.0533064 0.0000000
1.0000000 0.0533064 0.0000000
1.0000000 0.0533064 0.0000000
0.0000000 0.1228320 0.0058881
0.0000000 0.1228320 0.0058881
0.0271468 0.1216918 0.0047479
0.0736827 0.1203645 0.0034206
0.1189313 0.1190740 0.0021301
0.1633997 0.1178057 0.0008618
0.2073077 0.1165534 0.0000000
0.2507791 0.1153135 0.0000000
0.2938932 0.1140838 0.0000000
0.3367053 0.1128628 0.0000000
0.3792562 0.1116492 0.0000000
0.4215769 0.1104421 0.0000000
0.4636922 0.1092409 0.0000000
0.5056219 0.1080451 0.0000000
0.5473825 0.1068540 0.0000000
0.5889879 0.1056674 0.0000000
0.6304499 0.1044848 0.0000000
0.6717786 0.1033060 0.0000000
0.7129829 0.1021308 0.0000000
0.7540705 0.1009590 0.0000000
0.7950481 0.0997902 0.0000000
0.8359220 0.0986245 0.0000000
0.8766979 0.0974615 0.0000000
0.9173805 0.0963012 0.0000000
0.9579740 0.0951434 0.0000000
0.9984831 0.0939880 0.0000000
1.0000000 0.0928349 0.0000000
1.0000000 0.0916841 0.0000000
1.0000000 0.0909421 0.0000000
1.0000000 0.0909421 0.0000000
1.0000000 0.0909421 0.0000000
1.0000000 0.0909421 0.0000000
1.0000000 0.0909421 0.0000000
0.0000000 0.1604677 0.0020159
0.0000000 0.1604677 0.0020159
0.0232747 0.1593275 0.0008757
0.0698105 0.1580002 0.0000000
0.1150592 0.1567097 0.0000000
0.1595276 0.1554414 0.0000000
0.2034356 0.1541891 0.0000000
0.2469069 0.1529492 0.0000000
0.2900211 0.1517195 0.0000000
0.3328332 0.1504985 0.0000000
0.3753840 0.1492849 0.0000000
0.4177048 0.1480778 0.0000000
0.4598201 0.1468766 0.0000000
0.5017498 0.1456808 0.0000000
0.5435104 0.1444897 0.0000000
0.5851158 0.1433030 0.0000000
0.6265778 0.1421205 0.0000000
0.6679065 0.1409417 0.0000000
0.7091107 0.1397665 0.0000000
0.7501983 0.1385947 0.0000000
0.7911760 0.1374259 0.0000000
0.8320500 0.1362602 0.0000000
0.8728257 0.1350972 0.0000000
0.9135083 0.1339369 0.0000000
0.9541019 0.1327791 0.0000000
0.9946110 0.1316237 0.0000000
1.0000000 0.1304706 0.0000000
1.0000000 0.1293198 0.0000000
1.0000000 0.1285778 0.0000000
1.0000000 0.1285778 0.0000000
1.0000000 0.1285778 0.0000000
1.0000000 0.1285778 0.0000000
1.0000000 0.1285778 0.0000000
0.0000000 0.1981033 0.0000000
0.0000000 0.1981033 0.0000000
0.0194026 0.1969631 0.0000000
0.0659384 0.1956359 0.0000000
0.1111871 0.1943453 0.0000000
0.1556555 0.1930770 0.0000000
0.1995634 0.1918247 0.0000000
0.2430348 0.1905849 0.0000000
0.2861489 0.1893552 0.0000000
0.3289611 0.1881341 0.0000000
0.3715119 0.1869205 0.0000000
0.4138326 0.1857135 0.0000000
0.4559479 0.1845123 0.0000000
0.4978777 0.1833164 0.0000000
0.5396383 0.1821253 0.0000000
0.5812437 0.1809387 0.0000000
0.6227057 0.1797561 0.0000000
0.6640344 0.1785774 0.0000000
0.7052386 0.1774022 0.0000000
0.7463261 0.1762303 0.0000000
0.7873038 0.1750616 0.0000000
0.8281778 0.1738958 0.0000000
0.8689536 0.1727328 0.0000000
0.9096361 0.1715725 0.0000000
0.9502298 0.1704147 0.0000000
0.9907389 0.1692593 0.0000000
1.0000000 0.1681063 0.0000000
1.0000000 0.1669554 0.0000000
1.0000000 0.1662134 0.0000000
1.0000000 0.1662134 0.0000000
1.0000000 0.1662134 0.0000000
1.0000000 0.1662134 0.0000000
1.0000000 0.1662134 0.0000000
0.0000000 0.2357390 0.0000000
0.0000000 0.2357390 0.0000000
0.0155304 0.2345988 0.0000000
0.0620663 0.2332716 0.0000000
0.1073149 0.2319810 0.0000000
0.1517833 0.2307127 0.0000000
0.1956913 0.2294604 0.0000000
0.2391627 0.2282205 0.0000000
0.2822768 0.2269909 0.0000000
0.3250889 0.2257698 0.0000000
0.3676398 0.2245562 0.0000000
0.4099605 0.2233492 0.0000000
0.4520758 0.2221480 0.0000000
0.4940055 0.2209521 0.0000000
0.5357661 0.2197610 0.0000000
0.5773715 0.2185744 0.0000000
0.6188335 0.2173918 0.0000000
0.6601622 0.2162131 0.0000000
0.7013664 0.2150379 0.0000000
0.7424541 0.2138660 0.0000000
0.7834316 0.2126973 0.0000000
0.8243057 0.2115315 0.0000000
0.8650815 0.2103685 0.0000000
0.9057640 0.2092082 0.0000000
0.9463576 0.2080504 0.0000000
0.9868667 0.2068950 0.0000000
1.0000000 0.2057420 0.0000000
1.0000000 0.2045911 0.0000000
1.0000000 0.2038491 0.0000000
1.0000000 0.2038491 0.0000000
1.0000000 0.2038491 0.0000000
1.0000000 0.2038491 0.0000000
1.0000000 0.2038491 0.0000000
0.0000000 0.2733747 0.0000000
0.0000000 0.2733747 0.0000000
0.0116583 0.2722345 0.0000000
0.0581941 0.2709073 0.0000000
0.1034428 0.2696167 0.0000000
0.1479112 0.2683484 0.0000000
0.1918192 0.2670961 0.0000000
0.2352905 0.2658562 0.0000000
0.2784047 0.2646266 0.0000000
0.3212168 0.2634055 0.0000000
0.3637676 0.2621919 0.0000000
0.4060884 0.2609848 0.0000000
0.4482037 0.2597837 0.0000000
0.4901334 0.2585878 0.0000000
0.5318940 0.2573967 0.0000000
0.5734994 0.2562101 0.0000000
0.6149614 0.2550275 0.0000000
0.6562901 0.2538488 0.0000000
0.6974943 0.2526736 0.0000000
0.7385819 0.2515017 0.0000000
0.7795596 0.2503330 0.0000000
0.8204335 0.2491672 0.0000000
0.8612093 0.2480042 0.0000000
0.9018919 0.2468439 0.0000000
0.9424855 0.2456861 0.0000000
0.9829946 0.2445307 0.0000000
1.0000000 0.2433776 0.0000000
1.0000000 0.2422268 0.0000000
1.0000000 0.2414848 0.0000000
1.0000000 0.2414848 0.0000000
1.0000000 0.2414848 0.0000000
1.0000000 0.2414848 0.0000000
1.0000000 0.2414848 0.0000000
0.0000000 0.3110104 0.0000000
0.0000000 0.3110104 0.0000000
0.0077862 0.3098702 0.0000000
0.0543220 0.3085429 0.0000000
0.0995707 0.3072523 0.0000000
0.1440390 0.3059841 0.0000000
0.1879470 0.3047318 0.0000000
0.2314184 0.3034919 0.0000000
0.2745325 0.3022622 0.0000000
0.3173447 0.3010412 0.0000000
0.3598955 0.2998275 0.0000000
0.4022162 0.2986205 0.0000000
0.4443315 0.2974193 0.0000000
0.4862612 0.2962234 0.0000000
0.5280219 0.2950324 0.0000000
0.5696273 0.2938457 0.0000000
0.6110892 0.2926632 0.0000000
0.6524179 0.2914844 0.0000000
0.6936222 0.2903092 0.0000000
0.7347097 0.2891374 0.0000000
0.7756875 0.2879686 0.0000000
0.8165613 0.2868028 0.0000000
0.8573372 0.2856399 0.0000000
0.8980198 0.2844795 0.0000000
0.9386133 0.2833217 0.0000000
0.9791225 0.2821664 0.0000000
1.0000000 0.2810133 0.0000000
1.0000000 0.2798625 0.0000000
1.0000000 0.2791204 0.0000000
1.0000000 0.2791204 0.0000000
1.0000000 0.2791204 0.0000000
1.0000000 0.2791204 0.0000000
1.0000000 0.2791204 0.0000000
0.0000000 0.3486460 0.0000000
0.0000000 0.3486460 0.0000000
0.0039140 0.3475059 0.0000000
0.0504498 0.3461786 0.0000000
0.0956985 0.3448881 0.0000000
0.1401669 0.3436198 0.0000000
0.1840749 0.3423674 0.0000000
0.2275463 0.3411276 0.0000000
0.2706604 0.3398979 0.0000000
0.3134725 0.3386768 0.0000000
0.3560233 0.3374633 0.0000000
0.3983441 0.3362562 0.0000000
0.4404594 0.3350550 0.0000000
0.4823891 0.3338591 0.0000000
0.5241498 0.3326681 0.0000000
0.5657551 0.3314814 0.0000000
0.6072171 0.3302989 0.0000000
0.6485458 0.3291201 0.0000000
0.6897501 0.3279449 0.0000000
0.7308376 0.3267730 0.0000000
0.7718153 0.3256043 0.0000000
0.8126892 0.3244385 0.0000000
0.8534651 0.3232755 0.0000000
0.8941476 0.3221152 0.0000000
0.9347412 0.3209574 0.0000000
0.9752503 0.3198021 0.0000000
1.0000000 0.3186490 0.0000000
1.0000000 0.3174981 0.0000000
1.0000000 0.3167561 0.0000000
1.0000000 0.3167561 0.0000000
1.0000000 0.3167561 0.0000000
1.0000000 0.3167561 0.0000000
1.0000000 0.3167561 0.0000000
0.0000000 0.3862818 0.0000000
0.0000000 0.3862818 0.0000000
0.0000419 0.3851416 0.0000000
0.0465777 0.3838143 0.0000000
0.0918264 0.3825238 0.0000000
0.1362948 0.3812554 0.0000000
0.1802028 0.3800032 0.0000000
0.2236741 0.3787633 0.0000000
0.2667882 0.3775336 0.0000000
0.3096004 0.3763126 0.0000000
0.3521512 0.3750989 0.0000000
0.3944719 0.3738919 0.0000000
0.4365872 0.3726907 0.0000000
0.4785170 0.3714948 0.0000000
0.5202776 0.3703038 0.0000000
0.5618830 0.3691171 0.0000000
0.6033450 0.3679346 0.0000000
0.6446736 0.3667558 0.0000000
0.6858779 0.3655806 0.0000000
0.7269654 0.3644087 0.0000000
0.7679431 0.3632400 0.0000000
0.8088171 0.3620742 0.0000000
0.8495929 0.3609113 0.0000000
0.8902755 0.3597509 0.0000000
0.9308691 0.3585931 0.0000000
0.9713782 0.3574378 0.0000000
1.0000000 0.3562847 0.0000000
1.0000000 0.3551339 0.0000000
1.0000000 0.3543918 0.0000000
1.0000000 0.3543918 0.0000000
1.0000000 0.3543918 0.0000000
1.0000000 0.3543918 0.0000000
1.0000000 0.3543918 0.0000000
0.0000000 0.4239174 0.0000000
0.0000000 0.4239174 0.0000000
0.0000000 0.4227772 0.0000000
0.0427056 0.4214500 0.0000000
0.0879543 0.4201594 0.0000000
0.1324226 0.4188911 0.0000000
0.1763306 0.4176388 0.0000000
0.2198020 0.4163989 0.0000000
0.2629161 0.4151692 0.0000000
0.3057283 0.4139482 0.0000000
0.3482791 0.4127346 0.0000000
0.3905998 0.4115275 0.0000000
0.4327151 0.4103264 0.0000000
0.4746448 0.4091305 0.0000000
0.5164055 0.4079394 0.0000000
0.5580109 0.4067528 0.0000000
0.5994728 0.4055702 0.0000000
0.6408015 0.4043914 0.0000000
0.6820058 0.4032162 0.0000000
0.7230933 0.4020444 0.0000000
0.7640710 0.4008756 0.0000000
0.8049450 0.3997099 0.0000000
0.8457208 0.3985469 0.0000000
0.8864033 0.3973866 0.0000000
0.9269969 0.3962288 0.0000000
0.9675061 0.3950734 0.0000000
1.0000000 0.3939203 0.0000000
1.0000000 0.3927695 0.0000000
1.0000000 0.3920275 0.0000000
1.0000000 0.3920275 0.0000000
1.0000000 0.3920275 0.0000000
1.0000000 0.3920275 0.0000000
1.0000000 0.3920275 0.0000000
0.0000000 0.4615531 0.0000000
0.0000000 0.4615531 0.0000000
0.0000000 0.4604129 0.0000000
0.0388334 0.4590856 0.0000000
0.0840821 0.4577951 0.0000000
0.1285505 0.4565268 0.0000000
0.1724585 0.4552745 0.0000000
0.2159299 0.4540346 0.0000000
0.2590440 0.4528050 0.0000000
0.3018561 0.4515839 0.0000000
0.3444069 0.4503703 0.0000000
0.3867277 0.4491632 0.0000000
0.4288430 0.4479620 0.0000000
0.4707727 0.4467662 0.0000000
0.5125333 0.4455751 0.0000000
0.5541387 0.4443884 0.0000000
0.5956007 0.4432059 0.0000000
0.6369294 0.4420272 0.0000000
0.6781336 0.4408519 0.0000000
0.7192212 0.4396801 0.0000000
0.7601988 0.4385113 0.0000000
0.8010728 0.4373456 0.0000000
0.8418486 0.4361826 0.0000000
0.8825312 0.4350222 0.0000000
0.9231248 0.4338645 0.0000000
0.9636339 0.4327091 0.0000000
1.0000000 0.4315560 0.0000000
1.0000000 0.4304052 0.0000000
1.0000000 0.4296632 0.0000000
1.0000000 0.4296632 0.0000000
1.0000000 0.4296632 0.0000000
1.0000000 0.4296632 0.0000000
1.0000000 0.4296632 0.0000000
0.0000000 0.4991887 0.0000000
0.0000000 0.4991887 0.0000000
0.0000000 0.4980485 0.0000000
0.0349613 0.4967213 0.0000000
0.0802100 0.4954307 0.0000000
0.1246784 0.4941624 0.0000000
0.1685863 0.4929101 0.0000000
0.2120577 0.4916703 0.0000000
0.2551718 0.4904406 0.0000000
0.2979840 0.4892195 0.0000000
0.3405348 0.4880059 0.0000000
0.3828555 0.4867989 0.0000000
0.4249708 0.4855977 0.0000000
0.4669006 0.4844018 0.0000000
0.5086612 0.4832107 0.0000000
0.5502666 0.4820241 0.0000000
0.5917286 0.4808415 0.0000000
0.6330572 0.4796628 0.0000000
0.6742615 0.4784876 0.0000000
0.7153491 0.4773157 0.0000000
0.7563267 0.4761470 0.0000000
0.7972007 0.4749812 0.0000000
0.8379765 0.4738182 0.0000000
0.8786591 0.4726579 0.0000000
0.9192526 0.4715001 0.0000000
0.9597617 0.4703447 0.0000000
1.0000000 0.4691917 0.0000000
1.0000000 0.4680408 0.0000000
1.0000000 0.4672988 0.0000000
1.0000000 0.4672988 0.0000000
1.0000000 0.4672988 0.0000000
1.0000000 0.4672988 0.0000000
1.0000000 0.4672988 0.0000000
0.0000000 0.5368244 0.0000000
0.0000000 0.5368244 0.0000000
0.0000000 0.5356842 0.0000000
0.0310892 0.5343570 0.0000000
0.0763378 0.5330664 0.0000000
0.1208062 0.5317981 0.0000000
0.1647142 0.5305458 0.0000000
0.2081856 0.5293059 0.0000000
0.2512997 0.5280763 0.0000000
0.2941118 0.5268552 0.0000000
0.3366627 0.5256416 0.0000000
0.3789834 0.5244346 0.0000000
0.4210987 0.5232334 0.0000000
0.4630284 0.5220375 0.0000000
0.5047891 0.5208464 0.0000000
0.5463945 0.5196598 0.0000000
0.5878564 0.5184772 0.0000000
0.6291851 0.5172985 0.0000000
0.6703894 0.5161233 0.0000000
0.7114769 0.5149514 0.0000000
0.7524546 0.5137827 0.0000000
0.7933285 0.5126169 0.0000000
0.8341044 0.5114539 0.0000000
0.8747869 0.5102936 0.0000000
0.9153805 0.5091358 0.0000000
0.9558896 0.5079804 0.0000000
0.9963175 0.5068274 0.0000000
1.0000000 0.5056765 0.0000000
1.0000000 0.5049345 0.0000000
1.0000000 0.5049345 0.0000000
1.0000000 0.5049345 0.0000000
1.0000000 0.5049345 0.0000000
1.0000000 0.5049345 0.0000000
0.0000000 0.5744601 0.0000000
0.0000000 0.5744601 0.0000000
0.0000000 0.5733199 0.0000000
0.0272170 0.5719926 0.0000000
0.0724657 0.5707021 0.0000000
0.1169341 0.5694338 0.0000000
0.1608421 0.5681815 0.0000000
0.2043134 0.5669416 0.0000000
0.2474276 0.5657120 0.0000000
0.2902397 0.5644909 0.0000000
0.3327905 0.5632773 0.0000000
0.3751113 0.5620703 0.0000000
0.4172266 0.5608691 0.0000000
0.4591563 0.5596732 0.0000000
0.5009169 0.5584821 0.0000000
0.5425223 0.5572954 0.0000000
0.5839843 0.5561129 0.0000000
0.6253130 0.5549341 0.0000000
0.6665172 0.5537590 0.0000000
0.7076048 0.5525871 0.0000000
0.7485825 0.5514184 0.0000000
0.7894564 0.5502526 0.0000000
0.8302323 0.5490896 0.0000000
0.8709148 0.5479293 0.0000000
0.9115084 0.5467715 0.0000000
0.9520174 0.5456161 0.0000000
0.9924453 0.5444630 0.0000000
1.0000000 0.5433122 0.0000000
1.0000000 0.5425702 0.0000000
1.0000000 0.5425702 0.0000000
1.0000000 0.5425702 0.0000000
1.0000000 0.5425702 0.0000000
1.0000000 0.5425702 0.0000000
0.0000000 0.6120958 0.0000000
0.0000000 0.6120958 0.0000000
0.0000000 0.6109557 0.0000000
0.0233449 0.6096284 0.0000000
0.0685936 0.6083378 0.0000000
0.1130619 0.6070695 0.0000000
0.1569699 0.6058172 0.0000000
0.2004413 0.6045774 0.0000000
0.2435554 0.6033477 0.0000000
0.2863676 0.6021266 0.0000000
0.3289184 0.6009130 0.0000000
0.3712391 0.5997059 0.0000000
0.4133544 0.5985048 0.0000000
0.4552841 0.5973089 0.0000000
0.4970448 0.5961178 0.0000000
0.5386502 0.5949312 0.0000000
0.5801122 0.5937486 0.0000000
0.6214408 0.5925699 0.0000000
0.6626451 0.5913947 0.0000000
0.7037326 0.5902228 0.0000000
0.7447103 0.5890540 0.0000000
0.7855843 0.5878883 0.0000000
0.8263601 0.5867253 0.0000000
0.8670427 0.5855650 0.0000000
0.9076363 0.5844072 0.0000000
0.9481453 0.5832518 0.0000000
0.9885733 0.5820988 0.0000000
1.0000000 0.5809479 0.0000000
1.0000000 0.5802059 0.0000000
1.0000000 0.5802059 0.0000000
1.0000000 0.5802059 0.0000000
1.0000000 0.5802059 0.0000000
1.0000000 0.5802059 0.0000000
0.0000000 0.6497314 0.0000000
0.0000000 0.6497314 0.0000000
0.0000000 0.6485912 0.0000000
0.0194728 0.6472639 0.0000000
0.0647214 0.6459734 0.0000000
0.1091898 0.6447051 0.0000000
0.1530978 0.6434528 0.0000000
0.1965691 0.6422129 0.0000000
0.2396833 0.6409832 0.0000000
0.2824954 0.6397622 0.0000000
0.3250462 0.6385486 0.0000000
0.3673670 0.6373416 0.0000000
0.4094823 0.6361403 0.0000000
0.4514120 0.6349444 0.0000000
0.4931726 0.6337534 0.0000000
0.5347781 0.6325668 0.0000000
0.5762400 0.6313842 0.0000000
0.6175687 0.6302055 0.0000000
0.6587729 0.6290302 0.0000000
0.6998605 0.6278584 0.0000000
0.7408382 0.6266896 0.0000000
0.7817122 0.6255239 0.0000000
0.8224880 0.6243609 0.0000000
0.8631705 0.6232005 0.0000000
0.9037641 0.6220428 0.0000000
0.9442732 0.6208874 0.0000000
0.9847012 0.6197343 0.0000000
1.0000000 0.6185835 0.0000000
1.0000000 0.6178415 0.0000000
1.0000000 0.6178415 0.0000000
1.0000000 0.6178415 0.0000000
1.0000000 0.6178415 0.0000000
1.0000000 0.6178415 0.0000000
0.0000000 0.6873671 0.0000000
0.0000000 0.6873671 0.0000000
0.0000000 0.6862269 0.0000000
0.0156006 0.6848996 0.0000000
0.0608493 0.6836091 0.0000000
0.1053177 0.6823408 0.0000000
0.1492257 0.6810884 0.0000000
0.1926970 0.6798486 0.0000000
0.2358111 0.6786189 0.0000000
0.2786233 0.6773978 0.0000000
0.3211741 0.6761843 0.0000000
0.3634949 0.6749772 0.0000000
0.4056101 0.6737760 0.0000000
0.4475399 0.6725801 0.0000000
0.4893005 0.6713891 0.0000000
0.5309059 0.6702024 0.0000000
0.5723678 0.6690199 0.0000000
0.6136966 0.6678411 0.0000000
0.6549008 0.6666659 0.0000000
0.6959884 0.6654941 0.0000000
0.7369660 0.6643254 0.0000000
0.7778400 0.6631595 0.0000000
0.8186158 0.6619965 0.0000000
0.8592983 0.6608362 0.0000000
0.8998920 0.6596785 0.0000000
0.9404011 0.6585231 0.0000000
0.9808290 0.6573700 0.0000000
1.0000000 0.6562192 0.0000000
1.0000000 0.6554772 0.0000000
1.0000000 0.6554772 0.0000000
1.0000000 0.6554772 0.0000000
1.0000000 0.6554772 0.0000000
1.0000000 0.6554772 0.0000000
0.0000000 0.7250028 0.0000000
0.0000000 0.7250028 0.0000000
0.0000000 0.7238626 0.0000000
0.0117285 0.7225354 0.0000000
0.0569772 0.7212448 0.0000000
0.1014456 0.7199765 0.0000000
0.1453535 0.7187242 0.0000000
0.1888249 0.7174843 0.0000000
0.2319390 0.7162547 0.0000000
0.2747512 0.7150336 0.0000000
0.3173020 0.7138200 0.0000000
0.3596227 0.7126129 0.0000000
0.4017380 0.7114117 0.0000000
0.4436677 0.7102159 0.0000000
0.4854284 0.7090248 0.0000000
0.5270337 0.7078381 0.0000000
0.5684958 0.7066556 0.0000000
0.6098244 0.7054768 0.0000000
0.6510287 0.7043017 0.0000000
0.6921163 0.7031298 0.0000000
0.7330939 0.7019610 0.0000000
0.7739679 0.7007952 0.0000000
0.8147437 0.6996323 0.0000000
0.8554263 0.6984720 0.0000000
0.8960198 0.6973141 0.0000000
0.9365289 0.6961588 0.0000000
0.9769568 0.6950057 0.0000000
1.0000000 0.6938549 0.0000000
1.0000000 0.6931129 0.0000000
1.0000000 0.6931129 0.0000000
1.0000000 0.6931129 0.0000000
1.0000000 0.6931129 0.0000000
1.0000000 0.6931129 0.0000000
0.0000000 0.7626384 0.0000000
0.0000000 0.7626384 0.0000000
0.0000000 0.7614983 0.0000000
0.0078564 0.7601711 0.0000000
0.0531050 0.7588805 0.0000000
0.0975734 0.7576122 0.0000000
0.1414814 0.7563599 0.0000000
0.1849527 0.7551200 0.0000000
0.2280669 0.7538903 0.0000000
0.2708790 0.7526693 0.0000000
0.3134298 0.7514557 0.0000000
0.3557506 0.7502486 0.0000000
0.3978659 0.7490475 0.0000000
0.4397956 0.7478516 0.0000000
0.4815562 0.7466605 0.0000000
0.5231616 0.7454739 0.0000000
0.5646236 0.7442913 0.0000000
0.6059523 0.7431126 0.0000000
0.6471565 0.7419373 0.0000000
0.6882441 0.7407655 0.0000000
0.7292218 0.7395967 0.0000000
0.7700957 0.7384309 0.0000000
0.8108715 0.7372680 0.0000000
0.8515541 0.7361076 0.0000000
0.8921477 0.7349498 0.0000000
0.9326568 0.7337945 0.0000000
0.9730847 0.7326414 0.0000000
1.0000000 0.7314906 0.0000000
1.0000000 0.7307485 0.0000000
1.0000000 0.7307485 0.0000000
1.0000000 0.7307485 0.0000000
1.0000000 0.7307485 0.0000000
1.0000000 0.7307485 0.0000000
0.0000000 0.8002742 0.0000000
0.0000000 0.8002742 0.0000000
0.0000000 0.7991340 0.0000000
0.0039842 0.7978067 0.0000000
0.0492329 0.7965162 0.0000000
0.0937013 0.7952479 0.0000000
0.1376092 0.7939956 0.0000000
0.1810806 0.7927557 0.0000000
0.2241947 0.7915260 0.0000000
0.2670069 0.7903050 0.0000000
0.3095577 0.7890913 0.0000000
0.3518784 0.7878844 0.0000000
0.3939937 0.7866831 0.0000000
0.4359235 0.7854872 0.0000000
0.4776841 0.7842962 0.0000000
0.5192895 0.7831095 0.0000000
0.5607514 0.7819270 0.0000000
0.6020802 0.7807482 0.0000000
0.6432844 0.7795730 0.0000000
0.6843719 0.7784011 0.0000000
0.7253496 0.7772324 0.0000000
0.7662236 0.7760667 0.0000000
0.8069994 0.7749037 0.0000000
0.8476820 0.7737433 0.0000000
0.8882756 0.7725856 0.0000000
0.9287847 0.7714302 0.0000000
0.9692126 0.7702771 0.0000000
1.0000000 0.7691263 0.0000000
1.0000000 0.7683843 0.0000000
1.0000000 0.7683843 0.0000000
1.0000000 0.7683843 0.0000000
1.0000000 0.7683843 0.0000000
1.0000000 0.7683843 0.0000000
0.0000000 0.8379098 0.0000000
0.0000000 0.8379098 0.0000000
0.0000000 0.8367696 0.0000000
0.0001121 0.8354423 0.0000000
0.0453607 0.8341517 0.0000000
0.0898291 0.8328835 0.0000000
