luts/lume_20260406_003513.cube
TITLE "Lume Grade"
LUT_3D_SIZE 9
0.0263243 0.0105439 0.0000000
0.1886284 0.0045816 0.0000000
0.3677793 0.0000000 0.0000000
0.5424985 0.0000000 0.0000000
0.7144048 0.0000000 0.0000000
0.8842509 0.0000000 0.0000000
1.0000000 0.0000000 0.0000000
1.0000000 0.0000000 0.0000000
1.0000000 0.0000000 0.0000000
0.0126502 0.1115851 0.0000000
0.1749543 0.1056229 0.0000000
0.3541052 0.0990418 0.0000000
0.5288244 0.0926235 0.0000000
0.7007307 0.0863085 0.0000000
0.8705769 0.0800692 0.0000000
1.0000000 0.0738896 0.0000000
1.0000000 0.0700897 0.0000000
1.0000000 0.0700897 0.0000000
0.0000000 0.2665030 0.0000000
0.1539891 0.2605408 0.0000000
0.3331400 0.2539597 0.0000000
0.5078591 0.2475414 0.0000000
0.6797655 0.2412264 0.0000000
0.8496116 0.2349871 0.0000000
1.0000000 0.2288075 0.0000000
1.0000000 0.2250076 0.0000000
1.0000000 0.2250076 0.0000000
0.0000000 0.4195310 0.0000000
0.1332796 0.4135687 0.0000000
0.3124304 0.4069876 0.0000000
0.4871496 0.4005693 0.0000000
0.6590559 0.3942543 0.0000000
0.8289021 0.3880150 0.0000000
0.9971244 0.3818354 0.0000000
1.0000000 0.3780355 0.0000000
1.0000000 0.3780355 0.0000000
0.0000000 0.5714269 0.0000000
0.1127233 0.5654647 0.0000000
0.2918741 0.5588836 0.0000000
0.4665933 0.5524653 0.0000000
0.6384996 0.5461503 0.0000000
0.8083457 0.5399110 0.0000000
0.9765681 0.5337314 0.0000000
1.0000000 0.5299314 0.0000000
1.0000000 0.5299314 0.0000000
0.0000000 0.7225113 0.0000000
0.0922768 0.7165490 0.0000000
0.2714276 0.7099680 0.0000000
0.4461468 0.7035496 0.0000000
0.6180531 0.6972347 0.0000000
0.7878993 0.6909954 0.0000000
0.9561216 0.6848158 0.0000000
1.0000000 0.6810158 0.0000000
1.0000000 0.6810158 0.0000000
0.0000000 0.8729625 0.0000000
0.0719160 0.8670003 0.0000000
0.2510668 0.8604192 0.0000000
0.4257860 0.8540009 0.0000000
0.5976924 0.8476859 0.0000000
0.7675384 0.8414466 0.0000000
0.9357609 0.8352669 0.0000000
1.0000000 0.8314670 0.0000000
1.0000000 0.8314670 0.0000000
0.0000000 1.0000000 0.0000000
0.0516254 1.0000000 0.0000000
0.2307763 1.0000000 0.0000000
0.4054954 1.0000000 0.0000000
0.5774018 0.9976184 0.0000000
0.7472479 0.9913791 0.0000000
0.9154702 0.9851995 0.0000000
1.0000000 0.9813995 0.0000000
1.0000000 0.9813995 0.0000000
0.0000000 1.0000000 0.0000000
0.0471539 1.0000000 0.0000000
0.2263048 1.0000000 0.0000000
0.4010240 1.0000000 0.0000000
0.5729303 1.0000000 0.0000000
0.7427765 1.0000000 0.0000000
0.9109988 1.0000000 0.0000000
1.0000000 1.0000000 0.0000000
1.0000000 1.0000000 0.0000000
0.0260765 0.0102961 0.0177565
0.1883806 0.0043338 0.0117942
0.3675315 0.0000000 0.0052131
0.5422506 0.0000000 0.0000000
0.7141570 0.0000000 0.0000000
0.8840032 0.0000000 0.0000000
1.0000000 0.0000000 0.0000000
1.0000000 0.0000000 0.0000000
1.0000000 0.0000000 0.0000000
0.0124024 0.1113373 0.0040824
0.1747065 0.1053751 0.0000000
0.3538574 0.0987940 0.0000000
0.5285766 0.0923757 0.0000000
0.7004829 0.0860607 0.0000000
0.8703290 0.0798214 0.0000000
1.0000000 0.0736418 0.0000000
1.0000000 0.0698418 0.0000000
1.0000000 0.0698418 0.0000000
0.0000000 0.2662552 0.0000000
0.1537412 0.2602930 0.0000000
0.3328921 0.2537119 0.0000000
0.5076113 0.2472936 0.0000000
0.6795176 0.2409786 0.0000000
0.8493637 0.2347393 0.0000000
1.0000000 0.2285597 0.0000000
1.0000000 0.2247598 0.0000000
1.0000000 0.2247598 0.0000000
0.0000000 0.4192832 0.0000000
0.1330317 0.4133209 0.0000000
0.3121826 0.4067398 0.0000000
0.4869018 0.4003215 0.0000000
0.6588081 0.3940065 0.0000000
0.8286542 0.3877672 0.0000000
0.9968766 0.3815876 0.0000000
1.0000000 0.3777876 0.0000000
1.0000000 0.3777876 0.0000000
0.0000000 0.5711792 0.0000000
0.1124755 0.5652169 0.0000000
0.2916263 0.5586358 0.0000000
0.4663455 0.5522175 0.0000000
0.6382518 0.5459025 0.0000000
0.8080979 0.5396632 0.0000000
0.9763203 0.5334836 0.0000000
1.0000000 0.5296836 0.0000000
1.0000000 0.5296836 0.0000000
0.0000000 0.7222635 0.0000000
0.0920289 0.7163013 0.0000000
0.2711798 0.7097201 0.0000000
0.4458990 0.7033018 0.0000000
0.6178054 0.6969869 0.0000000
0.7876514 0.6907476 0.0000000
0.9558738 0.6845679 0.0000000
1.0000000 0.6807680 0.0000000
1.0000000 0.6807680 0.0000000
0.0000000 0.8727148 0.0000000
0.0716681 0.8667525 0.0000000
0.2508190 0.8601714 0.0000000
0.4255382 0.8537531 0.0000000
0.5974445 0.8474381 0.0000000
0.7672907 0.8411988 0.0000000
0.9355130 0.8350192 0.0000000
1.0000000 0.8312193 0.0000000
1.0000000 0.8312193 0.0000000
0.0000000 1.0000000 0.0000000
0.0513776 1.0000000 0.0000000
0.2305284 1.0000000 0.0000000
0.4052476 1.0000000 0.0000000
0.5771539 0.9973706 0.0000000
0.7470000 0.9911313 0.0000000
0.9152224 0.9849516 0.0000000
1.0000000 0.9811517 0.0000000
1.0000000 0.9811517 0.0000000
0.0000000 1.0000000 0.0000000
0.0469062 1.0000000 0.0000000
0.2260570 1.0000000 0.0000000
0.4007762 1.0000000 0.0000000
0.5726825 1.0000000 0.0000000
0.7425286 1.0000000 0.0000000
0.9107510 1.0000000 0.0000000
1.0000000 1.0000000 0.0000000
1.0000000 1.0000000 0.0000000
0.0244359 0.0086555 0.1524553
0.1867400 0.0026932 0.1464930
0.3658909 0.0000000 0.1399119
0.5406101 0.0000000 0.1334936
0.7125164 0.0000000 0.1271787
0.8823625 0.0000000 0.1209394
1.0000000 0.0000000 0.1147597
1.0000000 0.0000000 0.1109598
1.0000000 0.0000000 0.1109598
0.0107618 0.1096967 0.1387812
0.1730659 0.1037345 0.1328190
0.3522168 0.0971534 0.1262379
0.5269359 0.0907351 0.1198196
0.6988423 0.0844201 0.1135046
0.8686884 0.0781808 0.1072653
1.0000000 0.0720011 0.1010856
1.0000000 0.0682012 0.0972857
1.0000000 0.0682012 0.0972857
0.0000000 0.2646146 0.1178159
0.1521006 0.2586524 0.1118537
0.3312515 0.2520713 0.1052726
0.5059707 0.2456530 0.0988543
0.6778771 0.2393380 0.0925393
0.8477231 0.2330987 0.0863000
1.0000000 0.2269190 0.0801204
1.0000000 0.2231191 0.0763204
1.0000000 0.2231191 0.0763204
0.0000000 0.4176425 0.0971064
0.1313911 0.4116803 0.0911442
0.3105420 0.4050992 0.0845631
0.4852612 0.3986809 0.0781448
0.6571676 0.3923659 0.0718298
0.8270136 0.3861266 0.0655905
0.9952360 0.3799469 0.0594109
1.0000000 0.3761470 0.0556110
1.0000000 0.3761470 0.0556110
0.0000000 0.5695385 0.0765501
0.1108348 0.5635763 0.0705879
0.2899857 0.5569952 0.0640067
0.4647049 0.5505769 0.0575885
0.6366112 0.5442619 0.0512735
0.8064573 0.5380226 0.0450342
0.9746797 0.5318429 0.0388545
1.0000000 0.5280430 0.0350546
1.0000000 0.5280430 0.0350546
0.0000000 0.7206229 0.0561036
0.0903883 0.7146606 0.0501414
0.2695392 0.7080795 0.0435603
0.4442584 0.7016612 0.0371420
0.6161647 0.6953462 0.0308270
0.7860108 0.6891069 0.0245877
0.9542332 0.6829273 0.0184081
1.0000000 0.6791274 0.0146081
1.0000000 0.6791274 0.0146081
0.0000000 0.8710741 0.0357428
0.0700275 0.8651118 0.0297806
0.2491784 0.8585308 0.0231995
0.4238976 0.8521125 0.0167812
0.5958039 0.8457975 0.0104662
0.7656500 0.8395582 0.0042269
0.9338724 0.8333786 0.0000000
1.0000000 0.8295786 0.0000000
1.0000000 0.8295786 0.0000000
0.0000000 1.0000000 0.0154523
0.0497370 1.0000000 0.0094900
0.2288878 1.0000000 0.0029089
0.4036070 1.0000000 0.0000000
0.5755134 0.9957299 0.0000000
0.7453594 0.9894907 0.0000000
0.9135818 0.9833110 0.0000000
1.0000000 0.9795111 0.0000000
1.0000000 0.9795111 0.0000000
0.0000000 1.0000000 0.0109808
0.0452656 1.0000000 0.0050186
0.2244164 1.0000000 0.0000000
0.3991356 1.0000000 0.0000000
0.5710419 1.0000000 0.0000000
0.7408880 1.0000000 0.0000000
0.9091104 1.0000000 0.0000000
1.0000000 1.0000000 0.0000000
1.0000000 1.0000000 0.0000000
0.0227060 0.0069256 0.2944830
0.1850101 0.0009633 0.2885208
0.3641610 0.0000000 0.2819397
0.5388802 0.0000000 0.2755213
0.7107865 0.0000000 0.2692063
0.8806326 0.0000000 0.2629671
1.0000000 0.0000000 0.2567874
1.0000000 0.0000000 0.2529875
1.0000000 0.0000000 0.2529875
0.0090319 0.1079668 0.2808089
0.1713360 0.1020046 0.2748467
0.3504869 0.0954235 0.2682656
0.5252061 0.0890052 0.2618473
0.6971124 0.0826902 0.2555323
0.8669585 0.0764509 0.2492930
1.0000000 0.0702713 0.2431134
1.0000000 0.0664714 0.2393135
1.0000000 0.0664714 0.2393135
0.0000000 0.2628847 0.2598436
0.1503707 0.2569225 0.2538814
0.3295216 0.2503414 0.2473003
0.5042408 0.2439231 0.2408820
0.6761471 0.2376081 0.2345670
0.8459933 0.2313688 0.2283277
1.0000000 0.2251892 0.2221481
1.0000000 0.2213892 0.2183482
1.0000000 0.2213892 0.2183482
0.0000000 0.4159126 0.2391341
0.1296612 0.4099504 0.2331719
0.3088121 0.4033693 0.2265908
0.4835313 0.3969510 0.2201725
0.6554376 0.3906360 0.2138575
0.8252838 0.3843967 0.2076182
0.9935061 0.3782171 0.2014386
1.0000000 0.3744172 0.1976387
1.0000000 0.3744172 0.1976387
0.0000000 0.5678086 0.2185778
0.1091049 0.5618464 0.2126156
0.2882558 0.5552653 0.2060345
0.4629750 0.5488470 0.1996162
0.6348813 0.5425320 0.1933012
0.8047274 0.5362927 0.1870619
0.9729498 0.5301130 0.1808822
1.0000000 0.5263131 0.1770823
1.0000000 0.5263131 0.1770823
0.0000000 0.7188930 0.1981313
0.0886585 0.7129307 0.1921691
0.2678093 0.7063497 0.1855880
0.4425285 0.6999313 0.1791697
0.6144348 0.6936164 0.1728547
0.7842809 0.6873771 0.1666154
0.9525033 0.6811974 0.1604357
1.0000000 0.6773975 0.1566359
1.0000000 0.6773975 0.1566359
0.0000000 0.8693442 0.1777705
0.0682977 0.8633820 0.1718083
0.2474485 0.8568009 0.1652272
0.4221677 0.8503826 0.1588089
0.5940740 0.8440676 0.1524939
0.7639201 0.8378283 0.1462546
0.9321425 0.8316486 0.1400750
1.0000000 0.8278487 0.1362751
1.0000000 0.8278487 0.1362751
0.0000000 1.0000000 0.1574799
0.0480071 1.0000000 0.1515177
0.2271580 1.0000000 0.1449366
0.4018771 1.0000000 0.1385183
0.5737835 0.9940001 0.1322033
0.7436296 0.9877608 0.1259640
0.9118519 0.9815812 0.1197844
1.0000000 0.9777812 0.1159844
1.0000000 0.9777812 0.1159844
0.0000000 1.0000000 0.1530085
0.0435356 1.0000000 0.1470463
0.2226865 1.0000000 0.1404651
0.3974057 1.0000000 0.1340469
0.5693120 1.0000000 0.1277319
0.7391582 1.0000000 0.1214926
0.9073805 1.0000000 0.1153130
1.0000000 1.0000000 0.1115130
1.0000000 1.0000000 0.1115130
0.0209320 0.0051516 0.4401308
0.1832361 0.0000000 0.4341686
0.3623870 0.0000000 0.4275874
0.5371062 0.0000000 0.4211692
0.7090125 0.0000000 0.4148542
0.8788587 0.0000000 0.4086149
1.0000000 0.0000000 0.4024352
1.0000000 0.0000000 0.3986353
1.0000000 0.0000000 0.3986353
0.0072580 0.1061928 0.4264567
0.1695621 0.1002306 0.4204945
0.3487129 0.0936495 0.4139134
0.5234321 0.0872312 0.4074951
0.6953384 0.0809162 0.4011801
0.8651845 0.0746769 0.3949408
1.0000000 0.0684973 0.3887612
1.0000000 0.0646974 0.3849612
1.0000000 0.0646974 0.3849612
0.0000000 0.2611108 0.4054915
0.1485968 0.2551485 0.3995292
0.3277476 0.2485674 0.3929481
0.5024668 0.2421491 0.3865298
0.6743731 0.2358341 0.3802148
0.8442193 0.2295948 0.3739755
1.0000000 0.2234152 0.3677959
1.0000000 0.2196153 0.3639960
1.0000000 0.2196153 0.3639960
0.0000000 0.4141387 0.3847820
0.1278873 0.4081764 0.3788197
0.3070381 0.4015953 0.3722386
0.4817573 0.3951770 0.3658203
0.6536636 0.3888620 0.3595053
0.8235098 0.3826227 0.3532660
0.9917321 0.3764431 0.3470864
1.0000000 0.3726432 0.3432865
1.0000000 0.3726432 0.3432865
0.0000000 0.5660347 0.3642256
0.1073310 0.5600724 0.3582634
0.2864818 0.5534913 0.3516823
0.4612010 0.5470730 0.3452640
0.6331074 0.5407580 0.3389490
0.8029534 0.5345187 0.3327097
0.9711758 0.5283391 0.3265301
1.0000000 0.5245392 0.3227302
1.0000000 0.5245392 0.3227302
0.0000000 0.7171190 0.3437791
0.0868845 0.7111568 0.3378169
0.2660353 0.7045757 0.3312358
0.4407545 0.6981574 0.3248175
0.6126609 0.6918424 0.3185025
0.7825069 0.6856031 0.3122632
0.9507293 0.6794235 0.3060836
1.0000000 0.6756235 0.3022837
1.0000000 0.6756235 0.3022837
0.0000000 0.8675702 0.3234183
0.0665237 0.8616080 0.3174561
0.2456746 0.8550269 0.3108750
0.4203937 0.8486086 0.3044567
0.5923001 0.8422936 0.2981417
0.7621462 0.8360543 0.2919025
0.9303685 0.8298747 0.2857228
1.0000000 0.8260748 0.2819229
1.0000000 0.8260748 0.2819229
0.0000000 1.0000000 0.3031278
0.0462331 1.0000000 0.2971655
0.2253839 1.0000000 0.2905844
0.4001031 0.9985411 0.2841661
0.5720094 0.9922261 0.2778511
0.7418556 0.9859868 0.2716118
0.9100779 0.9798071 0.2654322
1.0000000 0.9760072 0.2616323
1.0000000 0.9760072 0.2616323
0.0000000 1.0000000 0.2986563
0.0417617 1.0000000 0.2926941
0.2209125 1.0000000 0.2861130
0.3956317 1.0000000 0.2796947
0.5675380 1.0000000 0.2733797
0.7373841 1.0000000 0.2671404
0.9056065 1.0000000 0.2609608
1.0000000 1.0000000 0.2571608
1.0000000 1.0000000 0.2571608
0.0191278 0.0033474 0.5882584
0.1814319 0.0000000 0.5822961
0.3605828 0.0000000 0.5757151
0.5353020 0.0000000 0.5692967
0.7072084 0.0000000 0.5629818
0.8770545 0.0000000 0.5567425
1.0000000 0.0000000 0.5505628
1.0000000 0.0000000 0.5467629
1.0000000 0.0000000 0.5467629
0.0054538 0.1043887 0.5745844
0.1677579 0.0984264 0.5686221
0.3469087 0.0918453 0.5620410
0.5216279 0.0854270 0.5556227
0.6935343 0.0791120 0.5493077
0.8633804 0.0728727 0.5430684
1.0000000 0.0666931 0.5368888
1.0000000 0.0628932 0.5330889
1.0000000 0.0628932 0.5330889
0.0000000 0.2593066 0.5536190
0.1467926 0.2533443 0.5476568
0.3259435 0.2467632 0.5410757
0.5006627 0.2403449 0.5346574
0.6725690 0.2340299 0.5283424
0.8424151 0.2277907 0.5221031
1.0000000 0.2216110 0.5159235
1.0000000 0.2178111 0.5121236
1.0000000 0.2178111 0.5121236
0.0000000 0.4123345 0.5329095
0.1260831 0.4063722 0.5269473
0.3052340 0.3997911 0.5203662
0.4799531 0.3933728 0.5139479
0.6518595 0.3870578 0.5076329
0.8217056 0.3808186 0.5013936
0.9899279 0.3746389 0.4952140
1.0000000 0.3708390 0.4914141
1.0000000 0.3708390 0.4914141
0.0000000 0.5642304 0.5123532
0.1055267 0.5582682 0.5063910
0.2846777 0.5516871 0.4998099
0.4593968 0.5452688 0.4933916
0.6313032 0.5389538 0.4870766
0.8011492 0.5327145 0.4808373
0.9693717 0.5265349 0.4746577
1.0000000 0.5227350 0.4708577
1.0000000 0.5227350 0.4708577
0.0000000 0.7153149 0.4919068
0.0850803 0.7093526 0.4859445
0.2642312 0.7027715 0.4793634
0.4389504 0.6963532 0.4729451
0.6108567 0.6900382 0.4666301
0.7807028 0.6837989 0.4603908
0.9489251 0.6776193 0.4542112
1.0000000 0.6738194 0.4504113
1.0000000 0.6738194 0.4504113
0.0000000 0.8657660 0.4715459
0.0647195 0.8598038 0.4655837
0.2438704 0.8532227 0.4590026
0.4185896 0.8468044 0.4525843
0.5904959 0.8404894 0.4462693
0.7603420 0.8342502 0.4400300
0.9285644 0.8280705 0.4338504
1.0000000 0.8242706 0.4300505
1.0000000 0.8242706 0.4300505
0.0000000 1.0000000 0.4512554
0.0444289 1.0000000 0.4452931
0.2235798 1.0000000 0.4387120
0.3982989 0.9967369 0.4322937
0.5702053 0.9904219 0.4259787
0.7400514 0.9841827 0.4197395
0.9082738 0.9780030 0.4135598
1.0000000 0.9742031 0.4097599
1.0000000 0.9742031 0.4097599
0.0000000 1.0000000 0.4467839
0.0399575 1.0000000 0.4408217
0.2191083 1.0000000 0.4342406
0.3938275 1.0000000 0.4278223
0.5657339 1.0000000 0.4215073
0.7355800 1.0000000 0.4152680
0.9038023 1.0000000 0.4090884
1.0000000 1.0000000 0.4052885
1.0000000 1.0000000 0.4052885
0.0173005 0.0015201 0.7382855
0.1796046 0.0000000 0.7323232
0.3587555 0.0000000 0.7257422
0.5334747 0.0000000 0.7193239
0.7053810 0.0000000 0.7130089
0.8752271 0.0000000 0.7067696
1.0000000 0.0000000 0.7005899
1.0000000 0.0000000 0.6967900
1.0000000 0.0000000 0.6967900
0.0036265 0.1025613 0.7246114
0.1659306 0.0965991 0.7186491
0.3450814 0.0900180 0.7120681
0.5198006 0.0835997 0.7056497
0.6917070 0.0772847 0.6993348
0.8615531 0.0710454 0.6930955
1.0000000 0.0648658 0.6869159
1.0000000 0.0610659 0.6831160
1.0000000 0.0610659 0.6831160
0.0000000 0.2574793 0.7036461
0.1449653 0.2515170 0.6976839
0.3241161 0.2449359 0.6911028
0.4988353 0.2385176 0.6846845
0.6707417 0.2322026 0.6783695
0.8405877 0.2259633 0.6721302
1.0000000 0.2197837 0.6659506
1.0000000 0.2159838 0.6621507
1.0000000 0.2159838 0.6621507
0.0000000 0.4105072 0.6829367
0.1242558 0.4045449 0.6769744
0.3034067 0.3979638 0.6703933
0.4781258 0.3915455 0.6639750
0.6500322 0.3852305 0.6576600
0.8198782 0.3789912 0.6514207
0.9881006 0.3728116 0.6452411
1.0000000 0.3690117 0.6414412
1.0000000 0.3690117 0.6414412
0.0000000 0.5624031 0.6623803
0.1036995 0.5564409 0.6564181
0.2828503 0.5498598 0.6498370
0.4575695 0.5434415 0.6434187
0.6294758 0.5371265 0.6371037
0.7993219 0.5308872 0.6308644
0.9675443 0.5247076 0.6246848
1.0000000 0.5209077 0.6208848
1.0000000 0.5209077 0.6208848
0.0000000 0.7134875 0.6419339
0.0832530 0.7075253 0.6359716
0.2624038 0.7009442 0.6293905
0.4371230 0.6945259 0.6229722
0.6090294 0.6882109 0.6166572
0.7788755 0.6819716 0.6104179
0.9470978 0.6757920 0.6042383
1.0000000 0.6719921 0.6004384
1.0000000 0.6719921 0.6004384
0.0000000 0.8639387 0.6215730
0.0628922 0.8579765 0.6156108
0.2420430 0.8513954 0.6090297
0.4167622 0.8449771 0.6026114
0.5886686 0.8386621 0.5962964
0.7585147 0.8324229 0.5900571
0.9267371 0.8262432 0.5838775
1.0000000 0.8224433 0.5800776
1.0000000 0.8224433 0.5800776
0.0000000 1.0000000 0.6012825
0.0426016 1.0000000 0.5953202
0.2217525 1.0000000 0.5887391
0.3964716 0.9949096 0.5823208
0.5683780 0.9885946 0.5760058
0.7382241 0.9823554 0.5697665
0.9064465 0.9761757 0.5635869
1.0000000 0.9723758 0.5597870
1.0000000 0.9723758 0.5597870
0.0000000 1.0000000 0.5968111
0.0381302 1.0000000 0.5908488
0.2172810 1.0000000 0.5842677
0.3920002 1.0000000 0.5778494
0.5639066 1.0000000 0.5715344
0.7337527 1.0000000 0.5652951
0.9019750 1.0000000 0.5591155
1.0000000 1.0000000 0.5553156
1.0000000 1.0000000 0.5553156
0.0154544 0.0000000 0.8898573
0.1777585 0.0000000 0.8838950
0.3569094 0.0000000 0.8773140
0.5316285 0.0000000 0.8708956
0.7035349 0.0000000 0.8645807
0.8733810 0.0000000 0.8583414
1.0000000 0.0000000 0.8521617
1.0000000 0.0000000 0.8483618
1.0000000 0.0000000 0.8483618
0.0017803 0.1007152 0.8761832
0.1640844 0.0947530 0.8702210
0.3432353 0.0881719 0.8636399
0.5179545 0.0817536 0.8572216
0.6898608 0.0754386 0.8509066
0.8597069 0.0691993 0.8446673
1.0000000 0.0630197 0.8384877
1.0000000 0.0592197 0.8346877
1.0000000 0.0592197 0.8346877
0.0000000 0.2556331 0.8552179
0.1431191 0.2496709 0.8492557
0.3222700 0.2430898 0.8426746
0.4969892 0.2366715 0.8362563
0.6688955 0.2303565 0.8299413
0.8387417 0.2241172 0.8237020
1.0000000 0.2179376 0.8175224
1.0000000 0.2141377 0.8137225
1.0000000 0.2141377 0.8137225
0.0000000 0.4086610 0.8345084
0.1224096 0.4026988 0.8285462
0.3015605 0.3961177 0.8219651
0.4762797 0.3896994 0.8155468
0.6481860 0.3833844 0.8092318
0.8180321 0.3771451 0.8029925
0.9862545 0.3709655 0.7968129
1.0000000 0.3671656 0.7930130
1.0000000 0.3671656 0.7930130
0.0000000 0.5605570 0.8139521
0.1018533 0.5545948 0.8079898
0.2810042 0.5480137 0.8014088
0.4557234 0.5415954 0.7949905
0.6276297 0.5352804 0.7886755
0.7974758 0.5290411 0.7824362
0.9656982 0.5228615 0.7762566
1.0000000 0.5190616 0.7724566
1.0000000 0.5190616 0.7724566
0.0000000 0.7116414 0.7935057
0.0814069 0.7056792 0.7875434
0.2605577 0.6990981 0.7809623
0.4352769 0.6926798 0.7745440
0.6071832 0.6863648 0.7682290
0.7770293 0.6801255 0.7619897
0.9452517 0.6739458 0.7558101
1.0000000 0.6701459 0.7520102
1.0000000 0.6701459 0.7520102
0.0000000 0.8620926 0.7731448
0.0610461 0.8561304 0.7671826
0.2401969 0.8495493 0.7606015
0.4149161 0.8431309 0.7541832
0.5868225 0.8368160 0.7478682
0.7566686 0.8305767 0.7416289
0.9248909 0.8243970 0.7354493
1.0000000 0.8205972 0.7316494
1.0000000 0.8205972 0.7316494
0.0000000 1.0000000 0.7528542
0.0407555 1.0000000 0.7468920
0.2199063 0.9994817 0.7403109
0.3946255 0.9930634 0.7338926
0.5665318 0.9867485 0.7275776
0.7363780 0.9805092 0.7213383
0.9046003 0.9743295 0.7151587
1.0000000 0.9705296 0.7113588
1.0000000 0.9705296 0.7113588
0.0000000 1.0000000 0.7483828
0.0362840 1.0000000 0.7424206
0.2154349 1.0000000 0.7358395
0.3901541 1.0000000 0.7294212
0.5620604 1.0000000 0.7231062
0.7319065 1.0000000 0.7168669
0.9001289 1.0000000 0.7106873
1.0000000 1.0000000 0.7068874
1.0000000 1.0000000 0.7068874
0.0138533 0.0000000 1.0000000
0.1761574 0.0000000 1.0000000
0.3553082 0.0000000 1.0000000
0.5300274 0.0000000 1.0000000
0.7019337 0.0000000 0.9960381
0.8717799 0.0000000 0.9897988
1.0000000 0.0000000 0.9836191
1.0000000 0.0000000 0.9798193
1.0000000 0.0000000 0.9798193
0.0001792 0.0991141 1.0000000
0.1624833 0.0931518 1.0000000
0.3416342 0.0865707 0.9950973
0.5163534 0.0801524 0.9886791
0.6882597 0.0738375 0.9823641
0.8581058 0.0675982 0.9761248
1.0000000 0.0614185 0.9699451
1.0000000 0.0576186 0.9661453
1.0000000 0.0576186 0.9661453
0.0000000 0.2540320 0.9866754
0.1415180 0.2480697 0.9807132
0.3206689 0.2414886 0.9741321
0.4953881 0.2350703 0.9677137
0.6672944 0.2287554 0.9613988
0.8371405 0.2225161 0.9551595
1.0000000 0.2163364 0.9489799
1.0000000 0.2125365 0.9451799
1.0000000 0.2125365 0.9451799
0.0000000 0.4070599 0.9659659
0.1208085 0.4010977 0.9600037
0.2999594 0.3945166 0.9534225
0.4746786 0.3880982 0.9470043
0.6465849 0.3817833 0.9406893
0.8164310 0.3755440 0.9344500
0.9846534 0.3693643 0.9282703
1.0000000 0.3655644 0.9244704
1.0000000 0.3655644 0.9244704
0.0000000 0.5589559 0.9454096
0.1002522 0.5529937 0.9394473
0.2794031 0.5464125 0.9328662
0.4541222 0.5399942 0.9264479
0.6260286 0.5336792 0.9201330
0.7958747 0.5274400 0.9138937
0.9640970 0.5212603 0.9077140
1.0000000 0.5174604 0.9039141
1.0000000 0.5174604 0.9039141
0.0000000 0.7100403 0.9249631
0.0798057 0.7040780 0.9190009
0.2589566 0.6974969 0.9124198
0.4336758 0.6910786 0.9060014
0.6055821 0.6847636 0.8996865
0.7754282 0.6785243 0.8934472
0.9436506 0.6723447 0.8872675
1.0000000 0.6685448 0.8834676
1.0000000 0.6685448 0.8834676
0.0000000 0.8604915 0.9046023
0.0594449 0.8545293 0.8986400
0.2385958 0.8479481 0.8920590
0.4133150 0.8415298 0.8856407
0.5852213 0.8352149 0.8793257
0.7550674 0.8289756 0.8730864
0.9232898 0.8227959 0.8669068
1.0000000 0.8189960 0.8631068
1.0000000 0.8189960 0.8631068
0.0000000 1.0000000 0.8843117
0.0391544 1.0000000 0.8783495
0.2183052 0.9978806 0.8717684
0.3930244 0.9914623 0.8653501
0.5649307 0.9851474 0.8590351
0.7347768 0.9789081 0.8527958
0.9029992 0.9727284 0.8466161
1.0000000 0.9689285 0.8428162
1.0000000 0.9689285 0.8428162
0.0000000 1.0000000 0.8798403
0.0346829 1.0000000 0.8738781
0.2138337 1.0000000 0.8672969
0.3885530 1.0000000 0.8608786
0.5604593 1.0000000 0.8545637
0.7303054 1.0000000 0.8483244
0.8985277 1.0000000 0.8421447
1.0000000 1.0000000 0.8383448
1.0000000 1.0000000 0.8383448
