luts/lume_20260406_003456.cube
TITLE "Lume Grade"
LUT_3D_SIZE 33
0.0000000 0.0000000 0.0177885
0.0000000 0.0000000 0.0177885
0.0435765 0.0000000 0.0169274
0.0882884 0.0000000 0.0160462
0.1318435 0.0000000 0.0151879
0.1746774 0.0000000 0.0143437
0.2169873 0.0000000 0.0135098
0.2588861 0.0000000 0.0126841
0.3004472 0.0000000 0.0118650
0.3417219 0.0000000 0.0110515
0.3827482 0.0000000 0.0102430
0.4235555 0.0000000 0.0094387
0.4641669 0.0000000 0.0086384
0.5046012 0.0000000 0.0078415
0.5448740 0.0000000 0.0070478
0.5849985 0.0000000 0.0062570
0.6249856 0.0000000 0.0054689
0.6648452 0.0000000 0.0046834
0.7045856 0.0000000 0.0039002
0.7442143 0.0000000 0.0031191
0.7837377 0.0000000 0.0023402
0.8231615 0.0000000 0.0015632
0.8624912 0.0000000 0.0007881
0.9017314 0.0000000 0.0000148
0.9408864 0.0000000 0.0000000
0.9799601 0.0000000 0.0000000
1.0000000 0.0000000 0.0000000
1.0000000 0.0000000 0.0000000
1.0000000 0.0000000 0.0000000
1.0000000 0.0000000 0.0000000
1.0000000 0.0000000 0.0000000
1.0000000 0.0000000 0.0000000
1.0000000 0.0000000 0.0000000
0.0000000 0.0000000 0.0177885
0.0000000 0.0000000 0.0177885
0.0435765 0.0000000 0.0169274
0.0882884 0.0000000 0.0160462
0.1318435 0.0000000 0.0151879
0.1746774 0.0000000 0.0143437
0.2169873 0.0000000 0.0135098
0.2588861 0.0000000 0.0126841
0.3004472 0.0000000 0.0118650
0.3417219 0.0000000 0.0110515
0.3827482 0.0000000 0.0102430
0.4235555 0.0000000 0.0094387
0.4641669 0.0000000 0.0086384
0.5046012 0.0000000 0.0078415
0.5448740 0.0000000 0.0070478
0.5849985 0.0000000 0.0062570
0.6249856 0.0000000 0.0054689
0.6648452 0.0000000 0.0046834
0.7045856 0.0000000 0.0039002
0.7442143 0.0000000 0.0031191
0.7837377 0.0000000 0.0023402
0.8231615 0.0000000 0.0015632
0.8624912 0.0000000 0.0007881
0.9017314 0.0000000 0.0000148
0.9408864 0.0000000 0.0000000
0.9799601 0.0000000 0.0000000
1.0000000 0.0000000 0.0000000
1.0000000 0.0000000 0.0000000
1.0000000 0.0000000 0.0000000
1.0000000 0.0000000 0.0000000
1.0000000 0.0000000 0.0000000
1.0000000 0.0000000 0.0000000
1.0000000 0.0000000 0.0000000
0.0000000 0.0107941 0.0170298
0.0000000 0.0107941 0.0170298
0.0428178 0.0099330 0.0161687
0.0875297 0.0090519 0.0152875
0.1310848 0.0081935 0.0144292
0.1739187 0.0073493 0.0135850
0.2162286 0.0065154 0.0127511
0.2581274 0.0056897 0.0119254
0.2996885 0.0048706 0.0111063
0.3409632 0.0040571 0.0102928
0.3819895 0.0032486 0.0094843
0.4227968 0.0024444 0.0086800
0.4634082 0.0016440 0.0078797
0.5038425 0.0008471 0.0070828
0.5441153 0.0000534 0.0062891
0.5842398 0.0000000 0.0054983
0.6242269 0.0000000 0.0047102
0.6640865 0.0000000 0.0039247
0.7038269 0.0000000 0.0031414
0.7434556 0.0000000 0.0023604
0.7829790 0.0000000 0.0015815
0.8224028 0.0000000 0.0008045
0.8617325 0.0000000 0.0000294
0.9009727 0.0000000 0.0000000
0.9401277 0.0000000 0.0000000
0.9792014 0.0000000 0.0000000
1.0000000 0.0000000 0.0000000
1.0000000 0.0000000 0.0000000
1.0000000 0.0000000 0.0000000
1.0000000 0.0000000 0.0000000
1.0000000 0.0000000 0.0000000
1.0000000 0.0000000 0.0000000
1.0000000 0.0000000 0.0000000
0.0000000 0.0499025 0.0143102
0.0000000 0.0499025 0.0143102
0.0400983 0.0490414 0.0134492
0.0848101 0.0481602 0.0125680
0.1283652 0.0473018 0.0117096
0.1711991 0.0464577 0.0108654
0.2135090 0.0456238 0.0100315
0.2554078 0.0447981 0.0092058
0.2969689 0.0439790 0.0083867
0.3382436 0.0431655 0.0075733
0.3792699 0.0423570 0.0067647
0.4200772 0.0415527 0.0059605
0.4606887 0.0407524 0.0051601
0.5011230 0.0399555 0.0043632
0.5413957 0.0391618 0.0035695
0.5815202 0.0383710 0.0027787
0.6215073 0.0375829 0.0019906
0.6613669 0.0367973 0.0012051
0.7011073 0.0360141 0.0004219
0.7407360 0.0352331 0.0000000
0.7802594 0.0344542 0.0000000
0.8196833 0.0336772 0.0000000
0.8590129 0.0329021 0.0000000
0.8982531 0.0321288 0.0000000
0.9374081 0.0313571 0.0000000
0.9764819 0.0305870 0.0000000
1.0000000 0.0298185 0.0000000
1.0000000 0.0290514 0.0000000
1.0000000 0.0286426 0.0000000
1.0000000 0.0286426 0.0000000
1.0000000 0.0286426 0.0000000
1.0000000 0.0286426 0.0000000
1.0000000 0.0286426 0.0000000
0.0000000 0.0883243 0.0116384
0.0000000 0.0883243 0.0116384
0.0374264 0.0874632 0.0107773
0.0821383 0.0865820 0.0098961
0.1256934 0.0857236 0.0090377
0.1685273 0.0848794 0.0081936
0.2108372 0.0840456 0.0073597
0.2527360 0.0832198 0.0065340
0.2942970 0.0824007 0.0057149
0.3355718 0.0815873 0.0049014
0.3765981 0.0807787 0.0040929
0.4174054 0.0799745 0.0032886
0.4580168 0.0791741 0.0024883
0.4984512 0.0783772 0.0016914
0.5387239 0.0775835 0.0008977
0.5788484 0.0767927 0.0001069
0.6188355 0.0760047 0.0000000
0.6586951 0.0752191 0.0000000
0.6984355 0.0744359 0.0000000
0.7380642 0.0736549 0.0000000
0.7775877 0.0728759 0.0000000
0.8170114 0.0720990 0.0000000
0.8563411 0.0713239 0.0000000
0.8955813 0.0705505 0.0000000
0.9347363 0.0697788 0.0000000
0.9738100 0.0690088 0.0000000
1.0000000 0.0682402 0.0000000
1.0000000 0.0674732 0.0000000
1.0000000 0.0670643 0.0000000
1.0000000 0.0670643 0.0000000
1.0000000 0.0670643 0.0000000
1.0000000 0.0670643 0.0000000
1.0000000 0.0670643 0.0000000
0.0000000 0.1264037 0.0089904
0.0000000 0.1264037 0.0089904
0.0347784 0.1255426 0.0081293
0.0794903 0.1246614 0.0072481
0.1230454 0.1238030 0.0063897
0.1658793 0.1229588 0.0055455
0.2081891 0.1221250 0.0047117
0.2500880 0.1212992 0.0038859
0.2916490 0.1204801 0.0030669
0.3329237 0.1196667 0.0022534
0.3739501 0.1188581 0.0014448
0.4147574 0.1180539 0.0006406
0.4553688 0.1172535 0.0000000
0.4958031 0.1164566 0.0000000
0.5360759 0.1156629 0.0000000
0.5762004 0.1148721 0.0000000
0.6161875 0.1140841 0.0000000
0.6560471 0.1132985 0.0000000
0.6957874 0.1125153 0.0000000
0.7354162 0.1117343 0.0000000
0.7749395 0.1109553 0.0000000
0.8143634 0.1101784 0.0000000
0.8536931 0.1094033 0.0000000
0.8929333 0.1086299 0.0000000
0.9320883 0.1078582 0.0000000
0.9711620 0.1070881 0.0000000
1.0000000 0.1063196 0.0000000
1.0000000 0.1055525 0.0000000
1.0000000 0.1051437 0.0000000
1.0000000 0.1051437 0.0000000
1.0000000 0.1051437 0.0000000
1.0000000 0.1051437 0.0000000
1.0000000 0.1051437 0.0000000
0.0000000 0.1642516 0.0063585
0.0000000 0.1642516 0.0063585
0.0321465 0.1633905 0.0054974
0.0768583 0.1625093 0.0046162
0.1204134 0.1616509 0.0037578
0.1632474 0.1608067 0.0029136
0.2055572 0.1599729 0.0020798
0.2474560 0.1591471 0.0012540
0.2890171 0.1583280 0.0004349
0.3302918 0.1575146 0.0000000
0.3713182 0.1567060 0.0000000
0.4121255 0.1559018 0.0000000
0.4527368 0.1551014 0.0000000
0.4931712 0.1543045 0.0000000
0.5334440 0.1535108 0.0000000
0.5735685 0.1527200 0.0000000
0.6135556 0.1519320 0.0000000
0.6534152 0.1511464 0.0000000
0.6931555 0.1503632 0.0000000
0.7327842 0.1495822 0.0000000
0.7723076 0.1488032 0.0000000
0.8117315 0.1480263 0.0000000
0.8510611 0.1472512 0.0000000
0.8903014 0.1464778 0.0000000
0.9294563 0.1457061 0.0000000
0.9685301 0.1449361 0.0000000
1.0000000 0.1441675 0.0000000
1.0000000 0.1434004 0.0000000
1.0000000 0.1429916 0.0000000
1.0000000 0.1429916 0.0000000
1.0000000 0.1429916 0.0000000
1.0000000 0.1429916 0.0000000
1.0000000 0.1429916 0.0000000
0.0000000 0.2019244 0.0037387
0.0000000 0.2019244 0.0037387
0.0295267 0.2010633 0.0028776
0.0742386 0.2001821 0.0019964
0.1177937 0.1993237 0.0011380
0.1606276 0.1984795 0.0002939
0.2029375 0.1976456 0.0000000
0.2448363 0.1968199 0.0000000
0.2863973 0.1960008 0.0000000
0.3276721 0.1951874 0.0000000
0.3686984 0.1943788 0.0000000
0.4095057 0.1935746 0.0000000
0.4501171 0.1927742 0.0000000
0.4905514 0.1919773 0.0000000
0.5308242 0.1911836 0.0000000
0.5709487 0.1903928 0.0000000
0.6109358 0.1896047 0.0000000
0.6507955 0.1888192 0.0000000
0.6905358 0.1880360 0.0000000
0.7301645 0.1872550 0.0000000
0.7696879 0.1864760 0.0000000
0.8091117 0.1856991 0.0000000
0.8484414 0.1849239 0.0000000
0.8876816 0.1841506 0.0000000
0.9268365 0.1833789 0.0000000
0.9659103 0.1826088 0.0000000
1.0000000 0.1818403 0.0000000
1.0000000 0.1810732 0.0000000
1.0000000 0.1806644 0.0000000
1.0000000 0.1806644 0.0000000
1.0000000 0.1806644 0.0000000
1.0000000 0.1806644 0.0000000
1.0000000 0.1806644 0.0000000
0.0000000 0.2394563 0.0011288
0.0000000 0.2394563 0.0011288
0.0269168 0.2385952 0.0002677
0.0716286 0.2377141 0.0000000
0.1151837 0.2368557 0.0000000
0.1580177 0.2360115 0.0000000
0.2003275 0.2351776 0.0000000
0.2422263 0.2343519 0.0000000
0.2837874 0.2335328 0.0000000
0.3250621 0.2327193 0.0000000
0.3660884 0.2319108 0.0000000
0.4068958 0.2311065 0.0000000
0.4475071 0.2303062 0.0000000
0.4879415 0.2295093 0.0000000
0.5282142 0.2287156 0.0000000
0.5683388 0.2279248 0.0000000
0.6083258 0.2271367 0.0000000
0.6481855 0.2263512 0.0000000
0.6879258 0.2255680 0.0000000
0.7275545 0.2247870 0.0000000
0.7670779 0.2240080 0.0000000
0.8065017 0.2232310 0.0000000
0.8458315 0.2224559 0.0000000
0.8850716 0.2216826 0.0000000
0.9242265 0.2209109 0.0000000
0.9633003 0.2201408 0.0000000
1.0000000 0.2193723 0.0000000
1.0000000 0.2186052 0.0000000
1.0000000 0.2181964 0.0000000
1.0000000 0.2181964 0.0000000
1.0000000 0.2181964 0.0000000
1.0000000 0.2181964 0.0000000
1.0000000 0.2181964 0.0000000
0.0000000 0.2768706 0.0000000
0.0000000 0.2768706 0.0000000
0.0243150 0.2760095 0.0000000
0.0690269 0.2751283 0.0000000
0.1125820 0.2742699 0.0000000
0.1554159 0.2734258 0.0000000
0.1977257 0.2725919 0.0000000
0.2396246 0.2717662 0.0000000
0.2811856 0.2709471 0.0000000
0.3224603 0.2701336 0.0000000
0.3634867 0.2693251 0.0000000
0.4042940 0.2685208 0.0000000
0.4449053 0.2677205 0.0000000
0.4853397 0.2669236 0.0000000
0.5256125 0.2661299 0.0000000
0.5657369 0.2653391 0.0000000
0.6057241 0.2645510 0.0000000
0.6455837 0.2637655 0.0000000
0.6853241 0.2629822 0.0000000
0.7249527 0.2622012 0.0000000
0.7644762 0.2614223 0.0000000
0.8039000 0.2606453 0.0000000
0.8432297 0.2598702 0.0000000
0.8824699 0.2590969 0.0000000
0.9216248 0.2583252 0.0000000
0.9606986 0.2575551 0.0000000
0.9996945 0.2567866 0.0000000
1.0000000 0.2560195 0.0000000
1.0000000 0.2556106 0.0000000
1.0000000 0.2556106 0.0000000
1.0000000 0.2556106 0.0000000
1.0000000 0.2556106 0.0000000
1.0000000 0.2556106 0.0000000
0.0000000 0.3141838 0.0000000
0.0000000 0.3141838 0.0000000
0.0217203 0.3133227 0.0000000
0.0664321 0.3124415 0.0000000
0.1099872 0.3115831 0.0000000
0.1528212 0.3107389 0.0000000
0.1951310 0.3099051 0.0000000
0.2370298 0.3090793 0.0000000
0.2785909 0.3082602 0.0000000
0.3198656 0.3074468 0.0000000
0.3608919 0.3066382 0.0000000
0.4016992 0.3058340 0.0000000
0.4423106 0.3050336 0.0000000
0.4827450 0.3042367 0.0000000
0.5230178 0.3034430 0.0000000
0.5631422 0.3026522 0.0000000
0.6031294 0.3018641 0.0000000
0.6429890 0.3010786 0.0000000
0.6827294 0.3002954 0.0000000
0.7223580 0.2995144 0.0000000
0.7618814 0.2987354 0.0000000
0.8013052 0.2979585 0.0000000
0.8406349 0.2971833 0.0000000
0.8798752 0.2964100 0.0000000
0.9190301 0.2956383 0.0000000
0.9581038 0.2948683 0.0000000
0.9970998 0.2940997 0.0000000
1.0000000 0.2933326 0.0000000
1.0000000 0.2929238 0.0000000
1.0000000 0.2929238 0.0000000
1.0000000 0.2929238 0.0000000
1.0000000 0.2929238 0.0000000
1.0000000 0.2929238 0.0000000
0.0000000 0.3514083 0.0000000
0.0000000 0.3514083 0.0000000
0.0191317 0.3505472 0.0000000
0.0638435 0.3496660 0.0000000
0.1073986 0.3488076 0.0000000
0.1502326 0.3479635 0.0000000
0.1925424 0.3471296 0.0000000
0.2344413 0.3463039 0.0000000
0.2760023 0.3454848 0.0000000
0.3172770 0.3446713 0.0000000
0.3583034 0.3438628 0.0000000
0.3991107 0.3430585 0.0000000
0.4397220 0.3422582 0.0000000
0.4801564 0.3414613 0.0000000
0.5204291 0.3406676 0.0000000
0.5605537 0.3398768 0.0000000
0.6005408 0.3390887 0.0000000
0.6404004 0.3383031 0.0000000
0.6801407 0.3375199 0.0000000
0.7197694 0.3367389 0.0000000
0.7592928 0.3359600 0.0000000
0.7987167 0.3351830 0.0000000
0.8380463 0.3344079 0.0000000
0.8772866 0.3336346 0.0000000
0.9164415 0.3328629 0.0000000
0.9555153 0.3320928 0.0000000
0.9945112 0.3313243 0.0000000
1.0000000 0.3305572 0.0000000
1.0000000 0.3301483 0.0000000
1.0000000 0.3301483 0.0000000
1.0000000 0.3301483 0.0000000
1.0000000 0.3301483 0.0000000
1.0000000 0.3301483 0.0000000
0.0000000 0.3885541 0.0000000
0.0000000 0.3885541 0.0000000
0.0165486 0.3876930 0.0000000
0.0612604 0.3868118 0.0000000
0.1048156 0.3859534 0.0000000
0.1476495 0.3851092 0.0000000
0.1899593 0.3842754 0.0000000
0.2318581 0.3834496 0.0000000
0.2734192 0.3826305 0.0000000
0.3146939 0.3818171 0.0000000
0.3557203 0.3810085 0.0000000
0.3965276 0.3802043 0.0000000
0.4371389 0.3794039 0.0000000
0.4775733 0.3786070 0.0000000
0.5178460 0.3778133 0.0000000
0.5579705 0.3770225 0.0000000
0.5979577 0.3762345 0.0000000
0.6378173 0.3754489 0.0000000
0.6775576 0.3746657 0.0000000
0.7171863 0.3738847 0.0000000
0.7567098 0.3731058 0.0000000
0.7961335 0.3723288 0.0000000
0.8354632 0.3715537 0.0000000
0.8747035 0.3707803 0.0000000
0.9138584 0.3700086 0.0000000
0.9529322 0.3692386 0.0000000
0.9919281 0.3684700 0.0000000
1.0000000 0.3677030 0.0000000
1.0000000 0.3672941 0.0000000
1.0000000 0.3672941 0.0000000
1.0000000 0.3672941 0.0000000
1.0000000 0.3672941 0.0000000
1.0000000 0.3672941 0.0000000
0.0000000 0.4256288 0.0000000
0.0000000 0.4256288 0.0000000
0.0139704 0.4247677 0.0000000
0.0586823 0.4238865 0.0000000
0.1022374 0.4230281 0.0000000
0.1450713 0.4221839 0.0000000
0.1873812 0.4213501 0.0000000
0.2292800 0.4205243 0.0000000
0.2708411 0.4197052 0.0000000
0.3121158 0.4188918 0.0000000
0.3531421 0.4180832 0.0000000
0.3939494 0.4172790 0.0000000
0.4345608 0.4164786 0.0000000
0.4749951 0.4156817 0.0000000
0.5152679 0.4148880 0.0000000
0.5553924 0.4140972 0.0000000
0.5953795 0.4133092 0.0000000
0.6352391 0.4125236 0.0000000
0.6749795 0.4117404 0.0000000
0.7146082 0.4109594 0.0000000
0.7541316 0.4101804 0.0000000
0.7935554 0.4094035 0.0000000
0.8328851 0.4086284 0.0000000
0.8721253 0.4078550 0.0000000
0.9112803 0.4070833 0.0000000
0.9503540 0.4063133 0.0000000
0.9893500 0.4055447 0.0000000
1.0000000 0.4047776 0.0000000
1.0000000 0.4043688 0.0000000
1.0000000 0.4043688 0.0000000
1.0000000 0.4043688 0.0000000
1.0000000 0.4043688 0.0000000
1.0000000 0.4043688 0.0000000
0.0000000 0.4626390 0.0000000
0.0000000 0.4626390 0.0000000
0.0113968 0.4617779 0.0000000
0.0561086 0.4608967 0.0000000
0.0996637 0.4600383 0.0000000
0.1424977 0.4591941 0.0000000
0.1848075 0.4583603 0.0000000
0.2267063 0.4575346 0.0000000
0.2682674 0.4567154 0.0000000
0.3095421 0.4559020 0.0000000
0.3505684 0.4550934 0.0000000
0.3913758 0.4542892 0.0000000
0.4319871 0.4534888 0.0000000
0.4724215 0.4526919 0.0000000
0.5126942 0.4518982 0.0000000
0.5528187 0.4511074 0.0000000
0.5928059 0.4503194 0.0000000
0.6326655 0.4495338 0.0000000
0.6724058 0.4487506 0.0000000
0.7120345 0.4479696 0.0000000
0.7515579 0.4471907 0.0000000
0.7909818 0.4464137 0.0000000
0.8303114 0.4456386 0.0000000
0.8695517 0.4448652 0.0000000
0.9087065 0.4440936 0.0000000
0.9477804 0.4433235 0.0000000
0.9867762 0.4425550 0.0000000
1.0000000 0.4417879 0.0000000
1.0000000 0.4413790 0.0000000
1.0000000 0.4413790 0.0000000
1.0000000 0.4413790 0.0000000
1.0000000 0.4413790 0.0000000
1.0000000 0.4413790 0.0000000
0.0000000 0.4995900 0.0000000
0.0000000 0.4995900 0.0000000
0.0088272 0.4987289 0.0000000
0.0535390 0.4978477 0.0000000
0.0970941 0.4969893 0.0000000
0.1399281 0.4961451 0.0000000
0.1822379 0.4953113 0.0000000
0.2241368 0.4944855 0.0000000
0.2656978 0.4936664 0.0000000
0.3069725 0.4928530 0.0000000
0.3479989 0.4920444 0.0000000
0.3888062 0.4912402 0.0000000
0.4294176 0.4904398 0.0000000
0.4698519 0.4896429 0.0000000
0.5101247 0.4888492 0.0000000
0.5502492 0.4880584 0.0000000
0.5902363 0.4872704 0.0000000
0.6300959 0.4864848 0.0000000
0.6698363 0.4857016 0.0000000
0.7094649 0.4849206 0.0000000
0.7489884 0.4841416 0.0000000
0.7884122 0.4833647 0.0000000
0.8277419 0.4825896 0.0000000
0.8669821 0.4818162 0.0000000
0.9061370 0.4810445 0.0000000
0.9452108 0.4802745 0.0000000
0.9842067 0.4795059 0.0000000
1.0000000 0.4787389 0.0000000
1.0000000 0.4783300 0.0000000
1.0000000 0.4783300 0.0000000
1.0000000 0.4783300 0.0000000
1.0000000 0.4783300 0.0000000
1.0000000 0.4783300 0.0000000
0.0000000 0.5364864 0.0000000
0.0000000 0.5364864 0.0000000
0.0062614 0.5356253 0.0000000
0.0509733 0.5347441 0.0000000
0.0945284 0.5338858 0.0000000
0.1373623 0.5330416 0.0000000
0.1796722 0.5322077 0.0000000
0.2215710 0.5313820 0.0000000
0.2631321 0.5305629 0.0000000
0.3044068 0.5297495 0.0000000
0.3454331 0.5289409 0.0000000
0.3862404 0.5281367 0.0000000
0.4268518 0.5273363 0.0000000
0.4672861 0.5265394 0.0000000
0.5075589 0.5257457 0.0000000
0.5476834 0.5249549 0.0000000
0.5876705 0.5241668 0.0000000
0.6275302 0.5233813 0.0000000
0.6672705 0.5225981 0.0000000
0.7068992 0.5218171 0.0000000
0.7464226 0.5210381 0.0000000
0.7858464 0.5202612 0.0000000
0.8251761 0.5194861 0.0000000
0.8644164 0.5187127 0.0000000
0.9035712 0.5179410 0.0000000
0.9426451 0.5171710 0.0000000
0.9816409 0.5164024 0.0000000
1.0000000 0.5156353 0.0000000
1.0000000 0.5152265 0.0000000
1.0000000 0.5152265 0.0000000
1.0000000 0.5152265 0.0000000
1.0000000 0.5152265 0.0000000
1.0000000 0.5152265 0.0000000
0.0000000 0.5733322 0.0000000
0.0000000 0.5733322 0.0000000
0.0036992 0.5724711 0.0000000
0.0484110 0.5715899 0.0000000
0.0919662 0.5707315 0.0000000
0.1348001 0.5698873 0.0000000
0.1771100 0.5690535 0.0000000
0.2190088 0.5682278 0.0000000
0.2605698 0.5674087 0.0000000
0.3018445 0.5665952 0.0000000
0.3428709 0.5657867 0.0000000
0.3836782 0.5649824 0.0000000
0.4242896 0.5641820 0.0000000
0.4647239 0.5633851 0.0000000
0.5049967 0.5625914 0.0000000
0.5451211 0.5618007 0.0000000
0.5851083 0.5610126 0.0000000
0.6249679 0.5602270 0.0000000
0.6647083 0.5594438 0.0000000
0.7043369 0.5586628 0.0000000
0.7438604 0.5578839 0.0000000
0.7832842 0.5571069 0.0000000
0.8226138 0.5563318 0.0000000
0.8618541 0.5555584 0.0000000
0.9010090 0.5547867 0.0000000
0.9400828 0.5540167 0.0000000
0.9790787 0.5532482 0.0000000
1.0000000 0.5524811 0.0000000
1.0000000 0.5520722 0.0000000
1.0000000 0.5520722 0.0000000
1.0000000 0.5520722 0.0000000
1.0000000 0.5520722 0.0000000
1.0000000 0.5520722 0.0000000
0.0000000 0.6101305 0.0000000
0.0000000 0.6101305 0.0000000
0.0011403 0.6092694 0.0000000
0.0458521 0.6083882 0.0000000
0.0894072 0.6075299 0.0000000
0.1322412 0.6066857 0.0000000
0.1745510 0.6058518 0.0000000
0.2164498 0.6050261 0.0000000
0.2580109 0.6042070 0.0000000
0.2992856 0.6033936 0.0000000
0.3403119 0.6025850 0.0000000
0.3811193 0.6017808 0.0000000
0.4217306 0.6009804 0.0000000
0.4621650 0.6001835 0.0000000
0.5024378 0.5993898 0.0000000
0.5425622 0.5985990 0.0000000
0.5825493 0.5978109 0.0000000
0.6224090 0.5970254 0.0000000
0.6621493 0.5962422 0.0000000
0.7017780 0.5954611 0.0000000
0.7413014 0.5946822 0.0000000
0.7807252 0.5939053 0.0000000
0.8200549 0.5931301 0.0000000
0.8592951 0.5923568 0.0000000
0.8984501 0.5915851 0.0000000
0.9375238 0.5908151 0.0000000
0.9765198 0.5900465 0.0000000
1.0000000 0.5892794 0.0000000
1.0000000 0.5888706 0.0000000
1.0000000 0.5888706 0.0000000
1.0000000 0.5888706 0.0000000
1.0000000 0.5888706 0.0000000
1.0000000 0.5888706 0.0000000
0.0000000 0.6468845 0.0000000
0.0000000 0.6468845 0.0000000
0.0000000 0.6460234 0.0000000
0.0432962 0.6451422 0.0000000
0.0868514 0.6442838 0.0000000
0.1296853 0.6434397 0.0000000
0.1719952 0.6426058 0.0000000
0.2138939 0.6417801 0.0000000
0.2554550 0.6409610 0.0000000
0.2967297 0.6401475 0.0000000
0.3377561 0.6393390 0.0000000
0.3785634 0.6385347 0.0000000
0.4191748 0.6377344 0.0000000
0.4596091 0.6369374 0.0000000
0.4998819 0.6361437 0.0000000
0.5400063 0.6353530 0.0000000
0.5799935 0.6345649 0.0000000
0.6198531 0.6337793 0.0000000
0.6595935 0.6329961 0.0000000
0.6992221 0.6322151 0.0000000
0.7387456 0.6314362 0.0000000
0.7781694 0.6306592 0.0000000
0.8174990 0.6298841 0.0000000
0.8567393 0.6291108 0.0000000
0.8958942 0.6283391 0.0000000
0.9349680 0.6275690 0.0000000
0.9739639 0.6268005 0.0000000
1.0000000 0.6260334 0.0000000
1.0000000 0.6256245 0.0000000
1.0000000 0.6256245 0.0000000
1.0000000 0.6256245 0.0000000
1.0000000 0.6256245 0.0000000
1.0000000 0.6256245 0.0000000
0.0000000 0.6835968 0.0000000
0.0000000 0.6835968 0.0000000
0.0000000 0.6827357 0.0000000
0.0407433 0.6818545 0.0000000
0.0842984 0.6809961 0.0000000
0.1271323 0.6801519 0.0000000
0.1694422 0.6793181 0.0000000
0.2113410 0.6784924 0.0000000
0.2529021 0.6776732 0.0000000
0.2941768 0.6768598 0.0000000
0.3352031 0.6760513 0.0000000
0.3760104 0.6752470 0.0000000
0.4166218 0.6744466 0.0000000
0.4570562 0.6736497 0.0000000
0.4973289 0.6728560 0.0000000
0.5374534 0.6720653 0.0000000
0.5774406 0.6712772 0.0000000
0.6173002 0.6704916 0.0000000
0.6570405 0.6697084 0.0000000
0.6966692 0.6689274 0.0000000
0.7361926 0.6681485 0.0000000
0.7756164 0.6673715 0.0000000
0.8149461 0.6665964 0.0000000
0.8541864 0.6658230 0.0000000
0.8933413 0.6650513 0.0000000
0.9324151 0.6642813 0.0000000
0.9714110 0.6635128 0.0000000
1.0000000 0.6627457 0.0000000
1.0000000 0.6623368 0.0000000
1.0000000 0.6623368 0.0000000
1.0000000 0.6623368 0.0000000
1.0000000 0.6623368 0.0000000
1.0000000 0.6623368 0.0000000
0.0000000 0.7202697 0.0000000
0.0000000 0.7202697 0.0000000
0.0000000 0.7194086 0.0000000
0.0381931 0.7185274 0.0000000
0.0817482 0.7176691 0.0000000
0.1245821 0.7168249 0.0000000
0.1668920 0.7159910 0.0000000
0.2087908 0.7151653 0.0000000
0.2503518 0.7143462 0.0000000
0.2916265 0.7135327 0.0000000
0.3326529 0.7127242 0.0000000
0.3734602 0.7119200 0.0000000
0.4140716 0.7111195 0.0000000
0.4545059 0.7103227 0.0000000
0.4947787 0.7095290 0.0000000
0.5349032 0.7087382 0.0000000
0.5748903 0.7079501 0.0000000
0.6147500 0.7071645 0.0000000
0.6544903 0.7063813 0.0000000
0.6941190 0.7056003 0.0000000
0.7336424 0.7048214 0.0000000
0.7730662 0.7040445 0.0000000
0.8123959 0.7032693 0.0000000
0.8516361 0.7024959 0.0000000
0.8907911 0.7017243 0.0000000
0.9298648 0.7009542 0.0000000
0.9688607 0.7001857 0.0000000
1.0000000 0.6994186 0.0000000
1.0000000 0.6990098 0.0000000
1.0000000 0.6990098 0.0000000
1.0000000 0.6990098 0.0000000
1.0000000 0.6990098 0.0000000
1.0000000 0.6990098 0.0000000
0.0000000 0.7569053 0.0000000
0.0000000 0.7569053 0.0000000
0.0000000 0.7560443 0.0000000
0.0356455 0.7551631 0.0000000
0.0792006 0.7543046 0.0000000
0.1220345 0.7534605 0.0000000
0.1643443 0.7526266 0.0000000
0.2062432 0.7518009 0.0000000
0.2478042 0.7509818 0.0000000
0.2890789 0.7501683 0.0000000
0.3301053 0.7493598 0.0000000
0.3709126 0.7485555 0.0000000
0.4115240 0.7477552 0.0000000
0.4519583 0.7469583 0.0000000
0.4922311 0.7461646 0.0000000
0.5323555 0.7453738 0.0000000
0.5723427 0.7445857 0.0000000
0.6122023 0.7438002 0.0000000
0.6519427 0.7430170 0.0000000
0.6915714 0.7422360 0.0000000
0.7310948 0.7414570 0.0000000
0.7705186 0.7406800 0.0000000
0.8098482 0.7399049 0.0000000
0.8490885 0.7391316 0.0000000
0.8882434 0.7383599 0.0000000
0.9273172 0.7375898 0.0000000
0.9663131 0.7368213 0.0000000
1.0000000 0.7360542 0.0000000
1.0000000 0.7356454 0.0000000
1.0000000 0.7356454 0.0000000
1.0000000 0.7356454 0.0000000
1.0000000 0.7356454 0.0000000
1.0000000 0.7356454 0.0000000
0.0000000 0.7935055 0.0000000
0.0000000 0.7935055 0.0000000
0.0000000 0.7926444 0.0000000
0.0331003 0.7917632 0.0000000
0.0766554 0.7909048 0.0000000
0.1194893 0.7900606 0.0000000
0.1617992 0.7892268 0.0000000
0.2036980 0.7884010 0.0000000
0.2452591 0.7875819 0.0000000
0.2865338 0.7867685 0.0000000
0.3275601 0.7859600 0.0000000
0.3683674 0.7851557 0.0000000
0.4089788 0.7843553 0.0000000
0.4494132 0.7835584 0.0000000
0.4896860 0.7827647 0.0000000
0.5298104 0.7819740 0.0000000
0.5697975 0.7811859 0.0000000
0.6096572 0.7804003 0.0000000
0.6493976 0.7796171 0.0000000
0.6890262 0.7788361 0.0000000
0.7285496 0.7780572 0.0000000
0.7679734 0.7772802 0.0000000
0.8073031 0.7765051 0.0000000
0.8465434 0.7757317 0.0000000
0.8856983 0.7749600 0.0000000
0.9247720 0.7741899 0.0000000
0.9637680 0.7734215 0.0000000
1.0000000 0.7726544 0.0000000
1.0000000 0.7722455 0.0000000
1.0000000 0.7722455 0.0000000
1.0000000 0.7722455 0.0000000
1.0000000 0.7722455 0.0000000
1.0000000 0.7722455 0.0000000
0.0000000 0.8300718 0.0000000
0.0000000 0.8300718 0.0000000
0.0000000 0.8292108 0.0000000
0.0305575 0.8283296 0.0000000
0.0741126 0.8274711 0.0000000
0.1169465 0.8266270 0.0000000
