luts/lume_20260404_214048.cube
TITLE "Lume Grade"
LUT_3D_SIZE 33
0.0000000 0.0000000 0.0200538
0.0000000 0.0000000 0.0200538
0.0235920 0.0000000 0.0189932
0.0765135 0.0000000 0.0166431
0.1274955 0.0000000 0.0143790
0.1774511 0.0000000 0.0121606
0.2267045 0.0000000 0.0099733
0.2754250 0.0000000 0.0078097
0.3237163 0.0000000 0.0056652
0.3716489 0.0000000 0.0035366
0.4192739 0.0000000 0.0014217
0.4666294 0.0000000 0.0000000
0.5137455 0.0000000 0.0000000
0.5606464 0.0000000 0.0000000
0.6073518 0.0000000 0.0000000
0.6538782 0.0000000 0.0000000
0.7002394 0.0000000 0.0000000
0.7464479 0.0000000 0.0000000
0.7925137 0.0000000 0.0000000
0.8384458 0.0000000 0.0000000
0.8842524 0.0000000 0.0000000
0.9299408 0.0000000 0.0000000
0.9755172 0.0000000 0.0000000
1.0000000 0.0000000 0.0000000
1.0000000 0.0000000 0.0000000
1.0000000 0.0000000 0.0000000
1.0000000 0.0000000 0.0000000
1.0000000 0.0000000 0.0000000
1.0000000 0.0000000 0.0000000
1.0000000 0.0000000 0.0000000
1.0000000 0.0000000 0.0000000
1.0000000 0.0000000 0.0000000
1.0000000 0.0000000 0.0000000
0.0000000 0.0000000 0.0200538
0.0000000 0.0000000 0.0200538
0.0235920 0.0000000 0.0189932
0.0765135 0.0000000 0.0166431
0.1274955 0.0000000 0.0143790
0.1774511 0.0000000 0.0121606
0.2267045 0.0000000 0.0099733
0.2754250 0.0000000 0.0078097
0.3237163 0.0000000 0.0056652
0.3716489 0.0000000 0.0035366
0.4192739 0.0000000 0.0014217
0.4666294 0.0000000 0.0000000
0.5137455 0.0000000 0.0000000
0.5606464 0.0000000 0.0000000
0.6073518 0.0000000 0.0000000
0.6538782 0.0000000 0.0000000
0.7002394 0.0000000 0.0000000
0.7464479 0.0000000 0.0000000
0.7925137 0.0000000 0.0000000
0.8384458 0.0000000 0.0000000
0.8842524 0.0000000 0.0000000
0.9299408 0.0000000 0.0000000
0.9755172 0.0000000 0.0000000
1.0000000 0.0000000 0.0000000
1.0000000 0.0000000 0.0000000
1.0000000 0.0000000 0.0000000
1.0000000 0.0000000 0.0000000
1.0000000 0.0000000 0.0000000
1.0000000 0.0000000 0.0000000
1.0000000 0.0000000 0.0000000
1.0000000 0.0000000 0.0000000
1.0000000 0.0000000 0.0000000
1.0000000 0.0000000 0.0000000
0.0000000 0.0000000 0.0200538
0.0000000 0.0000000 0.0200538
0.0235920 0.0000000 0.0189932
0.0765135 0.0000000 0.0166431
0.1274955 0.0000000 0.0143790
0.1774511 0.0000000 0.0121606
0.2267045 0.0000000 0.0099733
0.2754250 0.0000000 0.0078097
0.3237163 0.0000000 0.0056652
0.3716489 0.0000000 0.0035366
0.4192739 0.0000000 0.0014217
0.4666294 0.0000000 0.0000000
0.5137455 0.0000000 0.0000000
0.5606464 0.0000000 0.0000000
0.6073518 0.0000000 0.0000000
0.6538782 0.0000000 0.0000000
0.7002394 0.0000000 0.0000000
0.7464479 0.0000000 0.0000000
0.7925137 0.0000000 0.0000000
0.8384458 0.0000000 0.0000000
0.8842524 0.0000000 0.0000000
0.9299408 0.0000000 0.0000000
0.9755172 0.0000000 0.0000000
1.0000000 0.0000000 0.0000000
1.0000000 0.0000000 0.0000000
1.0000000 0.0000000 0.0000000
1.0000000 0.0000000 0.0000000
1.0000000 0.0000000 0.0000000
1.0000000 0.0000000 0.0000000
1.0000000 0.0000000 0.0000000
1.0000000 0.0000000 0.0000000
1.0000000 0.0000000 0.0000000
1.0000000 0.0000000 0.0000000
0.0000000 0.0259003 0.0156818
0.0000000 0.0259003 0.0156818
0.0192199 0.0248396 0.0146212
0.0721415 0.0224895 0.0122710
0.1231235 0.0202255 0.0100070
0.1730790 0.0180070 0.0077886
0.2223325 0.0158198 0.0056013
0.2710529 0.0136562 0.0034377
0.3193442 0.0115116 0.0012932
0.3672769 0.0093830 0.0000000
0.4149018 0.0072681 0.0000000
0.4622574 0.0051651 0.0000000
0.5093734 0.0030728 0.0000000
0.5562744 0.0009900 0.0000000
0.6029797 0.0000000 0.0000000
0.6495061 0.0000000 0.0000000
0.6958674 0.0000000 0.0000000
0.7420759 0.0000000 0.0000000
0.7881416 0.0000000 0.0000000
0.8340737 0.0000000 0.0000000
0.8798804 0.0000000 0.0000000
0.9255688 0.0000000 0.0000000
0.9711452 0.0000000 0.0000000
1.0000000 0.0000000 0.0000000
1.0000000 0.0000000 0.0000000
1.0000000 0.0000000 0.0000000
1.0000000 0.0000000 0.0000000
1.0000000 0.0000000 0.0000000
1.0000000 0.0000000 0.0000000
1.0000000 0.0000000 0.0000000
1.0000000 0.0000000 0.0000000
1.0000000 0.0000000 0.0000000
1.0000000 0.0000000 0.0000000
0.0000000 0.0663213 0.0089349
0.0000000 0.0663213 0.0089349
0.0124730 0.0652607 0.0078743
0.0653946 0.0629106 0.0055241
0.1163765 0.0606465 0.0032601
0.1663321 0.0584281 0.0010416
0.2155856 0.0562408 0.0000000
0.2643060 0.0540773 0.0000000
0.3125973 0.0519327 0.0000000
0.3605300 0.0498041 0.0000000
0.4081549 0.0476892 0.0000000
0.4555104 0.0455862 0.0000000
0.5026265 0.0434939 0.0000000
0.5495274 0.0414111 0.0000000
0.5962328 0.0393370 0.0000000
0.6427592 0.0372708 0.0000000
0.6891205 0.0352120 0.0000000
0.7353289 0.0331600 0.0000000
0.7813947 0.0311143 0.0000000
0.8273268 0.0290745 0.0000000
0.8731335 0.0270403 0.0000000
0.9188219 0.0250114 0.0000000
0.9643983 0.0229874 0.0000000
1.0000000 0.0209682 0.0000000
1.0000000 0.0189534 0.0000000
1.0000000 0.0169429 0.0000000
1.0000000 0.0149365 0.0000000
1.0000000 0.0131715 0.0000000
1.0000000 0.0131715 0.0000000
1.0000000 0.0131715 0.0000000
1.0000000 0.0131715 0.0000000
1.0000000 0.0131715 0.0000000
1.0000000 0.0131715 0.0000000
0.0000000 0.1067424 0.0021880
0.0000000 0.1067424 0.0021880
0.0057261 0.1056818 0.0011273
0.0586477 0.1033316 0.0000000
0.1096296 0.1010676 0.0000000
0.1595852 0.0988491 0.0000000
0.2088387 0.0966619 0.0000000
0.2575591 0.0944983 0.0000000
0.3058504 0.0923538 0.0000000
0.3537831 0.0902252 0.0000000
0.4014080 0.0881102 0.0000000
0.4487635 0.0860073 0.0000000
0.4958797 0.0839149 0.0000000
0.5427805 0.0818321 0.0000000
0.5894859 0.0797580 0.0000000
0.6360123 0.0776919 0.0000000
0.6823736 0.0756330 0.0000000
0.7285820 0.0735810 0.0000000
0.7746478 0.0715353 0.0000000
0.8205799 0.0694955 0.0000000
0.8663866 0.0674613 0.0000000
0.9120750 0.0654324 0.0000000
0.9576513 0.0634084 0.0000000
1.0000000 0.0613892 0.0000000
1.0000000 0.0593744 0.0000000
1.0000000 0.0573640 0.0000000
1.0000000 0.0553575 0.0000000
1.0000000 0.0535925 0.0000000
1.0000000 0.0535925 0.0000000
1.0000000 0.0535925 0.0000000
1.0000000 0.0535925 0.0000000
1.0000000 0.0535925 0.0000000
1.0000000 0.0535925 0.0000000
0.0000000 0.1471634 0.0000000
0.0000000 0.1471634 0.0000000
0.0000000 0.1461028 0.0000000
0.0519008 0.1437526 0.0000000
0.1028827 0.1414886 0.0000000
0.1528383 0.1392702 0.0000000
0.2020918 0.1370829 0.0000000
0.2508122 0.1349193 0.0000000
0.2991035 0.1327748 0.0000000
0.3470362 0.1306462 0.0000000
0.3946611 0.1285313 0.0000000
0.4420167 0.1264283 0.0000000
0.4891327 0.1243360 0.0000000
0.5360336 0.1222532 0.0000000
0.5827390 0.1201791 0.0000000
0.6292654 0.1181129 0.0000000
0.6756267 0.1160541 0.0000000
0.7218351 0.1140020 0.0000000
0.7679009 0.1119564 0.0000000
0.8138331 0.1099166 0.0000000
0.8596396 0.1078824 0.0000000
0.9053281 0.1058535 0.0000000
0.9509044 0.1038295 0.0000000
0.9963745 0.1018102 0.0000000
1.0000000 0.0997955 0.0000000
1.0000000 0.0977850 0.0000000
1.0000000 0.0957786 0.0000000
1.0000000 0.0940135 0.0000000
1.0000000 0.0940135 0.0000000
1.0000000 0.0940135 0.0000000
1.0000000 0.0940135 0.0000000
1.0000000 0.0940135 0.0000000
1.0000000 0.0940135 0.0000000
0.0000000 0.1875845 0.0000000
0.0000000 0.1875845 0.0000000
0.0000000 0.1865239 0.0000000
0.0451538 0.1841737 0.0000000
0.0961358 0.1819097 0.0000000
0.1460914 0.1796913 0.0000000
0.1953449 0.1775040 0.0000000
0.2440653 0.1753404 0.0000000
0.2923566 0.1731959 0.0000000
0.3402893 0.1710673 0.0000000
0.3879142 0.1689523 0.0000000
0.4352697 0.1668494 0.0000000
0.4823858 0.1647570 0.0000000
0.5292867 0.1626742 0.0000000
0.5759921 0.1606001 0.0000000
0.6225185 0.1585340 0.0000000
0.6688798 0.1564752 0.0000000
0.7150882 0.1544231 0.0000000
0.7611540 0.1523774 0.0000000
0.8070861 0.1503377 0.0000000
0.8528928 0.1483035 0.0000000
0.8985811 0.1462745 0.0000000
0.9441575 0.1442506 0.0000000
0.9896276 0.1422313 0.0000000
1.0000000 0.1402166 0.0000000
1.0000000 0.1382061 0.0000000
1.0000000 0.1361997 0.0000000
1.0000000 0.1344346 0.0000000
1.0000000 0.1344346 0.0000000
1.0000000 0.1344346 0.0000000
1.0000000 0.1344346 0.0000000
1.0000000 0.1344346 0.0000000
1.0000000 0.1344346 0.0000000
0.0000000 0.2280056 0.0000000
0.0000000 0.2280056 0.0000000
0.0000000 0.2269449 0.0000000
0.0384069 0.2245948 0.0000000
0.0893889 0.2223308 0.0000000
0.1393445 0.2201123 0.0000000
0.1885980 0.2179251 0.0000000
0.2373184 0.2157615 0.0000000
0.2856097 0.2136169 0.0000000
0.3335424 0.2114883 0.0000000
0.3811673 0.2093734 0.0000000
0.4285228 0.2072704 0.0000000
0.4756389 0.2051781 0.0000000
0.5225398 0.2030953 0.0000000
0.5692452 0.2010212 0.0000000
0.6157716 0.1989550 0.0000000
0.6621329 0.1968962 0.0000000
0.7083414 0.1948442 0.0000000
0.7544070 0.1927985 0.0000000
0.8003392 0.1907587 0.0000000
0.8461459 0.1887245 0.0000000
0.8918343 0.1866956 0.0000000
0.9374106 0.1846716 0.0000000
0.9828807 0.1826524 0.0000000
1.0000000 0.1806376 0.0000000
1.0000000 0.1786271 0.0000000
1.0000000 0.1766207 0.0000000
1.0000000 0.1748557 0.0000000
1.0000000 0.1748557 0.0000000
1.0000000 0.1748557 0.0000000
1.0000000 0.1748557 0.0000000
1.0000000 0.1748557 0.0000000
1.0000000 0.1748557 0.0000000
0.0000000 0.2684267 0.0000000
0.0000000 0.2684267 0.0000000
0.0000000 0.2673660 0.0000000
0.0316600 0.2650158 0.0000000
0.0826420 0.2627518 0.0000000
0.1325976 0.2605334 0.0000000
0.1818511 0.2583461 0.0000000
0.2305715 0.2561826 0.0000000
0.2788628 0.2540380 0.0000000
0.3267955 0.2519094 0.0000000
0.3744204 0.2497945 0.0000000
0.4217759 0.2476915 0.0000000
0.4688920 0.2455992 0.0000000
0.5157928 0.2435164 0.0000000
0.5624983 0.2414423 0.0000000
0.6090246 0.2393761 0.0000000
0.6553860 0.2373173 0.0000000
0.7015944 0.2352653 0.0000000
0.7476602 0.2332196 0.0000000
0.7935923 0.2311798 0.0000000
0.8393990 0.2291456 0.0000000
0.8850873 0.2271167 0.0000000
0.9306637 0.2250927 0.0000000
0.9761338 0.2230735 0.0000000
1.0000000 0.2210587 0.0000000
1.0000000 0.2190482 0.0000000
1.0000000 0.2170418 0.0000000
1.0000000 0.2152767 0.0000000
1.0000000 0.2152767 0.0000000
1.0000000 0.2152767 0.0000000
1.0000000 0.2152767 0.0000000
1.0000000 0.2152767 0.0000000
1.0000000 0.2152767 0.0000000
0.0000000 0.3088477 0.0000000
0.0000000 0.3088477 0.0000000
0.0000000 0.3077871 0.0000000
0.0249131 0.3054369 0.0000000
0.0758951 0.3031729 0.0000000
0.1258507 0.3009545 0.0000000
0.1751042 0.2987672 0.0000000
0.2238245 0.2966036 0.0000000
0.2721159 0.2944591 0.0000000
0.3200485 0.2923305 0.0000000
0.3676735 0.2902156 0.0000000
0.4150290 0.2881126 0.0000000
0.4621451 0.2860202 0.0000000
0.5090460 0.2839375 0.0000000
0.5557514 0.2818633 0.0000000
0.6022778 0.2797972 0.0000000
0.6486391 0.2777384 0.0000000
0.6948475 0.2756863 0.0000000
0.7409133 0.2736406 0.0000000
0.7868454 0.2716009 0.0000000
0.8326520 0.2695667 0.0000000
0.8783405 0.2675377 0.0000000
0.9239168 0.2655138 0.0000000
0.9693869 0.2634945 0.0000000
1.0000000 0.2614797 0.0000000
1.0000000 0.2594693 0.0000000
1.0000000 0.2574629 0.0000000
1.0000000 0.2556978 0.0000000
1.0000000 0.2556978 0.0000000
1.0000000 0.2556978 0.0000000
1.0000000 0.2556978 0.0000000
1.0000000 0.2556978 0.0000000
1.0000000 0.2556978 0.0000000
0.0000000 0.3492688 0.0000000
0.0000000 0.3492688 0.0000000
0.0000000 0.3482081 0.0000000
0.0181662 0.3458580 0.0000000
0.0691482 0.3435940 0.0000000
0.1191038 0.3413755 0.0000000
0.1683573 0.3391883 0.0000000
0.2170776 0.3370247 0.0000000
0.2653690 0.3348801 0.0000000
0.3133017 0.3327515 0.0000000
0.3609266 0.3306366 0.0000000
0.4082821 0.3285336 0.0000000
0.4553982 0.3264413 0.0000000
0.5022991 0.3243585 0.0000000
0.5490045 0.3222844 0.0000000
0.5955309 0.3202182 0.0000000
0.6418922 0.3181594 0.0000000
0.6881006 0.3161074 0.0000000
0.7341664 0.3140617 0.0000000
0.7800985 0.3120219 0.0000000
0.8259051 0.3099877 0.0000000
0.8715935 0.3079588 0.0000000
0.9171699 0.3059348 0.0000000
0.9626400 0.3039156 0.0000000
1.0000000 0.3019008 0.0000000
1.0000000 0.2998903 0.0000000
1.0000000 0.2978839 0.0000000
1.0000000 0.2961189 0.0000000
1.0000000 0.2961189 0.0000000
1.0000000 0.2961189 0.0000000
1.0000000 0.2961189 0.0000000
1.0000000 0.2961189 0.0000000
1.0000000 0.2961189 0.0000000
0.0000000 0.3896898 0.0000000
0.0000000 0.3896898 0.0000000
0.0000000 0.3886292 0.0000000
0.0114193 0.3862790 0.0000000
0.0624013 0.3840150 0.0000000
0.1123569 0.3817966 0.0000000
0.1616104 0.3796093 0.0000000
0.2103307 0.3774457 0.0000000
0.2586221 0.3753012 0.0000000
0.3065547 0.3731726 0.0000000
0.3541797 0.3710576 0.0000000
0.4015352 0.3689547 0.0000000
0.4486513 0.3668623 0.0000000
0.4955522 0.3647795 0.0000000
0.5422575 0.3627054 0.0000000
0.5887840 0.3606393 0.0000000
0.6351452 0.3585805 0.0000000
0.6813537 0.3565284 0.0000000
0.7274194 0.3544827 0.0000000
0.7733516 0.3524430 0.0000000
0.8191583 0.3504088 0.0000000
0.8648466 0.3483798 0.0000000
0.9104230 0.3463559 0.0000000
0.9558931 0.3443366 0.0000000
1.0000000 0.3423218 0.0000000
1.0000000 0.3403113 0.0000000
1.0000000 0.3383050 0.0000000
1.0000000 0.3365399 0.0000000
1.0000000 0.3365399 0.0000000
1.0000000 0.3365399 0.0000000
1.0000000 0.3365399 0.0000000
1.0000000 0.3365399 0.0000000
1.0000000 0.3365399 0.0000000
0.0000000 0.4301109 0.0000000
0.0000000 0.4301109 0.0000000
0.0000000 0.4290503 0.0000000
0.0046724 0.4267001 0.0000000
0.0556544 0.4244361 0.0000000
0.1056100 0.4222176 0.0000000
0.1548634 0.4200304 0.0000000
0.2035838 0.4178668 0.0000000
0.2518752 0.4157223 0.0000000
0.2998078 0.4135936 0.0000000
0.3474327 0.4114787 0.0000000
0.3947883 0.4093757 0.0000000
0.4419044 0.4072834 0.0000000
0.4888053 0.4052006 0.0000000
0.5355107 0.4031265 0.0000000
0.5820370 0.4010603 0.0000000
0.6283984 0.3990015 0.0000000
0.6746068 0.3969495 0.0000000
0.7206725 0.3949038 0.0000000
0.7666047 0.3928640 0.0000000
0.8124113 0.3908299 0.0000000
0.8580997 0.3888009 0.0000000
0.9036761 0.3867769 0.0000000
0.9491462 0.3847577 0.0000000
0.9945154 0.3827429 0.0000000
1.0000000 0.3807324 0.0000000
1.0000000 0.3787260 0.0000000
1.0000000 0.3769610 0.0000000
1.0000000 0.3769610 0.0000000
1.0000000 0.3769610 0.0000000
1.0000000 0.3769610 0.0000000
1.0000000 0.3769610 0.0000000
1.0000000 0.3769610 0.0000000
0.0000000 0.4705319 0.0000000
0.0000000 0.4705319 0.0000000
0.0000000 0.4694713 0.0000000
0.0000000 0.4671212 0.0000000
0.0489075 0.4648571 0.0000000
0.0988631 0.4626387 0.0000000
0.1481165 0.4604514 0.0000000
0.1968369 0.4582878 0.0000000
0.2451283 0.4561433 0.0000000
0.2930609 0.4540147 0.0000000
0.3406858 0.4518998 0.0000000
0.3880414 0.4497968 0.0000000
0.4351575 0.4477044 0.0000000
0.4820583 0.4456217 0.0000000
0.5287638 0.4435475 0.0000000
0.5752901 0.4414814 0.0000000
0.6216515 0.4394226 0.0000000
0.6678599 0.4373705 0.0000000
0.7139256 0.4353248 0.0000000
0.7598578 0.4332851 0.0000000
0.8056644 0.4312509 0.0000000
0.8513528 0.4292220 0.0000000
0.8969292 0.4271980 0.0000000
0.9423993 0.4251787 0.0000000
0.9877685 0.4231640 0.0000000
1.0000000 0.4211535 0.0000000
1.0000000 0.4191471 0.0000000
1.0000000 0.4173820 0.0000000
1.0000000 0.4173820 0.0000000
1.0000000 0.4173820 0.0000000
1.0000000 0.4173820 0.0000000
1.0000000 0.4173820 0.0000000
1.0000000 0.4173820 0.0000000
0.0000000 0.5109530 0.0000000
0.0000000 0.5109530 0.0000000
0.0000000 0.5098923 0.0000000
0.0000000 0.5075423 0.0000000
0.0421606 0.5052782 0.0000000
0.0921161 0.5030597 0.0000000
0.1413696 0.5008725 0.0000000
0.1900900 0.4987089 0.0000000
0.2383814 0.4965644 0.0000000
0.2863140 0.4944358 0.0000000
0.3339389 0.4923208 0.0000000
0.3812945 0.4902179 0.0000000
0.4284106 0.4881255 0.0000000
0.4753115 0.4860427 0.0000000
0.5220169 0.4839686 0.0000000
0.5685433 0.4819025 0.0000000
0.6149045 0.4798436 0.0000000
0.6611130 0.4777916 0.0000000
0.7071787 0.4757459 0.0000000
0.7531109 0.4737062 0.0000000
0.7989175 0.4716720 0.0000000
0.8446059 0.4696430 0.0000000
0.8901823 0.4676191 0.0000000
0.9356524 0.4655998 0.0000000
0.9810216 0.4635850 0.0000000
1.0000000 0.4615746 0.0000000
1.0000000 0.4595682 0.0000000
1.0000000 0.4578031 0.0000000
1.0000000 0.4578031 0.0000000
1.0000000 0.4578031 0.0000000
1.0000000 0.4578031 0.0000000
1.0000000 0.4578031 0.0000000
1.0000000 0.4578031 0.0000000
0.0000000 0.5513741 0.0000000
0.0000000 0.5513741 0.0000000
0.0000000 0.5503134 0.0000000
0.0000000 0.5479633 0.0000000
0.0354137 0.5456992 0.0000000
0.0853693 0.5434808 0.0000000
0.1346227 0.5412936 0.0000000
0.1833431 0.5391300 0.0000000
0.2316345 0.5369855 0.0000000
0.2795671 0.5348568 0.0000000
0.3271920 0.5327419 0.0000000
0.3745476 0.5306389 0.0000000
0.4216637 0.5285466 0.0000000
0.4685645 0.5264638 0.0000000
0.5152699 0.5243897 0.0000000
0.5617963 0.5223235 0.0000000
0.6081576 0.5202647 0.0000000
0.6543661 0.5182127 0.0000000
0.7004318 0.5161670 0.0000000
0.7463640 0.5141272 0.0000000
0.7921706 0.5120930 0.0000000
0.8378590 0.5100641 0.0000000
0.8834354 0.5080401 0.0000000
0.9289055 0.5060208 0.0000000
0.9742746 0.5040061 0.0000000
1.0000000 0.5019956 0.0000000
1.0000000 0.4999892 0.0000000
1.0000000 0.4982242 0.0000000
1.0000000 0.4982242 0.0000000
1.0000000 0.4982242 0.0000000
1.0000000 0.4982242 0.0000000
1.0000000 0.4982242 0.0000000
1.0000000 0.4982242 0.0000000
0.0000000 0.5917951 0.0000000
0.0000000 0.5917951 0.0000000
0.0000000 0.5907345 0.0000000
0.0000000 0.5883844 0.0000000
0.0286668 0.5861204 0.0000000
0.0786224 0.5839019 0.0000000
0.1278758 0.5817146 0.0000000
0.1765962 0.5795510 0.0000000
0.2248875 0.5774065 0.0000000
0.2728202 0.5752779 0.0000000
0.3204451 0.5731630 0.0000000
0.3678007 0.5710600 0.0000000
0.4149168 0.5689676 0.0000000
0.4618177 0.5668849 0.0000000
0.5085230 0.5648108 0.0000000
0.5550494 0.5627446 0.0000000
0.6014107 0.5606858 0.0000000
0.6476191 0.5586337 0.0000000
0.6936849 0.5565881 0.0000000
0.7396170 0.5545483 0.0000000
0.7854237 0.5525141 0.0000000
0.8311121 0.5504851 0.0000000
0.8766885 0.5484612 0.0000000
0.9221585 0.5464419 0.0000000
0.9675277 0.5444272 0.0000000
1.0000000 0.5424167 0.0000000
1.0000000 0.5404103 0.0000000
1.0000000 0.5386453 0.0000000
1.0000000 0.5386453 0.0000000
1.0000000 0.5386453 0.0000000
1.0000000 0.5386453 0.0000000
1.0000000 0.5386453 0.0000000
1.0000000 0.5386453 0.0000000
0.0000000 0.6322162 0.0000000
0.0000000 0.6322162 0.0000000
0.0000000 0.6311555 0.0000000
0.0000000 0.6288054 0.0000000
0.0219199 0.6265414 0.0000000
0.0718755 0.6243229 0.0000000
0.1211289 0.6221356 0.0000000
0.1698493 0.6199721 0.0000000
0.2181406 0.6178275 0.0000000
0.2660733 0.6156989 0.0000000
0.3136982 0.6135840 0.0000000
0.3610538 0.6114810 0.0000000
0.4081699 0.6093886 0.0000000
0.4550707 0.6073059 0.0000000
0.5017762 0.6052318 0.0000000
0.5483025 0.6031656 0.0000000
0.5946639 0.6011068 0.0000000
0.6408722 0.5990548 0.0000000
0.6869380 0.5970091 0.0000000
0.7328702 0.5949693 0.0000000
0.7786768 0.5929351 0.0000000
0.8243652 0.5909061 0.0000000
0.8699416 0.5888822 0.0000000
0.9154117 0.5868629 0.0000000
0.9607809 0.5848482 0.0000000
1.0000000 0.5828377 0.0000000
1.0000000 0.5808313 0.0000000
1.0000000 0.5790663 0.0000000
1.0000000 0.5790663 0.0000000
1.0000000 0.5790663 0.0000000
1.0000000 0.5790663 0.0000000
1.0000000 0.5790663 0.0000000
1.0000000 0.5790663 0.0000000
0.0000000 0.6726373 0.0000000
0.0000000 0.6726373 0.0000000
0.0000000 0.6715767 0.0000000
0.0000000 0.6692265 0.0000000
0.0151730 0.6669625 0.0000000
0.0651286 0.6647440 0.0000000
0.1143820 0.6625568 0.0000000
0.1631024 0.6603932 0.0000000
0.2113937 0.6582487 0.0000000
0.2593264 0.6561201 0.0000000
0.3069513 0.6540051 0.0000000
0.3543068 0.6519021 0.0000000
0.4014229 0.6498098 0.0000000
0.4483238 0.6477270 0.0000000
0.4950292 0.6456529 0.0000000
0.5415556 0.6435868 0.0000000
0.5879169 0.6415280 0.0000000
0.6341254 0.6394759 0.0000000
0.6801911 0.6374302 0.0000000
0.7261232 0.6353905 0.0000000
0.7719299 0.6333562 0.0000000
0.8176183 0.6313273 0.0000000
0.8631946 0.6293033 0.0000000
0.9086647 0.6272841 0.0000000
0.9540340 0.6252693 0.0000000
0.9993067 0.6232588 0.0000000
1.0000000 0.6212524 0.0000000
1.0000000 0.6194874 0.0000000
1.0000000 0.6194874 0.0000000
1.0000000 0.6194874 0.0000000
1.0000000 0.6194874 0.0000000
1.0000000 0.6194874 0.0000000
1.0000000 0.6194874 0.0000000
0.0000000 0.7130583 0.0000000
0.0000000 0.7130583 0.0000000
0.0000000 0.7119977 0.0000000
0.0000000 0.7096475 0.0000000
0.0084261 0.7073835 0.0000000
0.0583817 0.7051651 0.0000000
0.1076351 0.7029778 0.0000000
0.1563555 0.7008142 0.0000000
0.2046468 0.6986697 0.0000000
0.2525795 0.6965411 0.0000000
0.3002044 0.6944262 0.0000000
0.3475600 0.6923231 0.0000000
0.3946761 0.6902308 0.0000000
0.4415769 0.6881480 0.0000000
0.4882823 0.6860739 0.0000000
0.5348087 0.6840078 0.0000000
0.5811700 0.6819490 0.0000000
0.6273785 0.6798970 0.0000000
0.6734442 0.6778512 0.0000000
0.7193763 0.6758115 0.0000000
0.7651830 0.6737773 0.0000000
0.8108714 0.6717483 0.0000000
0.8564478 0.6697243 0.0000000
0.9019178 0.6677051 0.0000000
0.9472871 0.6656904 0.0000000
0.9925598 0.6636798 0.0000000
1.0000000 0.6616734 0.0000000
1.0000000 0.6599084 0.0000000
1.0000000 0.6599084 0.0000000
1.0000000 0.6599084 0.0000000
1.0000000 0.6599084 0.0000000
1.0000000 0.6599084 0.0000000
1.0000000 0.6599084 0.0000000
0.0000000 0.7534794 0.0000000
0.0000000 0.7534794 0.0000000
0.0000000 0.7524188 0.0000000
0.0000000 0.7500686 0.0000000
0.0016791 0.7478046 0.0000000
0.0516347 0.7455862 0.0000000
0.1008882 0.7433989 0.0000000
0.1496086 0.7412353 0.0000000
0.1978999 0.7390907 0.0000000
0.2458326 0.7369621 0.0000000
0.2934575 0.7348472 0.0000000
0.3408130 0.7327442 0.0000000
0.3879291 0.7306519 0.0000000
0.4348300 0.7285691 0.0000000
0.4815354 0.7264950 0.0000000
0.5280618 0.7244288 0.0000000
0.5744231 0.7223700 0.0000000
0.6206315 0.7203180 0.0000000
0.6666973 0.7182723 0.0000000
0.7126294 0.7162325 0.0000000
0.7584361 0.7141984 0.0000000
0.8041245 0.7121694 0.0000000
0.8497008 0.7101454 0.0000000
0.8951709 0.7081262 0.0000000
0.9405401 0.7061114 0.0000000
0.9858129 0.7041009 0.0000000
1.0000000 0.7020946 0.0000000
1.0000000 0.7003295 0.0000000
1.0000000 0.7003295 0.0000000
1.0000000 0.7003295 0.0000000
1.0000000 0.7003295 0.0000000
1.0000000 0.7003295 0.0000000
1.0000000 0.7003295 0.0000000
0.0000000 0.7939004 0.0000000
0.0000000 0.7939004 0.0000000
0.0000000 0.7928398 0.0000000
0.0000000 0.7904896 0.0000000
0.0000000 0.7882256 0.0000000
0.0448878 0.7860072 0.0000000
0.0941413 0.7838199 0.0000000
0.1428617 0.7816563 0.0000000
0.1911530 0.7795118 0.0000000
0.2390857 0.7773832 0.0000000
0.2867106 0.7752683 0.0000000
0.3340662 0.7731652 0.0000000
0.3811823 0.7710729 0.0000000
0.4280831 0.7689902 0.0000000
0.4747885 0.7669160 0.0000000
0.5213149 0.7648499 0.0000000
0.5676762 0.7627910 0.0000000
0.6138846 0.7607390 0.0000000
0.6599504 0.7586933 0.0000000
0.7058825 0.7566535 0.0000000
0.7516892 0.7546194 0.0000000
0.7973776 0.7525904 0.0000000
0.8429539 0.7505665 0.0000000
0.8884240 0.7485472 0.0000000
0.9337932 0.7465324 0.0000000
0.9790660 0.7445220 0.0000000
1.0000000 0.7425156 0.0000000
1.0000000 0.7407505 0.0000000
1.0000000 0.7407505 0.0000000
1.0000000 0.7407505 0.0000000
1.0000000 0.7407505 0.0000000
1.0000000 0.7407505 0.0000000
1.0000000 0.7407505 0.0000000
0.0000000 0.8343215 0.0000000
0.0000000 0.8343215 0.0000000
0.0000000 0.8332608 0.0000000
0.0000000 0.8309107 0.0000000
0.0000000 0.8286467 0.0000000
0.0381410 0.8264282 0.0000000
0.0873944 0.8242410 0.0000000
0.1361148 0.8220774 0.0000000
0.1844061 0.8199328 0.0000000
0.2323388 0.8178042 0.0000000
0.2799637 0.8156893 0.0000000
0.3273192 0.8135864 0.0000000
0.3744353 0.8114940 0.0000000
0.4213362 0.8094112 0.0000000
0.4680416 0.8073371 0.0000000
0.5145680 0.8052709 0.0000000
0.5609293 0.8032121 0.0000000
0.6071377 0.8011601 0.0000000
0.6532035 0.7991143 0.0000000
0.6991356 0.7970746 0.0000000
0.7449423 0.7950404 0.0000000
0.7906306 0.7930115 0.0000000
0.8362070 0.7909875 0.0000000
0.8816771 0.7889683 0.0000000
0.9270463 0.7869535 0.0000000
0.9723191 0.7849430 0.0000000
1.0000000 0.7829366 0.0000000
1.0000000 0.7811716 0.0000000
1.0000000 0.7811716 0.0000000
1.0000000 0.7811716 0.0000000
1.0000000 0.7811716 0.0000000
1.0000000 0.7811716 0.0000000
1.0000000 0.7811716 0.0000000
0.0000000 0.8747426 0.0000000
0.0000000 0.8747426 0.0000000
0.0000000 0.8736819 0.0000000
0.0000000 0.8713318 0.0000000
0.0000000 0.8690677 0.0000000
0.0313941 0.8668493 0.0000000
