luts/lume_20260406_003513.cube
TITLE "Lume Grade"
LUT_3D_SIZE 5
0.0263243 0.0105439 0.0000000
0.3677793 0.0000000 0.0000000
0.7144048 0.0000000 0.0000000
1.0000000 0.0000000 0.0000000
1.0000000 0.0000000 0.0000000
0.0000000 0.2665030 0.0000000
0.3331400 0.2539597 0.0000000
0.6797655 0.2412264 0.0000000
1.0000000 0.2288075 0.0000000
1.0000000 0.2250076 0.0000000
0.0000000 0.5714269 0.0000000
0.2918741 0.5588836 0.0000000
0.6384996 0.5461503 0.0000000
0.9765681 0.5337314 0.0000000
1.0000000 0.5299314 0.0000000
0.0000000 0.8729625 0.0000000
0.2510668 0.8604192 0.0000000
0.5976924 0.8476859 0.0000000
0.9357609 0.8352669 0.0000000
1.0000000 0.8314670 0.0000000
0.0000000 1.0000000 0.0000000
0.2263048 1.0000000 0.0000000
0.5729303 1.0000000 0.0000000
0.9109988 1.0000000 0.0000000
1.0000000 1.0000000 0.0000000
0.0244359 0.0086555 0.1524553
0.3658909 0.0000000 0.1399119
0.7125164 0.0000000 0.1271787
1.0000000 0.0000000 0.1147597
1.0000000 0.0000000 0.1109598
0.0000000 0.2646146 0.1178159
0.3312515 0.2520713 0.1052726
0.6778771 0.2393380 0.0925393
1.0000000 0.2269190 0.0801204
1.0000000 0.2231191 0.0763204
0.0000000 0.5695385 0.0765501
0.2899857 0.5569952 0.0640067
0.6366112 0.5442619 0.0512735
0.9746797 0.5318429 0.0388545
1.0000000 0.5280430 0.0350546
0.0000000 0.8710741 0.0357428
0.2491784 0.8585308 0.0231995
0.5958039 0.8457975 0.0104662
0.9338724 0.8333786 0.0000000
1.0000000 0.8295786 0.0000000
0.0000000 1.0000000 0.0109808
0.2244164 1.0000000 0.0000000
0.5710419 1.0000000 0.0000000
0.9091104 1.0000000 0.0000000
1.0000000 1.0000000 0.0000000
0.0209320 0.0051516 0.4401308
0.3623870 0.0000000 0.4275874
0.7090125 0.0000000 0.4148542
1.0000000 0.0000000 0.4024352
1.0000000 0.0000000 0.3986353
0.0000000 0.2611108 0.4054915
0.3277476 0.2485674 0.3929481
0.6743731 0.2358341 0.3802148
1.0000000 0.2234152 0.3677959
1.0000000 0.2196153 0.3639960
0.0000000 0.5660347 0.3642256
0.2864818 0.5534913 0.3516823
0.6331074 0.5407580 0.3389490
0.9711758 0.5283391 0.3265301
1.0000000 0.5245392 0.3227302
0.0000000 0.8675702 0.3234183
0.2456746 0.8550269 0.3108750
0.5923001 0.8422936 0.2981417
0.9303685 0.8298747 0.2857228
1.0000000 0.8260748 0.2819229
0.0000000 1.0000000 0.2986563
0.2209125 1.0000000 0.2861130
0.5675380 1.0000000 0.2733797
0.9056065 1.0000000 0.2609608
1.0000000 1.0000000 0.2571608
0.0173005 0.0015201 0.7382855
0.3587555 0.0000000 0.7257422
0.7053810 0.0000000 0.7130089
1.0000000 0.0000000 0.7005899
1.0000000 0.0000000 0.6967900
0.0000000 0.2574793 0.7036461
0.3241161 0.2449359 0.6911028
0.6707417 0.2322026 0.6783695
1.0000000 0.2197837 0.6659506
1.0000000 0.2159838 0.6621507
0.0000000 0.5624031 0.6623803
0.2828503 0.5498598 0.6498370
0.6294758 0.5371265 0.6371037
0.9675443 0.5247076 0.6246848
1.0000000 0.5209077 0.6208848
0.0000000 0.8639387 0.6215730
0.2420430 0.8513954 0.6090297
0.5886686 0.8386621 0.5962964
0.9267371 0.8262432 0.5838775
1.0000000 0.8224433 0.5800776
0.0000000 1.0000000 0.5968111
0.2172810 1.0000000 0.5842677
0.5639066 1.0000000 0.5715344
0.9019750 1.0000000 0.5591155
1.0000000 1.0000000 0.5553156
0.0138533 0.0000000 1.0000000
0.3553082 0.0000000 1.0000000
0.7019337 0.0000000 0.9960381
1.0000000 0.0000000 0.9836191
1.0000000 0.0000000 0.9798193
0.0000000 0.2540320 0.9866754
0.3206689 0.2414886 0.9741321
0.6672944 0.2287554 0.9613988
1.0000000 0.2163364 0.9489799
1.0000000 0.2125365 0.9451799
0.0000000 0.5589559 0.9454096
0.2794031 0.5464125 0.9328662
0.6260286 0.5336792 0.9201330
0.9640970 0.5212603 0.9077140
1.0000000 0.5174604 0.9039141
0.0000000 0.8604915 0.9046023
0.2385958 0.8479481 0.8920590
0.5852213 0.8352149 0.8793257
0.9232898 0.8227959 0.8669068
1.0000000 0.8189960 0.8631068
0.0000000 1.0000000 0.8798403
0.2138337 1.0000000 0.8672969
0.5604593 1.0000000 0.8545637
0.8985277 1.0000000 0.8421447
1.0000000 1.0000000 0.8383448
