luts/lume_20260408_160814.cube
TITLE "Lume Grade"
LUT_3D_SIZE 33
0.0008712 0.0198694 0.0414406
0.0008712 0.0198694 0.0414406
0.0008712 0.0198694 0.0414406
0.0358742 0.0202567 0.0418280
0.0794806 0.0207393 0.0423105
0.1218393 0.0212080 0.0427792
0.1634528 0.0216685 0.0432397
0.2045344 0.0221231 0.0436943
0.2452027 0.0225731 0.0441443
0.2855337 0.0230194 0.0445906
0.3255801 0.0234625 0.0450337
0.3653802 0.0239029 0.0454742
0.4049639 0.0243409 0.0459122
0.4443543 0.0247768 0.0463481
0.4835703 0.0252108 0.0467820
0.5226274 0.0256430 0.0472142
0.5615387 0.0260735 0.0476448
0.6003155 0.0265026 0.0480739
0.6389671 0.0269303 0.0485016
0.6775018 0.0273567 0.0489280
0.7159271 0.0277819 0.0493532
0.7542493 0.0282060 0.0497773
0.7924744 0.0286290 0.0502003
0.8306073 0.0290510 0.0506222
0.8686527 0.0294720 0.0510432
0.9066150 0.0298920 0.0514633
0.9444978 0.0303112 0.0518825
0.9614993 0.0304994 0.0520706
0.9614993 0.0304994 0.0520706
0.9614993 0.0304994 0.0520706
0.9614993 0.0304994 0.0520706
0.9614993 0.0304994 0.0520706
0.9614993 0.0304994 0.0520706
0.0008712 0.0198694 0.0414406
0.0008712 0.0198694 0.0414406
0.0008712 0.0198694 0.0414406
0.0358742 0.0202567 0.0418280
0.0794806 0.0207393 0.0423105
0.1218393 0.0212080 0.0427792
0.1634528 0.0216685 0.0432397
0.2045344 0.0221231 0.0436943
0.2452027 0.0225731 0.0441443
0.2855337 0.0230194 0.0445906
0.3255801 0.0234625 0.0450337
0.3653802 0.0239029 0.0454742
0.4049639 0.0243409 0.0459122
0.4443543 0.0247768 0.0463481
0.4835703 0.0252108 0.0467820
0.5226274 0.0256430 0.0472142
0.5615387 0.0260735 0.0476448
0.6003155 0.0265026 0.0480739
0.6389671 0.0269303 0.0485016
0.6775018 0.0273567 0.0489280
0.7159271 0.0277819 0.0493532
0.7542493 0.0282060 0.0497773
0.7924744 0.0286290 0.0502003
0.8306073 0.0290510 0.0506222
0.8686527 0.0294720 0.0510432
0.9066150 0.0298920 0.0514633
0.9444978 0.0303112 0.0518825
0.9614993 0.0304994 0.0520706
0.9614993 0.0304994 0.0520706
0.9614993 0.0304994 0.0520706
0.9614993 0.0304994 0.0520706
0.9614993 0.0304994 0.0520706
0.9614993 0.0304994 0.0520706
0.0008712 0.0198694 0.0414406
0.0008712 0.0198694 0.0414406
0.0008712 0.0198694 0.0414406
0.0358742 0.0202567 0.0418280
0.0794806 0.0207393 0.0423105
0.1218393 0.0212080 0.0427792
0.1634528 0.0216685 0.0432397
0.2045344 0.0221231 0.0436943
0.2452027 0.0225731 0.0441443
0.2855337 0.0230194 0.0445906
0.3255801 0.0234625 0.0450337
0.3653802 0.0239029 0.0454742
0.4049639 0.0243409 0.0459122
0.4443543 0.0247768 0.0463481
0.4835703 0.0252108 0.0467820
0.5226274 0.0256430 0.0472142
0.5615387 0.0260735 0.0476448
0.6003155 0.0265026 0.0480739
0.6389671 0.0269303 0.0485016
0.6775018 0.0273567 0.0489280
0.7159271 0.0277819 0.0493532
0.7542493 0.0282060 0.0497773
0.7924744 0.0286290 0.0502003
0.8306073 0.0290510 0.0506222
0.8686527 0.0294720 0.0510432
0.9066150 0.0298920 0.0514633
0.9444978 0.0303112 0.0518825
0.9614993 0.0304994 0.0520706
0.9614993 0.0304994 0.0520706
0.9614993 0.0304994 0.0520706
0.9614993 0.0304994 0.0520706
0.9614993 0.0304994 0.0520706
0.9614993 0.0304994 0.0520706
0.0021033 0.0538319 0.0426727
0.0021033 0.0538319 0.0426727
0.0021033 0.0538319 0.0426727
0.0371063 0.0542192 0.0430600
0.0807126 0.0547018 0.0435425
0.1230713 0.0551705 0.0440113
0.1646849 0.0556310 0.0444718
0.2057664 0.0560856 0.0449263
0.2464347 0.0565356 0.0453764
0.2867658 0.0569819 0.0458227
0.3268121 0.0574250 0.0462658
0.3666123 0.0578654 0.0467062
0.4061959 0.0583035 0.0471442
0.4455863 0.0587393 0.0475801
0.4848023 0.0591733 0.0480141
0.5238595 0.0596055 0.0484463
0.5627707 0.0600361 0.0488768
0.6015475 0.0604652 0.0493059
0.6401991 0.0608929 0.0497336
0.6787338 0.0613193 0.0501601
0.7171592 0.0617445 0.0505853
0.7554814 0.0621685 0.0510093
0.7937064 0.0625915 0.0514323
0.8318394 0.0630135 0.0518543
0.8698847 0.0634345 0.0522753
0.9078470 0.0638546 0.0526953
0.9457299 0.0642738 0.0531145
0.9627314 0.0644619 0.0533027
0.9627314 0.0644619 0.0533027
0.9627314 0.0644619 0.0533027
0.9627314 0.0644619 0.0533027
0.9627314 0.0644619 0.0533027
0.9627314 0.0644619 0.0533027
0.0034527 0.0910290 0.0440221
0.0034527 0.0910290 0.0440221
0.0034527 0.0910290 0.0440221
0.0384556 0.0914163 0.0444094
0.0820620 0.0918988 0.0448919
0.1244207 0.0923676 0.0453607
0.1660343 0.0928280 0.0458211
0.2071158 0.0932826 0.0462757
0.2477841 0.0937327 0.0467257
0.2881151 0.0941789 0.0471720
0.3281615 0.0946221 0.0476152
0.3679617 0.0950625 0.0480556
0.4075453 0.0955005 0.0484936
0.4469357 0.0959364 0.0489295
0.4861517 0.0963703 0.0493634
0.5252088 0.0968025 0.0497956
0.5641202 0.0972331 0.0502262
0.6028969 0.0976622 0.0506553
0.6415485 0.0980899 0.0510830
0.6800833 0.0985163 0.0515094
0.7185085 0.0989415 0.0519346
0.7568308 0.0993656 0.0523587
0.7950557 0.0997886 0.0527817
0.8331888 0.1002105 0.0532036
0.8712341 0.1006315 0.0536246
0.9091964 0.1010516 0.0540447
0.9470792 0.1014708 0.0544639
0.9640808 0.1016589 0.0546521
0.9640808 0.1016589 0.0546521
0.9640808 0.1016589 0.0546521
0.9640808 0.1016589 0.0546521
0.9640808 0.1016589 0.0546521
0.9640808 0.1016589 0.0546521
0.0048020 0.1282260 0.0453714
0.0048020 0.1282260 0.0453714
0.0048020 0.1282260 0.0453714
0.0398050 0.1286133 0.0457588
0.0834114 0.1290959 0.0462413
0.1257701 0.1295646 0.0467100
0.1673836 0.1300251 0.0471705
0.2084652 0.1304796 0.0476251
0.2491335 0.1309297 0.0480751
0.2894645 0.1313760 0.0485214
0.3295109 0.1318191 0.0489646
0.3693111 0.1322595 0.0494050
0.4088947 0.1326975 0.0498430
0.4482851 0.1331334 0.0502789
0.4875011 0.1335674 0.0507128
0.5265582 0.1339996 0.0511450
0.5654695 0.1344301 0.0515756
0.6042463 0.1348592 0.0520047
0.6428978 0.1352869 0.0524324
0.6814326 0.1357133 0.0528588
0.7198579 0.1361386 0.0532840
0.7581801 0.1365626 0.0537081
0.7964052 0.1369856 0.0541311
0.8345381 0.1374076 0.0545530
0.8725835 0.1378286 0.0549740
0.9105458 0.1382486 0.0553941
0.9484286 0.1386678 0.0558133
0.9654301 0.1388560 0.0560014
0.9654301 0.1388560 0.0560014
0.9654301 0.1388560 0.0560014
0.9654301 0.1388560 0.0560014
0.9654301 0.1388560 0.0560014
0.9654301 0.1388560 0.0560014
0.0061514 0.1654230 0.0467208
0.0061514 0.1654230 0.0467208
0.0061514 0.1654230 0.0467208
0.0411544 0.1658103 0.0471082
0.0847608 0.1662929 0.0475907
0.1271195 0.1667616 0.0480594
0.1687330 0.1672221 0.0485199
0.2098145 0.1676767 0.0489745
0.2504829 0.1681267 0.0494245
0.2908139 0.1685730 0.0498708
0.3308603 0.1690161 0.0503139
0.3706605 0.1694565 0.0507544
0.4102440 0.1698946 0.0511924
0.4496345 0.1703304 0.0516283
0.4888504 0.1707644 0.0520622
0.5279076 0.1711966 0.0524944
0.5668189 0.1716272 0.0529250
0.6055956 0.1720563 0.0533541
0.6442472 0.1724840 0.0537818
0.6827820 0.1729104 0.0542082
0.7212073 0.1733356 0.0546334
0.7595296 0.1737596 0.0550575
0.7977545 0.1741826 0.0554804
0.8358876 0.1746046 0.0559024
0.8739329 0.1750256 0.0563234
0.9118952 0.1754457 0.0567435
0.9497779 0.1758649 0.0571627
0.9667795 0.1760530 0.0573508
0.9667795 0.1760530 0.0573508
0.9667795 0.1760530 0.0573508
0.9667795 0.1760530 0.0573508
0.9667795 0.1760530 0.0573508
0.9667795 0.1760530 0.0573508
0.0075008 0.2026201 0.0480702
0.0075008 0.2026201 0.0480702
0.0075008 0.2026201 0.0480702
0.0425038 0.2030074 0.0484575
0.0861102 0.2034899 0.0489401
0.1284689 0.2039586 0.0494088
0.1700824 0.2044191 0.0498693
0.2111639 0.2048737 0.0503239
0.2518323 0.2053238 0.0507739
0.2921633 0.2057700 0.0512202
0.3322096 0.2062132 0.0516633
0.3720098 0.2066536 0.0521037
0.4115934 0.2070916 0.0525418
0.4509838 0.2075275 0.0529776
0.4901998 0.2079614 0.0534116
0.5292570 0.2083936 0.0538438
0.5681683 0.2088242 0.0542744
0.6069450 0.2092533 0.0547035
0.6455966 0.2096810 0.0551312
0.6841314 0.2101074 0.0555576
0.7225567 0.2105326 0.0559828
0.7608789 0.2109567 0.0564068
0.7991039 0.2113797 0.0568298
0.8372369 0.2118016 0.0572518
0.8752823 0.2122226 0.0576728
0.9132445 0.2126427 0.0580929
0.9511273 0.2130619 0.0585121
0.9681289 0.2132500 0.0587002
0.9681289 0.2132500 0.0587002
0.9681289 0.2132500 0.0587002
0.9681289 0.2132500 0.0587002
0.9681289 0.2132500 0.0587002
0.9681289 0.2132500 0.0587002
0.0088502 0.2398171 0.0494196
0.0088502 0.2398171 0.0494196
0.0088502 0.2398171 0.0494196
0.0438532 0.2402044 0.0498069
0.0874595 0.2406870 0.0502894
0.1298182 0.2411557 0.0507582
0.1714318 0.2416162 0.0512186
0.2125133 0.2420707 0.0516733
0.2531816 0.2425208 0.0521233
0.2935127 0.2429671 0.0525696
0.3335590 0.2434102 0.0530127
0.3733592 0.2438506 0.0534531
0.4129428 0.2442886 0.0538911
0.4523332 0.2447245 0.0543270
0.4915492 0.2451585 0.0547610
0.5306064 0.2455907 0.0551932
0.5695177 0.2460212 0.0556237
0.6082944 0.2464503 0.0560528
0.6469460 0.2468780 0.0564806
0.6854808 0.2473044 0.0569070
0.7239060 0.2477296 0.0573322
0.7622283 0.2481537 0.0577562
0.8004533 0.2485767 0.0581792
0.8385863 0.2489987 0.0586012
0.8766316 0.2494197 0.0590222
0.9145939 0.2498397 0.0594423
0.9524767 0.2502589 0.0598615
0.9694782 0.2504471 0.0600496
0.9694782 0.2504471 0.0600496
0.9694782 0.2504471 0.0600496
0.9694782 0.2504471 0.0600496
0.9694782 0.2504471 0.0600496
0.9694782 0.2504471 0.0600496
0.0101996 0.2770141 0.0507690
0.0101996 0.2770141 0.0507690
0.0101996 0.2770141 0.0507690
0.0452025 0.2774014 0.0511563
0.0888089 0.2778840 0.0516388
0.1311676 0.2783527 0.0521076
0.1727812 0.2788132 0.0525680
0.2138627 0.2792678 0.0530226
0.2545310 0.2797178 0.0534727
0.2948621 0.2801641 0.0539190
0.3349084 0.2806073 0.0543621
0.3747086 0.2810477 0.0548025
0.4142922 0.2814857 0.0552405
0.4536826 0.2819216 0.0556764
0.4928986 0.2823555 0.0561104
0.5319558 0.2827877 0.0565425
0.5708671 0.2832183 0.0569731
0.6096438 0.2836474 0.0574022
0.6482954 0.2840751 0.0578299
0.6868302 0.2845015 0.0582563
0.7252554 0.2849267 0.0586815
0.7635777 0.2853507 0.0591056
0.8018027 0.2857738 0.0595286
0.8399357 0.2861957 0.0599506
0.8779811 0.2866167 0.0603715
0.9159433 0.2870368 0.0607916
0.9538261 0.2874560 0.0612108
0.9708277 0.2876441 0.0613990
0.9708277 0.2876441 0.0613990
0.9708277 0.2876441 0.0613990
0.9708277 0.2876441 0.0613990
0.9708277 0.2876441 0.0613990
0.9708277 0.2876441 0.0613990
0.0115490 0.3142112 0.0521183
0.0115490 0.3142112 0.0521183
0.0115490 0.3142112 0.0521183
0.0465519 0.3145985 0.0525057
0.0901583 0.3150811 0.0529882
0.1325170 0.3155498 0.0534569
0.1741305 0.3160103 0.0539174
0.2152121 0.3164648 0.0543720
0.2558804 0.3169149 0.0548220
0.2962114 0.3173612 0.0552683
0.3362578 0.3178043 0.0557115
0.3760580 0.3182447 0.0561519
0.4156416 0.3186827 0.0565899
0.4550320 0.3191186 0.0570258
0.4942480 0.3195526 0.0574597
0.5333052 0.3199848 0.0578919
0.5722164 0.3204153 0.0583225
0.6109931 0.3208444 0.0587516
0.6496447 0.3212721 0.0591793
0.6881795 0.3216985 0.0596057
0.7266048 0.3221238 0.0600309
0.7649270 0.3225478 0.0604550
0.8031521 0.3229708 0.0608780
0.8412850 0.3233927 0.0612999
0.8793304 0.3238138 0.0617209
0.9172927 0.3242338 0.0621410
0.9551755 0.3246530 0.0625602
0.9721771 0.3248412 0.0627483
0.9721771 0.3248412 0.0627483
0.9721771 0.3248412 0.0627483
0.9721771 0.3248412 0.0627483
0.9721771 0.3248412 0.0627483
0.9721771 0.3248412 0.0627483
0.0128983 0.3514082 0.0534677
0.0128983 0.3514082 0.0534677
0.0128983 0.3514082 0.0534677
0.0479013 0.3517956 0.0538551
0.0915077 0.3522781 0.0543376
0.1338664 0.3527468 0.0548063
0.1754799 0.3532073 0.0552668
0.2165614 0.3536619 0.0557214
0.2572298 0.3541119 0.0561714
0.2975608 0.3545582 0.0566177
0.3376071 0.3550013 0.0570609
0.3774074 0.3554417 0.0575013
0.4169910 0.3558798 0.0579393
0.4563814 0.3563156 0.0583752
0.4955974 0.3567496 0.0588091
0.5346545 0.3571818 0.0592413
0.5735658 0.3576124 0.0596719
0.6123425 0.3580415 0.0601010
0.6509942 0.3584692 0.0605287
0.6895289 0.3588956 0.0609551
0.7279541 0.3593208 0.0613803
0.7662765 0.3597448 0.0618044
0.8045014 0.3601678 0.0622273
0.8426344 0.3605898 0.0626493
0.8806798 0.3610108 0.0630703
0.9186420 0.3614309 0.0634904
0.9565248 0.3618501 0.0639096
0.9735265 0.3620382 0.0640977
0.9735265 0.3620382 0.0640977
0.9735265 0.3620382 0.0640977
0.9735265 0.3620382 0.0640977
0.9735265 0.3620382 0.0640977
0.9735265 0.3620382 0.0640977
0.0142477 0.3886052 0.0548171
0.0142477 0.3886052 0.0548171
0.0142477 0.3886052 0.0548171
0.0492507 0.3889925 0.0552045
0.0928571 0.3894751 0.0556870
0.1352158 0.3899438 0.0561557
0.1768293 0.3904043 0.0566162
0.2179108 0.3908589 0.0570708
0.2585792 0.3913089 0.0575208
0.2989102 0.3917552 0.0579671
0.3389565 0.3921984 0.0584102
0.3787568 0.3926388 0.0588506
0.4183404 0.3930768 0.0592887
0.4577307 0.3935127 0.0597245
0.4969467 0.3939466 0.0601585
0.5360039 0.3943788 0.0605907
0.5749152 0.3948094 0.0610213
0.6136919 0.3952385 0.0614504
0.6523435 0.3956662 0.0618781
0.6908783 0.3960926 0.0623045
0.7293036 0.3965178 0.0627297
0.7676258 0.3969418 0.0631537
0.8058509 0.3973649 0.0635767
0.8439838 0.3977868 0.0639987
0.8820292 0.3982078 0.0644197
0.9199915 0.3986279 0.0648398
0.9578742 0.3990471 0.0652590
0.9748759 0.3992352 0.0654471
0.9748759 0.3992352 0.0654471
0.9748759 0.3992352 0.0654471
0.9748759 0.3992352 0.0654471
0.9748759 0.3992352 0.0654471
0.9748759 0.3992352 0.0654471
0.0155971 0.4258023 0.0561665
0.0155971 0.4258023 0.0561665
0.0155971 0.4258023 0.0561665
0.0506001 0.4261896 0.0565538
0.0942064 0.4266722 0.0570364
0.1365651 0.4271409 0.0575051
0.1781787 0.4276013 0.0579656
0.2192602 0.4280559 0.0584202
0.2599286 0.4285060 0.0588702
0.3002596 0.4289522 0.0593165
0.3403059 0.4293954 0.0597596
0.3801061 0.4298358 0.0602000
0.4196897 0.4302738 0.0606380
0.4590801 0.4307097 0.0610739
0.4982961 0.4311437 0.0615079
0.5373533 0.4315759 0.0619401
0.5762646 0.4320064 0.0623707
0.6150413 0.4324355 0.0627998
0.6536929 0.4328632 0.0632274
0.6922277 0.4332896 0.0636539
0.7306529 0.4337148 0.0640791
0.7689753 0.4341389 0.0645031
0.8072002 0.4345619 0.0649261
0.8453332 0.4349838 0.0653481
0.8833786 0.4354048 0.0657691
0.9213408 0.4358249 0.0661891
0.9592236 0.4362441 0.0666083
0.9762253 0.4364323 0.0667965
0.9762253 0.4364323 0.0667965
0.9762253 0.4364323 0.0667965
0.9762253 0.4364323 0.0667965
0.9762253 0.4364323 0.0667965
0.9762253 0.4364323 0.0667965
0.0169465 0.4629993 0.0575159
0.0169465 0.4629993 0.0575159
0.0169465 0.4629993 0.0575159
0.0519494 0.4633866 0.0579032
0.0955558 0.4638692 0.0583858
0.1379145 0.4643379 0.0588545
0.1795281 0.4647984 0.0593150
0.2206096 0.4652530 0.0597695
0.2612779 0.4657030 0.0602196
0.3016090 0.4661493 0.0606658
0.3416553 0.4665924 0.0611090
0.3814555 0.4670328 0.0615494
0.4210391 0.4674709 0.0619874
0.4604295 0.4679067 0.0624233
0.4996455 0.4683407 0.0628573
0.5387027 0.4687729 0.0632895
0.5776139 0.4692035 0.0637200
0.6163907 0.4696325 0.0641491
0.6550423 0.4700603 0.0645768
0.6935771 0.4704867 0.0650032
0.7320023 0.4709119 0.0654284
0.7703246 0.4713359 0.0658525
0.8085496 0.4717589 0.0662755
0.8466825 0.4721809 0.0666974
0.8847280 0.4726019 0.0671185
0.9226902 0.4730220 0.0675385
0.9605730 0.4734412 0.0679577
0.9775746 0.4736293 0.0681458
0.9775746 0.4736293 0.0681458
0.9775746 0.4736293 0.0681458
0.9775746 0.4736293 0.0681458
0.9775746 0.4736293 0.0681458
0.9775746 0.4736293 0.0681458
0.0182959 0.5001963 0.0588652
0.0182959 0.5001963 0.0588652
0.0182959 0.5001963 0.0588652
0.0532988 0.5005836 0.0592526
0.0969052 0.5010662 0.0597351
0.1392639 0.5015349 0.0602039
0.1808774 0.5019954 0.0606643
0.2219590 0.5024500 0.0611189
0.2626273 0.5029001 0.0615689
0.3029583 0.5033463 0.0620152
0.3430047 0.5037895 0.0624584
0.3828049 0.5042299 0.0628988
0.4223885 0.5046679 0.0633368
0.4617789 0.5051038 0.0637727
0.5009949 0.5055377 0.0642067
0.5400521 0.5059699 0.0646389
0.5789633 0.5064005 0.0650694
0.6177400 0.5068296 0.0654985
0.6563917 0.5072573 0.0659262
0.6949264 0.5076837 0.0663526
0.7333517 0.5081089 0.0667778
0.7716740 0.5085330 0.0672019
0.8098990 0.5089560 0.0676249
0.8480319 0.5093780 0.0680468
0.8860773 0.5097989 0.0684678
0.9240396 0.5102190 0.0688879
0.9619224 0.5106382 0.0693071
0.9789240 0.5108263 0.0694952
0.9789240 0.5108263 0.0694952
0.9789240 0.5108263 0.0694952
0.9789240 0.5108263 0.0694952
0.9789240 0.5108263 0.0694952
0.9789240 0.5108263 0.0694952
0.0196452 0.5373933 0.0602146
0.0196452 0.5373933 0.0602146
0.0196452 0.5373933 0.0602146
0.0546482 0.5377806 0.0606020
0.0982546 0.5382632 0.0610845
0.1406133 0.5387319 0.0615532
0.1822268 0.5391924 0.0620137
0.2233084 0.5396470 0.0624683
0.2639767 0.5400971 0.0629183
0.3043077 0.5405433 0.0633646
0.3443541 0.5409865 0.0638078
0.3841543 0.5414269 0.0642482
0.4237379 0.5418649 0.0646862
0.4631283 0.5423008 0.0651221
0.5023443 0.5427347 0.0655560
0.5414014 0.5431669 0.0659882
0.5803127 0.5435975 0.0664188
0.6190894 0.5440266 0.0668479
0.6577411 0.5444543 0.0672756
0.6962758 0.5448807 0.0677020
0.7347011 0.5453059 0.0681272
0.7730234 0.5457300 0.0685512
0.8112484 0.5461529 0.0689742
0.8493813 0.5465750 0.0693962
0.8874267 0.5469959 0.0698172
0.9253890 0.5474160 0.0702373
0.9632717 0.5478352 0.0706565
0.9802734 0.5480233 0.0708446
0.9802734 0.5480233 0.0708446
0.9802734 0.5480233 0.0708446
0.9802734 0.5480233 0.0708446
0.9802734 0.5480233 0.0708446
0.9802734 0.5480233 0.0708446
0.0209946 0.5745904 0.0615640
0.0209946 0.5745904 0.0615640
0.0209946 0.5745904 0.0615640
0.0559976 0.5749778 0.0619514
0.0996040 0.5754603 0.0624339
0.1419627 0.5759290 0.0629026
0.1835762 0.5763895 0.0633631
0.2246577 0.5768441 0.0638177
0.2653261 0.5772941 0.0642677
0.3056571 0.5777404 0.0647140
0.3457034 0.5781835 0.0651571
0.3855036 0.5786240 0.0655976
0.4250873 0.5790619 0.0660356
0.4644777 0.5794978 0.0664715
0.5036936 0.5799318 0.0669054
0.5427508 0.5803640 0.0673376
0.5816621 0.5807946 0.0677682
0.6204388 0.5812237 0.0681973
0.6590905 0.5816513 0.0686249
0.6976252 0.5820777 0.0690514
0.7360505 0.5825030 0.0694765
0.7743728 0.5829270 0.0699006
0.8125978 0.5833500 0.0703236
0.8507307 0.5837719 0.0707456
0.8887761 0.5841930 0.0711666
0.9267384 0.5846130 0.0715867
0.9646211 0.5850322 0.0720059
0.9816228 0.5852204 0.0721940
0.9816228 0.5852204 0.0721940
0.9816228 0.5852204 0.0721940
0.9816228 0.5852204 0.0721940
0.9816228 0.5852204 0.0721940
0.9816228 0.5852204 0.0721940
0.0223440 0.6117874 0.0629134
0.0223440 0.6117874 0.0629134
0.0223440 0.6117874 0.0629134
0.0573470 0.6121747 0.0633007
0.1009533 0.6126572 0.0637833
0.1433120 0.6131260 0.0642520
0.1849256 0.6135864 0.0647125
0.2260071 0.6140411 0.0651671
0.2666755 0.6144911 0.0656171
0.3070065 0.6149374 0.0660634
0.3470528 0.6153805 0.0665065
0.3868530 0.6158209 0.0669469
0.4264366 0.6162589 0.0673850
0.4658270 0.6166948 0.0678208
0.5050430 0.6171288 0.0682548
0.5441002 0.6175610 0.0686870
0.5830114 0.6179916 0.0691175
0.6217882 0.6184207 0.0695466
0.6604398 0.6188483 0.0699743
0.6989745 0.6192747 0.0704007
0.7373998 0.6197000 0.0708259
0.7757221 0.6201240 0.0712500
0.8139471 0.6205470 0.0716730
0.8520801 0.6209689 0.0720950
0.8901255 0.6213900 0.0725160
0.9280877 0.6218100 0.0729360
0.9659705 0.6222292 0.0733552
0.9829721 0.6224174 0.0735434
0.9829721 0.6224174 0.0735434
0.9829721 0.6224174 0.0735434
0.9829721 0.6224174 0.0735434
0.9829721 0.6224174 0.0735434
0.9829721 0.6224174 0.0735434
0.0236934 0.6489845 0.0642628
0.0236934 0.6489845 0.0642628
0.0236934 0.6489845 0.0642628
0.0586964 0.6493719 0.0646501
0.1023027 0.6498544 0.0651326
0.1446614 0.6503231 0.0656014
0.1862750 0.6507835 0.0660619
0.2273565 0.6512382 0.0665165
0.2680248 0.6516882 0.0669665
0.3083559 0.6521345 0.0674128
0.3484022 0.6525776 0.0678559
0.3882024 0.6530181 0.0682963
0.4277860 0.6534560 0.0687343
0.4671764 0.6538919 0.0691702
0.5063924 0.6543259 0.0696042
0.5454496 0.6547581 0.0700364
0.5843608 0.6551887 0.0704669
0.6231376 0.6556178 0.0708960
0.6617892 0.6560454 0.0713237
0.7003239 0.6564718 0.0717501
0.7387493 0.6568971 0.0721753
0.7770715 0.6573211 0.0725994
0.8152965 0.6577441 0.0730224
0.8534294 0.6581661 0.0734444
0.8914748 0.6585871 0.0738654
0.9294372 0.6590071 0.0742854
0.9673198 0.6594263 0.0747046
0.9843215 0.6596145 0.0748928
0.9843215 0.6596145 0.0748928
0.9843215 0.6596145 0.0748928
0.9843215 0.6596145 0.0748928
0.9843215 0.6596145 0.0748928
0.9843215 0.6596145 0.0748928
0.0250427 0.6861815 0.0656122
0.0250427 0.6861815 0.0656122
0.0250427 0.6861815 0.0656122
0.0600457 0.6865689 0.0659995
0.1036521 0.6870514 0.0664820
0.1460108 0.6875201 0.0669508
0.1876244 0.6879805 0.0674112
0.2287059 0.6884352 0.0678658
0.2693742 0.6888852 0.0683158
0.3097053 0.6893315 0.0687621
0.3497516 0.6897746 0.0692053
0.3895518 0.6902151 0.0696457
0.4291354 0.6906530 0.0700837
0.4685258 0.6910889 0.0705196
0.5077418 0.6915229 0.0709535
0.5467989 0.6919551 0.0713857
0.5857102 0.6923857 0.0718163
0.6244870 0.6928148 0.0722454
0.6631386 0.6932424 0.0726731
0.7016733 0.6936688 0.0730995
0.7400986 0.6940941 0.0735247
0.7784209 0.6945181 0.0739487
0.8166459 0.6949411 0.0743718
0.8547789 0.6953630 0.0747937
0.8928242 0.6957841 0.0752147
0.9307865 0.6962041 0.0756348
0.9686693 0.6966233 0.0760540
0.9856709 0.6968115 0.0762421
0.9856709 0.6968115 0.0762421
0.9856709 0.6968115 0.0762421
0.9856709 0.6968115 0.0762421
0.9856709 0.6968115 0.0762421
0.9856709 0.6968115 0.0762421
0.0263921 0.7233785 0.0669616
0.0263921 0.7233785 0.0669616
0.0263921 0.7233785 0.0669616
0.0613951 0.7237659 0.0673489
0.1050015 0.7242484 0.0678314
0.1473602 0.7247171 0.0683001
0.1889738 0.7251776 0.0687606
0.2300552 0.7256322 0.0692152
0.2707236 0.7260822 0.0696652
0.3110546 0.7265285 0.0701115
0.3511010 0.7269716 0.0705546
0.3909012 0.7274121 0.0709950
0.4304848 0.7278501 0.0714331
0.4698752 0.7282860 0.0718690
0.5090911 0.7287199 0.0723029
0.5481483 0.7291521 0.0727351
0.5870596 0.7295827 0.0731657
0.6258364 0.7300118 0.0735947
0.6644880 0.7304395 0.0740225
0.7030227 0.7308659 0.0744489
0.7414480 0.7312911 0.0748741
0.7797703 0.7317151 0.0752981
0.8179953 0.7321382 0.0757211
0.8561282 0.7325601 0.0761431
0.8941736 0.7329811 0.0765641
0.9321359 0.7334012 0.0769842
0.9700186 0.7338204 0.0774034
0.9870203 0.7340086 0.0775915
0.9870203 0.7340086 0.0775915
0.9870203 0.7340086 0.0775915
0.9870203 0.7340086 0.0775915
0.9870203 0.7340086 0.0775915
0.9870203 0.7340086 0.0775915
0.0277415 0.7605755 0.0683109
0.0277415 0.7605755 0.0683109
0.0277415 0.7605755 0.0683109
0.0627445 0.7609628 0.0686982
0.1063509 0.7614454 0.0691808
0.1487096 0.7619141 0.0696495
0.1903231 0.7623746 0.0701100
0.2314046 0.7628292 0.0705646
0.2720730 0.7632792 0.0710146
0.3124040 0.7637255 0.0714609
0.3524503 0.7641686 0.0719040
0.3922506 0.7646091 0.0723444
0.4318342 0.7650471 0.0727825
0.4712245 0.7654830 0.0732183
0.5104405 0.7659169 0.0736523
0.5494977 0.7663491 0.0740845
0.5884090 0.7667797 0.0745150
0.6271857 0.7672088 0.0749441
0.6658373 0.7676365 0.0753719
0.7043721 0.7680629 0.0757983
0.7427974 0.7684881 0.0762235
0.7811196 0.7689121 0.0766475
0.8193446 0.7693352 0.0770705
0.8574776 0.7697571 0.0774925
0.8955230 0.7701781 0.0779135
0.9334853 0.7705982 0.0783336
0.9713680 0.7710174 0.0787528
0.9883696 0.7712055 0.0789409
0.9883696 0.7712055 0.0789409
0.9883696 0.7712055 0.0789409
0.9883696 0.7712055 0.0789409
0.9883696 0.7712055 0.0789409
0.9883696 0.7712055 0.0789409
0.0290909 0.7977726 0.0696603
0.0290909 0.7977726 0.0696603
0.0290909 0.7977726 0.0696603
0.0640939 0.7981600 0.0700476
0.1077003 0.7986425 0.0705302
0.1500590 0.7991112 0.0709988
0.1916725 0.7995716 0.0714594
0.2327540 0.8000262 0.0719140
0.2734224 0.8004763 0.0723640
0.3137534 0.8009226 0.0728103
0.3537997 0.8013657 0.0732534
0.3936000 0.8018061 0.0736938
0.4331836 0.8022441 0.0741318
0.4725739 0.8026800 0.0745677
0.5117899 0.8031140 0.0750017
0.5508471 0.8035462 0.0754339
0.5897584 0.8039768 0.0758644
0.6285351 0.8044058 0.0762935
0.6671867 0.8048335 0.0767213
0.7057215 0.8052599 0.0771477
0.7441468 0.8056852 0.0775728
0.7824690 0.8061092 0.0779969
0.8206940 0.8065322 0.0784199
0.8588270 0.8069541 0.0788419
0.8968723 0.8073752 0.0792629
0.9348347 0.8077952 0.0796829
0.9727174 0.8082144 0.0801021
0.9897190 0.8084026 0.0802903
0.9897190 0.8084026 0.0802903
0.9897190 0.8084026 0.0802903
0.9897190 0.8084026 0.0802903
0.9897190 0.8084026 0.0802903
0.9897190 0.8084026 0.0802903
0.0304403 0.8349696 0.0710097
0.0304403 0.8349696 0.0710097
0.0304403 0.8349696 0.0710097
0.0654433 0.8353570 0.0713970
0.1090497 0.8358395 0.0718795
0.1514083 0.8363082 0.0723482
