luts/lume_20260404_213943.cube
TITLE "Lume Grade"
LUT_3D_SIZE 33
0.1473874 0.0586015 0.0000000
0.1870008 0.0574717 0.0000000
0.2258131 0.0563647 0.0000000
0.2639843 0.0552760 0.0000000
0.3016222 0.0542025 0.0000000
0.3388046 0.0531420 0.0000000
0.3755901 0.0520929 0.0000000
0.4120241 0.0510537 0.0000000
0.4481431 0.0500236 0.0000000
0.4839772 0.0490015 0.0000000
0.5195511 0.0479869 0.0000000
0.5548859 0.0469791 0.0000000
0.5899993 0.0459776 0.0000000
0.6249072 0.0449820 0.0000000
0.6596231 0.0439919 0.0000000
0.6941588 0.0430069 0.0000000
0.7285252 0.0420267 0.0000000
0.7627314 0.0410511 0.0000000
0.7967861 0.0400798 0.0000000
0.8306972 0.0391126 0.0000000
0.8644713 0.0381493 0.0000000
0.8981149 0.0371898 0.0000000
0.9316339 0.0362338 0.0000000
0.9650335 0.0352812 0.0000000
0.9983186 0.0343318 0.0000000
1.0000000 0.0333856 0.0000000
1.0000000 0.0324424 0.0000000
1.0000000 0.0315021 0.0000000
1.0000000 0.0311000 0.0000000
1.0000000 0.0311000 0.0000000
1.0000000 0.0311000 0.0000000
1.0000000 0.0311000 0.0000000
1.0000000 0.0311000 0.0000000
0.1439549 0.0919638 0.0000000
0.1835683 0.0908340 0.0000000
0.2223806 0.0897270 0.0000000
0.2605518 0.0886383 0.0000000
0.2981897 0.0875648 0.0000000
0.3353721 0.0865043 0.0000000
0.3721576 0.0854552 0.0000000
0.4085916 0.0844160 0.0000000
0.4447106 0.0833859 0.0000000
0.4805447 0.0823638 0.0000000
0.5161187 0.0813492 0.0000000
0.5514534 0.0803414 0.0000000
0.5865668 0.0793399 0.0000000
0.6214747 0.0783443 0.0000000
0.6561906 0.0773542 0.0000000
0.6907263 0.0763692 0.0000000
0.7250926 0.0753890 0.0000000
0.7592990 0.0744134 0.0000000
0.7933537 0.0734421 0.0000000
0.8272647 0.0724749 0.0000000
0.8610388 0.0715116 0.0000000
0.8946825 0.0705521 0.0000000
0.9282014 0.0695961 0.0000000
0.9616009 0.0686435 0.0000000
0.9948860 0.0676941 0.0000000
1.0000000 0.0667479 0.0000000
1.0000000 0.0658047 0.0000000
1.0000000 0.0648645 0.0000000
1.0000000 0.0644623 0.0000000
1.0000000 0.0644623 0.0000000
1.0000000 0.0644623 0.0000000
1.0000000 0.0644623 0.0000000
1.0000000 0.0644623 0.0000000
0.1405822 0.1247460 0.0000000
0.1801955 0.1236161 0.0000000
0.2190078 0.1225092 0.0000000
0.2571790 0.1214205 0.0000000
0.2948169 0.1203470 0.0000000
0.3319993 0.1192865 0.0000000
0.3687848 0.1182373 0.0000000
0.4052188 0.1171982 0.0000000
0.4413379 0.1161680 0.0000000
0.4771720 0.1151460 0.0000000
0.5127459 0.1141314 0.0000000
0.5480806 0.1131236 0.0000000
0.5831941 0.1121221 0.0000000
0.6181020 0.1111265 0.0000000
0.6528178 0.1101363 0.0000000
0.6873536 0.1091513 0.0000000
0.7217199 0.1081711 0.0000000
0.7559262 0.1071955 0.0000000
0.7899809 0.1062242 0.0000000
0.8238919 0.1052570 0.0000000
0.8576660 0.1042938 0.0000000
0.8913097 0.1033342 0.0000000
0.9248286 0.1023782 0.0000000
0.9582282 0.1014256 0.0000000
0.9915134 0.1004763 0.0000000
1.0000000 0.0995301 0.0000000
1.0000000 0.0985869 0.0000000
1.0000000 0.0976466 0.0000000
1.0000000 0.0972445 0.0000000
1.0000000 0.0972445 0.0000000
1.0000000 0.0972445 0.0000000
1.0000000 0.0972445 0.0000000
1.0000000 0.0972445 0.0000000
0.1372522 0.1571124 0.0000000
0.1768655 0.1559826 0.0000000
0.2156778 0.1548756 0.0000000
0.2538490 0.1537869 0.0000000
0.2914869 0.1527134 0.0000000
0.3286693 0.1516529 0.0000000
0.3654548 0.1506038 0.0000000
0.4018888 0.1495646 0.0000000
0.4380078 0.1485345 0.0000000
0.4738420 0.1475124 0.0000000
0.5094159 0.1464978 0.0000000
0.5447506 0.1454900 0.0000000
0.5798641 0.1444885 0.0000000
0.6147720 0.1434929 0.0000000
0.6494879 0.1425028 0.0000000
0.6840236 0.1415178 0.0000000
0.7183899 0.1405376 0.0000000
0.7525962 0.1395620 0.0000000
0.7866509 0.1385907 0.0000000
0.8205619 0.1376235 0.0000000
0.8543360 0.1366602 0.0000000
0.8879796 0.1357007 0.0000000
0.9214987 0.1347447 0.0000000
0.9548982 0.1337921 0.0000000
0.9881833 0.1328427 0.0000000
1.0000000 0.1318965 0.0000000
1.0000000 0.1309533 0.0000000
1.0000000 0.1300131 0.0000000
1.0000000 0.1296110 0.0000000
1.0000000 0.1296110 0.0000000
1.0000000 0.1296110 0.0000000
1.0000000 0.1296110 0.0000000
1.0000000 0.1296110 0.0000000
0.1339554 0.1891555 0.0000000
0.1735688 0.1880257 0.0000000
0.2123811 0.1869187 0.0000000
0.2505523 0.1858300 0.0000000
0.2881902 0.1847565 0.0000000
0.3253726 0.1836960 0.0000000
0.3621580 0.1826469 0.0000000
0.3985921 0.1816077 0.0000000
0.4347111 0.1805776 0.0000000
0.4705452 0.1795555 0.0000000
0.5061191 0.1785409 0.0000000
0.5414538 0.1775331 0.0000000
0.5765673 0.1765316 0.0000000
0.6114752 0.1755360 0.0000000
0.6461911 0.1745459 0.0000000
0.6807268 0.1735609 0.0000000
0.7150931 0.1725807 0.0000000
0.7492994 0.1716051 0.0000000
0.7833542 0.1706338 0.0000000
0.8172652 0.1696666 0.0000000
0.8510393 0.1687033 0.0000000
0.8846829 0.1677438 0.0000000
0.9182018 0.1667877 0.0000000
0.9516014 0.1658352 0.0000000
0.9848865 0.1648858 0.0000000
1.0000000 0.1639396 0.0000000
1.0000000 0.1629964 0.0000000
1.0000000 0.1620561 0.0000000
1.0000000 0.1616540 0.0000000
1.0000000 0.1616540 0.0000000
1.0000000 0.1616540 0.0000000
1.0000000 0.1616540 0.0000000
1.0000000 0.1616540 0.0000000
0.1306859 0.2209342 0.0000000
0.1702992 0.2198044 0.0000000
0.2091116 0.2186974 0.0000000
0.2472827 0.2176087 0.0000000
0.2849206 0.2165352 0.0000000
0.3221030 0.2154747 0.0000000
0.3588885 0.2144255 0.0000000
0.3953225 0.2133864 0.0000000
0.4314415 0.2123562 0.0000000
0.4672756 0.2113342 0.0000000
0.5028496 0.2103196 0.0000000
0.5381843 0.2093118 0.0000000
0.5732977 0.2083103 0.0000000
0.6082057 0.2073147 0.0000000
0.6429215 0.2063245 0.0000000
0.6774573 0.2053396 0.0000000
0.7118236 0.2043594 0.0000000
0.7460299 0.2033838 0.0000000
0.7800846 0.2024125 0.0000000
0.8139956 0.2014453 0.0000000
0.8477697 0.2004820 0.0000000
0.8814133 0.1995225 0.0000000
0.9149323 0.1985664 0.0000000
0.9483318 0.1976138 0.0000000
0.9816170 0.1966645 0.0000000
1.0000000 0.1957183 0.0000000
1.0000000 0.1947751 0.0000000
1.0000000 0.1938348 0.0000000
1.0000000 0.1934327 0.0000000
1.0000000 0.1934327 0.0000000
1.0000000 0.1934327 0.0000000
1.0000000 0.1934327 0.0000000
1.0000000 0.1934327 0.0000000
0.1274393 0.2524896 0.0000000
0.1670527 0.2513597 0.0000000
0.2058650 0.2502528 0.0000000
0.2440362 0.2491641 0.0000000
0.2816741 0.2480906 0.0000000
0.3188565 0.2470301 0.0000000
0.3556419 0.2459809 0.0000000
0.3920759 0.2449418 0.0000000
0.4281950 0.2439116 0.0000000
0.4640291 0.2428896 0.0000000
0.4996030 0.2418749 0.0000000
0.5349377 0.2408672 0.0000000
0.5700512 0.2398657 0.0000000
0.6049591 0.2388701 0.0000000
0.6396750 0.2378799 0.0000000
0.6742107 0.2368949 0.0000000
0.7085770 0.2359147 0.0000000
0.7427833 0.2349391 0.0000000
0.7768381 0.2339678 0.0000000
0.8107491 0.2330006 0.0000000
0.8445232 0.2320374 0.0000000
0.8781668 0.2310778 0.0000000
0.9116857 0.2301218 0.0000000
0.9450853 0.2291692 0.0000000
0.9783704 0.2282199 0.0000000
1.0000000 0.2272737 0.0000000
1.0000000 0.2263305 0.0000000
1.0000000 0.2253902 0.0000000
1.0000000 0.2249881 0.0000000
1.0000000 0.2249881 0.0000000
1.0000000 0.2249881 0.0000000
1.0000000 0.2249881 0.0000000
1.0000000 0.2249881 0.0000000
0.1242126 0.2838518 0.0000000
0.1638260 0.2827220 0.0000000
0.2026383 0.2816150 0.0000000
0.2408095 0.2805263 0.0000000
0.2784474 0.2794528 0.0000000
0.3156298 0.2783923 0.0000000
0.3524152 0.2773432 0.0000000
0.3888492 0.2763040 0.0000000
0.4249683 0.2752739 0.0000000
0.4608024 0.2742518 0.0000000
0.4963763 0.2732372 0.0000000
0.5317110 0.2722294 0.0000000
0.5668245 0.2712279 0.0000000
0.6017324 0.2702323 0.0000000
0.6364483 0.2692422 0.0000000
0.6709840 0.2682571 0.0000000
0.7053503 0.2672770 0.0000000
0.7395567 0.2663014 0.0000000
0.7736113 0.2653301 0.0000000
0.8075224 0.2643629 0.0000000
0.8412964 0.2633996 0.0000000
0.8749402 0.2624401 0.0000000
0.9084591 0.2614841 0.0000000
0.9418586 0.2605315 0.0000000
0.9751437 0.2595821 0.0000000
1.0000000 0.2586359 0.0000000
1.0000000 0.2576928 0.0000000
1.0000000 0.2567524 0.0000000
1.0000000 0.2563503 0.0000000
1.0000000 0.2563503 0.0000000
1.0000000 0.2563503 0.0000000
1.0000000 0.2563503 0.0000000
1.0000000 0.2563503 0.0000000
0.1210034 0.3150440 0.0000000
0.1606168 0.3139141 0.0000000
0.1994291 0.3128072 0.0000000
0.2376003 0.3117185 0.0000000
0.2752382 0.3106450 0.0000000
0.3124206 0.3095845 0.0000000
0.3492060 0.3085353 0.0000000
0.3856400 0.3074962 0.0000000
0.4217591 0.3064660 0.0000000
0.4575932 0.3054440 0.0000000
0.4931671 0.3044294 0.0000000
0.5285018 0.3034216 0.0000000
0.5636153 0.3024201 0.0000000
0.5985231 0.3014245 0.0000000
0.6332390 0.3004343 0.0000000
0.6677748 0.2994493 0.0000000
0.7021412 0.2984692 0.0000000
0.7363474 0.2974935 0.0000000
0.7704021 0.2965223 0.0000000
0.8043132 0.2955551 0.0000000
0.8380873 0.2945918 0.0000000
0.8717309 0.2936322 0.0000000
0.9052498 0.2926762 0.0000000
0.9386494 0.2917236 0.0000000
0.9719346 0.2907743 0.0000000
1.0000000 0.2898281 0.0000000
1.0000000 0.2888849 0.0000000
1.0000000 0.2879446 0.0000000
1.0000000 0.2875425 0.0000000
1.0000000 0.2875425 0.0000000
1.0000000 0.2875425 0.0000000
1.0000000 0.2875425 0.0000000
1.0000000 0.2875425 0.0000000
0.1178098 0.3460844 0.0000000
0.1574232 0.3449546 0.0000000
0.1962355 0.3438476 0.0000000
0.2344067 0.3427589 0.0000000
0.2720446 0.3416854 0.0000000
0.3092270 0.3406249 0.0000000
0.3460124 0.3395757 0.0000000
0.3824465 0.3385366 0.0000000
0.4185655 0.3375064 0.0000000
0.4543996 0.3364844 0.0000000
0.4899735 0.3354698 0.0000000
0.5253083 0.3344620 0.0000000
0.5604217 0.3334605 0.0000000
0.5953296 0.3324649 0.0000000
0.6300455 0.3314747 0.0000000
0.6645812 0.3304897 0.0000000
0.6989475 0.3295096 0.0000000
0.7331538 0.3285339 0.0000000
0.7672086 0.3275627 0.0000000
0.8011196 0.3265955 0.0000000
0.8348937 0.3256322 0.0000000
0.8685373 0.3246726 0.0000000
0.9020563 0.3237166 0.0000000
0.9354558 0.3227640 0.0000000
0.9687409 0.3218147 0.0000000
1.0000000 0.3208685 0.0000000
1.0000000 0.3199253 0.0000000
1.0000000 0.3189850 0.0000000
1.0000000 0.3185829 0.0000000
1.0000000 0.3185829 0.0000000
1.0000000 0.3185829 0.0000000
1.0000000 0.3185829 0.0000000
1.0000000 0.3185829 0.0000000
0.1146303 0.3769877 0.0000000
0.1542437 0.3758579 0.0000000
0.1930560 0.3747509 0.0000000
0.2312272 0.3736622 0.0000000
0.2688651 0.3725887 0.0000000
0.3060475 0.3715282 0.0000000
0.3428330 0.3704790 0.0000000
0.3792670 0.3694399 0.0000000
0.4153860 0.3684097 0.0000000
0.4512201 0.3673877 0.0000000
0.4867941 0.3663731 0.0000000
0.5221288 0.3653653 0.0000000
0.5572422 0.3643638 0.0000000
0.5921501 0.3633682 0.0000000
0.6268660 0.3623780 0.0000000
0.6614017 0.3613930 0.0000000
0.6957681 0.3604129 0.0000000
0.7299744 0.3594373 0.0000000
0.7640291 0.3584660 0.0000000
0.7979401 0.3574988 0.0000000
0.8317142 0.3565355 0.0000000
0.8653579 0.3555759 0.0000000
0.8988768 0.3546199 0.0000000
0.9322764 0.3536673 0.0000000
0.9655615 0.3527180 0.0000000
0.9987366 0.3517718 0.0000000
1.0000000 0.3508286 0.0000000
1.0000000 0.3498883 0.0000000
1.0000000 0.3494862 0.0000000
1.0000000 0.3494862 0.0000000
1.0000000 0.3494862 0.0000000
1.0000000 0.3494862 0.0000000
1.0000000 0.3494862 0.0000000
0.1114637 0.4077662 0.0000000
0.1510770 0.4066363 0.0000000
0.1898894 0.4055294 0.0000000
0.2280606 0.4044406 0.0000000
0.2656985 0.4033672 0.0000000
0.3028809 0.4023067 0.0000000
0.3396663 0.4012575 0.0000000
0.3761003 0.4002184 0.0000000
0.4122194 0.3991882 0.0000000
0.4480535 0.3981661 0.0000000
0.4836274 0.3971515 0.0000000
0.5189621 0.3961437 0.0000000
0.5540756 0.3951423 0.0000000
0.5889835 0.3941467 0.0000000
0.6236994 0.3931565 0.0000000
0.6582351 0.3921715 0.0000000
0.6926014 0.3911913 0.0000000
0.7268077 0.3902157 0.0000000
0.7608625 0.3892444 0.0000000
0.7947735 0.3882772 0.0000000
0.8285476 0.3873140 0.0000000
0.8621912 0.3863544 0.0000000
0.8957101 0.3853984 0.0000000
0.9291097 0.3844458 0.0000000
0.9623948 0.3834965 0.0000000
0.9955699 0.3825502 0.0000000
1.0000000 0.3816071 0.0000000
1.0000000 0.3806668 0.0000000
1.0000000 0.3802647 0.0000000
1.0000000 0.3802647 0.0000000
1.0000000 0.3802647 0.0000000
1.0000000 0.3802647 0.0000000
1.0000000 0.3802647 0.0000000
0.1083089 0.4384300 0.0000000
0.1479222 0.4373001 0.0000000
0.1867345 0.4361932 0.0000000
0.2249057 0.4351045 0.0000000
0.2625436 0.4340310 0.0000000
0.2997260 0.4329705 0.0000000
0.3365115 0.4319213 0.0000000
0.3729455 0.4308822 0.0000000
0.4090645 0.4298520 0.0000000
0.4448986 0.4288300 0.0000000
0.4804726 0.4278154 0.0000000
0.5158073 0.4268076 0.0000000
0.5509208 0.4258061 0.0000000
0.5858287 0.4248105 0.0000000
0.6205446 0.4238203 0.0000000
0.6550803 0.4228353 0.0000000
0.6894466 0.4218552 0.0000000
0.7236529 0.4208795 0.0000000
0.7577076 0.4199083 0.0000000
0.7916186 0.4189411 0.0000000
0.8253927 0.4179778 0.0000000
0.8590363 0.4170182 0.0000000
0.8925554 0.4160622 0.0000000
0.9259549 0.4151096 0.0000000
0.9592400 0.4141603 0.0000000
0.9924151 0.4132141 0.0000000
1.0000000 0.4122709 0.0000000
1.0000000 0.4113306 0.0000000
1.0000000 0.4109285 0.0000000
1.0000000 0.4109285 0.0000000
1.0000000 0.4109285 0.0000000
1.0000000 0.4109285 0.0000000
1.0000000 0.4109285 0.0000000
0.1051649 0.4689880 0.0000000
0.1447783 0.4678582 0.0000000
0.1835906 0.4667512 0.0000000
0.2217618 0.4656625 0.0000000
0.2593997 0.4645890 0.0000000
0.2965821 0.4635285 0.0000000
0.3333675 0.4624793 0.0000000
0.3698016 0.4614402 0.0000000
0.4059206 0.4604100 0.0000000
0.4417547 0.4593880 0.0000000
0.4773286 0.4583734 0.0000000
0.5126634 0.4573656 0.0000000
0.5477768 0.4563641 0.0000000
0.5826847 0.4553685 0.0000000
0.6174006 0.4543783 0.0000000
0.6519363 0.4533933 0.0000000
0.6863027 0.4524131 0.0000000
0.7205089 0.4514375 0.0000000
0.7545637 0.4504662 0.0000000
0.7884747 0.4494991 0.0000000
0.8222488 0.4485358 0.0000000
0.8558924 0.4475762 0.0000000
0.8894113 0.4466202 0.0000000
0.9228109 0.4456676 0.0000000
0.9560961 0.4447183 0.0000000
0.9892712 0.4437721 0.0000000
1.0000000 0.4428289 0.0000000
1.0000000 0.4418886 0.0000000
1.0000000 0.4414865 0.0000000
1.0000000 0.4414865 0.0000000
1.0000000 0.4414865 0.0000000
1.0000000 0.4414865 0.0000000
1.0000000 0.4414865 0.0000000
0.1020311 0.4994475 0.0000000
0.1416444 0.4983177 0.0000000
0.1804568 0.4972107 0.0000000
0.2186280 0.4961220 0.0000000
0.2562659 0.4950486 0.0000000
0.2934483 0.4939881 0.0000000
0.3302337 0.4929389 0.0000000
0.3666677 0.4918998 0.0000000
0.4027868 0.4908696 0.0000000
0.4386209 0.4898475 0.0000000
0.4741948 0.4888329 0.0000000
0.5095295 0.4878251 0.0000000
0.5446430 0.4868236 0.0000000
0.5795509 0.4858280 0.0000000
0.6142668 0.4848379 0.0000000
0.6488025 0.4838529 0.0000000
0.6831688 0.4828727 0.0000000
0.7173752 0.4818971 0.0000000
0.7514298 0.4809258 0.0000000
0.7853408 0.4799586 0.0000000
0.8191149 0.4789954 0.0000000
0.8527586 0.4780358 0.0000000
0.8862776 0.4770798 0.0000000
0.9196771 0.4761272 0.0000000
0.9529622 0.4751779 0.0000000
0.9861373 0.4742317 0.0000000
1.0000000 0.4732885 0.0000000
1.0000000 0.4723482 0.0000000
1.0000000 0.4719461 0.0000000
1.0000000 0.4719461 0.0000000
1.0000000 0.4719461 0.0000000
1.0000000 0.4719461 0.0000000
1.0000000 0.4719461 0.0000000
0.0989067 0.5298153 0.0000000
0.1385201 0.5286855 0.0000000
0.1773324 0.5275785 0.0000000
0.2155036 0.5264898 0.0000000
0.2531415 0.5254163 0.0000000
0.2903239 0.5243558 0.0000000
0.3271093 0.5233066 0.0000000
0.3635433 0.5222675 0.0000000
0.3996624 0.5212373 0.0000000
0.4354965 0.5202153 0.0000000
0.4710704 0.5192007 0.0000000
0.5064051 0.5181929 0.0000000
0.5415186 0.5171914 0.0000000
0.5764265 0.5161958 0.0000000
0.6111424 0.5152056 0.0000000
0.6456781 0.5142206 0.0000000
0.6800444 0.5132405 0.0000000
0.7142507 0.5122648 0.0000000
0.7483054 0.5112935 0.0000000
0.7822164 0.5103264 0.0000000
0.8159906 0.5093631 0.0000000
0.8496342 0.5084035 0.0000000
0.8831532 0.5074475 0.0000000
0.9165528 0.5064949 0.0000000
0.9498378 0.5055456 0.0000000
0.9830129 0.5045994 0.0000000
1.0000000 0.5036562 0.0000000
1.0000000 0.5027159 0.0000000
1.0000000 0.5023138 0.0000000
1.0000000 0.5023138 0.0000000
1.0000000 0.5023138 0.0000000
1.0000000 0.5023138 0.0000000
1.0000000 0.5023138 0.0000000
0.0957912 0.5600969 0.0000000
0.1354046 0.5589671 0.0000000
0.1742169 0.5578601 0.0000000
0.2123881 0.5567714 0.0000000
0.2500260 0.5556979 0.0000000
0.2872084 0.5546374 0.0000000
0.3239938 0.5535883 0.0000000
0.3604278 0.5525491 0.0000000
0.3965469 0.5515189 0.0000000
0.4323810 0.5504969 0.0000000
0.4679549 0.5494823 0.0000000
0.5032896 0.5484745 0.0000000
0.5384031 0.5474730 0.0000000
0.5733110 0.5464774 0.0000000
0.6080269 0.5454872 0.0000000
0.6425626 0.5445023 0.0000000
0.6769289 0.5435221 0.0000000
0.7111353 0.5425465 0.0000000
0.7451899 0.5415752 0.0000000
0.7791010 0.5406080 0.0000000
0.8128750 0.5396447 0.0000000
0.8465187 0.5386851 0.0000000
0.8800377 0.5377291 0.0000000
0.9134372 0.5367765 0.0000000
0.9467223 0.5358272 0.0000000
0.9798974 0.5348810 0.0000000
1.0000000 0.5339378 0.0000000
1.0000000 0.5329975 0.0000000
1.0000000 0.5325955 0.0000000
1.0000000 0.5325955 0.0000000
1.0000000 0.5325955 0.0000000
1.0000000 0.5325955 0.0000000
1.0000000 0.5325955 0.0000000
0.0926840 0.5902975 0.0000000
0.1322974 0.5891677 0.0000000
0.1711097 0.5880607 0.0000000
0.2092809 0.5869720 0.0000000
0.2469188 0.5858985 0.0000000
0.2841012 0.5848380 0.0000000
0.3208866 0.5837888 0.0000000
0.3573207 0.5827497 0.0000000
0.3934397 0.5817195 0.0000000
0.4292738 0.5806975 0.0000000
0.4648477 0.5796829 0.0000000
0.5001824 0.5786751 0.0000000
0.5352959 0.5776736 0.0000000
0.5702038 0.5766780 0.0000000
0.6049197 0.5756878 0.0000000
0.6394554 0.5747028 0.0000000
0.6738217 0.5737227 0.0000000
0.7080281 0.5727471 0.0000000
0.7420828 0.5717757 0.0000000
0.7759938 0.5708086 0.0000000
0.8097679 0.5698453 0.0000000
0.8434116 0.5688857 0.0000000
0.8769305 0.5679297 0.0000000
0.9103301 0.5669771 0.0000000
0.9436151 0.5660278 0.0000000
0.9767902 0.5650816 0.0000000
1.0000000 0.5641384 0.0000000
1.0000000 0.5631981 0.0000000
1.0000000 0.5627960 0.0000000
1.0000000 0.5627960 0.0000000
1.0000000 0.5627960 0.0000000
1.0000000 0.5627960 0.0000000
1.0000000 0.5627960 0.0000000
0.0895847 0.6204215 0.0000000
0.1291981 0.6192917 0.0000000
0.1680104 0.6181847 0.0000000
0.2061816 0.6170960 0.0000000
0.2438195 0.6160225 0.0000000
0.2810019 0.6149620 0.0000000
0.3177873 0.6139128 0.0000000
0.3542213 0.6128737 0.0000000
0.3903404 0.6118435 0.0000000
0.4261745 0.6108215 0.0000000
0.4617484 0.6098069 0.0000000
0.4970831 0.6087991 0.0000000
0.5321966 0.6077976 0.0000000
0.5671045 0.6068020 0.0000000
0.6018203 0.6058118 0.0000000
0.6363561 0.6048268 0.0000000
0.6707224 0.6038467 0.0000000
0.7049288 0.6028711 0.0000000
0.7389835 0.6018997 0.0000000
0.7728945 0.6009326 0.0000000
0.8066686 0.5999693 0.0000000
0.8403122 0.5990098 0.0000000
0.8738312 0.5980538 0.0000000
0.9072307 0.5971012 0.0000000
0.9405159 0.5961518 0.0000000
0.9736910 0.5952056 0.0000000
1.0000000 0.5942624 0.0000000
1.0000000 0.5933221 0.0000000
1.0000000 0.5929200 0.0000000
1.0000000 0.5929200 0.0000000
1.0000000 0.5929200 0.0000000
1.0000000 0.5929200 0.0000000
1.0000000 0.5929200 0.0000000
0.0864929 0.6504731 0.0000000
0.1261062 0.6493433 0.0000000
0.1649185 0.6482363 0.0000000
0.2030897 0.6471476 0.0000000
0.2407276 0.6460741 0.0000000
0.2779101 0.6450136 0.0000000
0.3146955 0.6439644 0.0000000
0.3511295 0.6429253 0.0000000
0.3872485 0.6418951 0.0000000
0.4230826 0.6408731 0.0000000
0.4586566 0.6398585 0.0000000
0.4939913 0.6388507 0.0000000
0.5291048 0.6378492 0.0000000
0.5640126 0.6368536 0.0000000
0.5987285 0.6358634 0.0000000
0.6332642 0.6348785 0.0000000
0.6676306 0.6338983 0.0000000
0.7018369 0.6329226 0.0000000
0.7358916 0.6319514 0.0000000
0.7698026 0.6309842 0.0000000
0.8035767 0.6300209 0.0000000
0.8372204 0.6290613 0.0000000
0.8707393 0.6281053 0.0000000
0.9041389 0.6271527 0.0000000
0.9374239 0.6262034 0.0000000
0.9705991 0.6252572 0.0000000
1.0000000 0.6243140 0.0000000
1.0000000 0.6233737 0.0000000
1.0000000 0.6229716 0.0000000
1.0000000 0.6229716 0.0000000
1.0000000 0.6229716 0.0000000
1.0000000 0.6229716 0.0000000
1.0000000 0.6229716 0.0000000
0.0834081 0.6804558 0.0000000
0.1230215 0.6793260 0.0000000
0.1618338 0.6782190 0.0000000
0.2000050 0.6771303 0.0000000
0.2376429 0.6760569 0.0000000
0.2748253 0.6749964 0.0000000
0.3116107 0.6739472 0.0000000
0.3480447 0.6729081 0.0000000
0.3841638 0.6718779 0.0000000
0.4199979 0.6708558 0.0000000
0.4555718 0.6698412 0.0000000
0.4909065 0.6688334 0.0000000
0.5260200 0.6678320 0.0000000
0.5609279 0.6668363 0.0000000
0.5956438 0.6658462 0.0000000
0.6301795 0.6648612 0.0000000
0.6645458 0.6638810 0.0000000
0.6987522 0.6629054 0.0000000
0.7328069 0.6619341 0.0000000
0.7667179 0.6609669 0.0000000
0.8004920 0.6600037 0.0000000
0.8341356 0.6590441 0.0000000
0.8676546 0.6580881 0.0000000
0.9010541 0.6571355 0.0000000
0.9343392 0.6561862 0.0000000
0.9675143 0.6552399 0.0000000
1.0000000 0.6542968 0.0000000
1.0000000 0.6533565 0.0000000
1.0000000 0.6529543 0.0000000
1.0000000 0.6529543 0.0000000
1.0000000 0.6529543 0.0000000
1.0000000 0.6529543 0.0000000
1.0000000 0.6529543 0.0000000
0.0803301 0.7103730 0.0000000
0.1199434 0.7092432 0.0000000
0.1587558 0.7081363 0.0000000
0.1969269 0.7070476 0.0000000
0.2345648 0.7059741 0.0000000
0.2717472 0.7049136 0.0000000
0.3085327 0.7038645 0.0000000
0.3449667 0.7028253 0.0000000
0.3810858 0.7017951 0.0000000
0.4169199 0.7007731 0.0000000
0.4524938 0.6997585 0.0000000
0.4878285 0.6987507 0.0000000
0.5229419 0.6977492 0.0000000
0.5578498 0.6967536 0.0000000
0.5925657 0.6957634 0.0000000
0.6271015 0.6947784 0.0000000
0.6614678 0.6937982 0.0000000
0.6956741 0.6928226 0.0000000
0.7297288 0.6918513 0.0000000
0.7636398 0.6908842 0.0000000
0.7974139 0.6899209 0.0000000
0.8310575 0.6889613 0.0000000
0.8645765 0.6880053 0.0000000
0.8979761 0.6870527 0.0000000
0.9312612 0.6861033 0.0000000
0.9644363 0.6851572 0.0000000
0.9975058 0.6842140 0.0000000
1.0000000 0.6832737 0.0000000
1.0000000 0.6828716 0.0000000
1.0000000 0.6828716 0.0000000
1.0000000 0.6828716 0.0000000
1.0000000 0.6828716 0.0000000
1.0000000 0.6828716 0.0000000
0.0772585 0.7402278 0.0000000
0.1168718 0.7390980 0.0000000
0.1556842 0.7379910 0.0000000
0.1938553 0.7369022 0.0000000
0.2314933 0.7358288 0.0000000
0.2686757 0.7347683 0.0000000
0.3054611 0.7337191 0.0000000
0.3418951 0.7326800 0.0000000
0.3780141 0.7316498 0.0000000
0.4138483 0.7306278 0.0000000
0.4494222 0.7296132 0.0000000
0.4847569 0.7286054 0.0000000
0.5198704 0.7276039 0.0000000
0.5547783 0.7266083 0.0000000
0.5894941 0.7256181 0.0000000
0.6240299 0.7246331 0.0000000
0.6583962 0.7236530 0.0000000
0.6926025 0.7226774 0.0000000
0.7266572 0.7217060 0.0000000
0.7605682 0.7207389 0.0000000
0.7943423 0.7197756 0.0000000
0.8279860 0.7188160 0.0000000
0.8615049 0.7178600 0.0000000
0.8949045 0.7169074 0.0000000
0.9281896 0.7159581 0.0000000
0.9613647 0.7150119 0.0000000
0.9944342 0.7140687 0.0000000
1.0000000 0.7131284 0.0000000
1.0000000 0.7127263 0.0000000
1.0000000 0.7127263 0.0000000
1.0000000 0.7127263 0.0000000
1.0000000 0.7127263 0.0000000
1.0000000 0.7127263 0.0000000
0.0741930 0.7700227 0.0000000
0.1138064 0.7688929 0.0000000
0.1526187 0.7677859 0.0000000
0.1907899 0.7666972 0.0000000
0.2284278 0.7656237 0.0000000
0.2656102 0.7645633 0.0000000
0.3023956 0.7635141 0.0000000
0.3388297 0.7624750 0.0000000
0.3749487 0.7614448 0.0000000
0.4107828 0.7604228 0.0000000
0.4463567 0.7594081 0.0000000
0.4816914 0.7584003 0.0000000
0.5168049 0.7573988 0.0000000
0.5517128 0.7564033 0.0000000
0.5864287 0.7554131 0.0000000
0.6209644 0.7544281 0.0000000
0.6553307 0.7534479 0.0000000
0.6895370 0.7524723 0.0000000
0.7235917 0.7515010 0.0000000
0.7575028 0.7505338 0.0000000
0.7912769 0.7495705 0.0000000
0.8249205 0.7486110 0.0000000
0.8584394 0.7476550 0.0000000
0.8918390 0.7467024 0.0000000
0.9251242 0.7457530 0.0000000
0.9582993 0.7448068 0.0000000
0.9913688 0.7438636 0.0000000
1.0000000 0.7429234 0.0000000
1.0000000 0.7425213 0.0000000
1.0000000 0.7425213 0.0000000
1.0000000 0.7425213 0.0000000
1.0000000 0.7425213 0.0000000
1.0000000 0.7425213 0.0000000
0.0711334 0.7997606 0.0000000
0.1107468 0.7986307 0.0000000
0.1495592 0.7975237 0.0000000
0.1877303 0.7964351 0.0000000
0.2253682 0.7953616 0.0000000
0.2625506 0.7943011 0.0000000
