luts/lume_20260408_160814.cube
TITLE "Lume Grade"
LUT_3D_SIZE 9
0.0008712 0.0198694 0.0414406
0.0794806 0.0207393 0.0423105
0.2452027 0.0225731 0.0441443
0.4049639 0.0243409 0.0459122
0.5615387 0.0260735 0.0476448
0.7159271 0.0277819 0.0493532
0.8686527 0.0294720 0.0510432
0.9614993 0.0304994 0.0520706
0.9614993 0.0304994 0.0520706
0.0034527 0.0910290 0.0440221
0.0820620 0.0918988 0.0448919
0.2477841 0.0937327 0.0467257
0.4075453 0.0955005 0.0484936
0.5641202 0.0972331 0.0502262
0.7185085 0.0989415 0.0519346
0.8712341 0.1006315 0.0536246
0.9640808 0.1016589 0.0546521
0.9640808 0.1016589 0.0546521
0.0088502 0.2398171 0.0494196
0.0874595 0.2406870 0.0502894
0.2531816 0.2425208 0.0521233
0.4129428 0.2442886 0.0538911
0.5695177 0.2460212 0.0556237
0.7239060 0.2477296 0.0573322
0.8766316 0.2494197 0.0590222
0.9694782 0.2504471 0.0600496
0.9694782 0.2504471 0.0600496
0.0142477 0.3886052 0.0548171
0.0928571 0.3894751 0.0556870
0.2585792 0.3913089 0.0575208
0.4183404 0.3930768 0.0592887
0.5749152 0.3948094 0.0610213
0.7293036 0.3965178 0.0627297
0.8820292 0.3982078 0.0644197
0.9748759 0.3992352 0.0654471
0.9748759 0.3992352 0.0654471
0.0196452 0.5373933 0.0602146
0.0982546 0.5382632 0.0610845
0.2639767 0.5400971 0.0629183
0.4237379 0.5418649 0.0646862
0.5803127 0.5435975 0.0664188
0.7347011 0.5453059 0.0681272
0.8874267 0.5469959 0.0698172
0.9802734 0.5480233 0.0708446
0.9802734 0.5480233 0.0708446
0.0250427 0.6861815 0.0656122
0.1036521 0.6870514 0.0664820
0.2693742 0.6888852 0.0683158
0.4291354 0.6906530 0.0700837
0.5857102 0.6923857 0.0718163
0.7400986 0.6940941 0.0735247
0.8928242 0.6957841 0.0752147
0.9856709 0.6968115 0.0762421
0.9856709 0.6968115 0.0762421
0.0304403 0.8349696 0.0710097
0.1090497 0.8358395 0.0718795
0.2747717 0.8376733 0.0737134
0.4345329 0.8394412 0.0754812
0.5911078 0.8411738 0.0772138
0.7454962 0.8428822 0.0789222
0.8982217 0.8445722 0.0806122
0.9910684 0.8455997 0.0816396
0.9910684 0.8455997 0.0816396
0.0358378 0.9837577 0.0764072
0.1144472 0.9846276 0.0772771
0.2801693 0.9864614 0.0791109
0.4399305 0.9882293 0.0808787
0.5965053 0.9899619 0.0826113
0.7508937 0.9916703 0.0843198
0.9036193 0.9933603 0.0860097
0.9964659 0.9943877 0.0870371
0.9964659 0.9943877 0.0870371
0.0359160 0.9859142 0.0764854
0.1145254 0.9867840 0.0773553
0.2802475 0.9886179 0.0791891
0.4400087 0.9903858 0.0809570
0.5965835 0.9921184 0.0826896
0.7509719 0.9938267 0.0843980
0.9036975 0.9955168 0.0860880
0.9965442 0.9965442 0.0871154
0.9965442 0.9965442 0.0871154
0.0010159 0.0200141 0.0796551
0.0796252 0.0208839 0.0805249
0.2453474 0.0227177 0.0823588
0.4051085 0.0244856 0.0841266
0.5616834 0.0262182 0.0858592
0.7160717 0.0279266 0.0875676
0.8687974 0.0296166 0.0892576
0.9616441 0.0306440 0.0902850
0.9616441 0.0306440 0.0902850
0.0035973 0.0911736 0.0822365
0.0822067 0.0920435 0.0831064
0.2479288 0.0938773 0.0849402
0.4076900 0.0956452 0.0867080
0.5642648 0.0973778 0.0884406
0.7186531 0.0990862 0.0901491
0.8713788 0.1007762 0.0918391
0.9642255 0.1018036 0.0928665
0.9642255 0.1018036 0.0928665
0.0089948 0.2399617 0.0876340
0.0876042 0.2408316 0.0885039
0.2533263 0.2426654 0.0903377
0.4130875 0.2444333 0.0921056
0.5696623 0.2461659 0.0938382
0.7240507 0.2478743 0.0955466
0.8767763 0.2495643 0.0972366
0.9696230 0.2505917 0.0982640
0.9696230 0.2505917 0.0982640
0.0143924 0.3887499 0.0930315
0.0930017 0.3896198 0.0939014
0.2587239 0.3914536 0.0957352
0.4184850 0.3932214 0.0975031
0.5750598 0.3949541 0.0992357
0.7294482 0.3966624 0.1009441
0.8821738 0.3983525 0.1026341
0.9750205 0.3993799 0.1036615
0.9750205 0.3993799 0.1036615
0.0197899 0.5375380 0.0984291
0.0983993 0.5384079 0.0992989
0.2641214 0.5402417 0.1011328
0.4238825 0.5420096 0.1029006
0.5804574 0.5437422 0.1046332
0.7348458 0.5454506 0.1063416
0.8875713 0.5471406 0.1080316
0.9804180 0.5481680 0.1090590
0.9804180 0.5481680 0.1090590
0.0251874 0.6863261 0.1038266
0.1037968 0.6871960 0.1046965
0.2695189 0.6890298 0.1065303
0.4292801 0.6907977 0.1082982
0.5858549 0.6925303 0.1100308
0.7402433 0.6942387 0.1117392
0.8929689 0.6959288 0.1134292
0.9858155 0.6969562 0.1144566
0.9858155 0.6969562 0.1144566
0.0305849 0.8351143 0.1092241
0.1091943 0.8359842 0.1100940
0.2749164 0.8378180 0.1119278
0.4346776 0.8395858 0.1136957
0.5912524 0.8413185 0.1154283
0.7456408 0.8430269 0.1171367
0.8983664 0.8447169 0.1188267
0.9912131 0.8457443 0.1198541
0.9912131 0.8457443 0.1198541
0.0359824 0.9839024 0.1146216
0.1145918 0.9847723 0.1154915
0.2803139 0.9866061 0.1173253
0.4400751 0.9883739 0.1190932
0.5966499 0.9901066 0.1208258
0.7510383 0.9918150 0.1225342
0.9037639 0.9935050 0.1242242
0.9966106 0.9945324 0.1252517
0.9966106 0.9945324 0.1252517
0.0360607 0.9860588 0.1146998
0.1146700 0.9869287 0.1155697
0.2803922 0.9887626 0.1174036
0.4401534 0.9905304 0.1191714
0.5967282 0.9922630 0.1209040
0.7511166 0.9939714 0.1226124
0.9038422 0.9956614 0.1243024
0.9966888 0.9966888 0.1253299
0.9966888 0.9966888 0.1253299
0.0014614 0.0204596 0.1973488
0.0800708 0.0213295 0.1982187
0.2457929 0.0231633 0.2000525
0.4055541 0.0249312 0.2018204
0.5621289 0.0266638 0.2035530
0.7165173 0.0283722 0.2052614
0.8692429 0.0300622 0.2069514
0.9620895 0.0310896 0.2079788
0.9620895 0.0310896 0.2079788
0.0040429 0.0916192 0.1999303
0.0826522 0.0924890 0.2008001
0.2483743 0.0943229 0.2026339
0.4081355 0.0960907 0.2044018
0.5647104 0.0978233 0.2061344
0.7190987 0.0995317 0.2078428
0.8718243 0.1012217 0.2095328
0.9646710 0.1022492 0.2105602
0.9646710 0.1022492 0.2105602
0.0094404 0.2404073 0.2053278
0.0880497 0.2412772 0.2061976
0.2537718 0.2431110 0.2080315
0.4135330 0.2448788 0.2097993
0.5701079 0.2466114 0.2115319
0.7244962 0.2483198 0.2132403
0.8772218 0.2500099 0.2149303
0.9700686 0.2510373 0.2159578
0.9700686 0.2510373 0.2159578
0.0148379 0.3891954 0.2107253
0.0934473 0.3900653 0.2115952
0.2591694 0.3918991 0.2134290
0.4189306 0.3936670 0.2151968
0.5755054 0.3953996 0.2169295
0.7298938 0.3971080 0.2186379
0.8826194 0.3987980 0.2203279
0.9754660 0.3998254 0.2213553
0.9754660 0.3998254 0.2213553
0.0202354 0.5379835 0.2161228
0.0988448 0.5388534 0.2169927
0.2645669 0.5406873 0.2188265
0.4243281 0.5424551 0.2205944
0.5809029 0.5441877 0.2223270
0.7352913 0.5458961 0.2240354
0.8880169 0.5475861 0.2257254
0.9808636 0.5486135 0.2267528
0.9808636 0.5486135 0.2267528
0.0256329 0.6867717 0.2215203
0.1042423 0.6876416 0.2223902
0.2699644 0.6894754 0.2242240
0.4297256 0.6912432 0.2259919
0.5863004 0.6929759 0.2277245
0.7406888 0.6946843 0.2294329
0.8934144 0.6963743 0.2311229
0.9862611 0.6974017 0.2321503
0.9862611 0.6974017 0.2321503
0.0310305 0.8355598 0.2269179
0.1096398 0.8364297 0.2277877
0.2753620 0.8382635 0.2296216
0.4351231 0.8400314 0.2313894
0.5916980 0.8417640 0.2331220
0.7460864 0.8434724 0.2348304
0.8988119 0.8451625 0.2365204
0.9916586 0.8461899 0.2375479
0.9916586 0.8461899 0.2375479
0.0364280 0.9843479 0.2323154
0.1150373 0.9852178 0.2331852
0.2807595 0.9870516 0.2350191
0.4405207 0.9888195 0.2367870
0.5970955 0.9905521 0.2385195
0.7514839 0.9922605 0.2402279
0.9042095 0.9939505 0.2419180
0.9970561 0.9949780 0.2429454
0.9970561 0.9949780 0.2429454
0.0365062 0.9865044 0.2323936
0.1151156 0.9873742 0.2332635
0.2808377 0.9892081 0.2350973
0.4405989 0.9909760 0.2368652
0.5971737 0.9927086 0.2385978
0.7515621 0.9944170 0.2403062
0.9042877 0.9961070 0.2419962
0.9971344 0.9971344 0.2430236
0.9971344 0.9971344 0.2430236
0.0019217 0.0209198 0.3189241
0.0805310 0.0217897 0.3197940
0.2462531 0.0236235 0.3216278
0.4060143 0.0253914 0.3233957
0.5625892 0.0271240 0.3251283
0.7169775 0.0288324 0.3268367
0.8697031 0.0305224 0.3285267
0.9625498 0.0315498 0.3295541
0.9625498 0.0315498 0.3295541
0.0045031 0.0920794 0.3215056
0.0831125 0.0929493 0.3223754
0.2488346 0.0947831 0.3242092
0.4085957 0.0965510 0.3259771
0.5651706 0.0982836 0.3277097
0.7195590 0.0999920 0.3294181
0.8722846 0.1016820 0.3311081
0.9651312 0.1027094 0.3321355
0.9651312 0.1027094 0.3321355
0.0099006 0.2408675 0.3269031
0.0885100 0.2417374 0.3277729
0.2542321 0.2435712 0.3296068
0.4139933 0.2453391 0.3313746
0.5705681 0.2470717 0.3331072
0.7249565 0.2487801 0.3348157
0.8776821 0.2504701 0.3365057
0.9705288 0.2514975 0.3375331
0.9705288 0.2514975 0.3375331
0.0152982 0.3896557 0.3323006
0.0939075 0.3905255 0.3331705
0.2596296 0.3923594 0.3350043
0.4193908 0.3941272 0.3367722
0.5759656 0.3958598 0.3385048
0.7303540 0.3975682 0.3402132
0.8830796 0.3992583 0.3419032
0.9759263 0.4002857 0.3429306
0.9759263 0.4002857 0.3429306
0.0206957 0.5384438 0.3376981
0.0993050 0.5393137 0.3385680
0.2650272 0.5411475 0.3404018
0.4247883 0.5429153 0.3421697
0.5813631 0.5446479 0.3439023
0.7357515 0.5463564 0.3456107
0.8884771 0.5480464 0.3473007
0.9813238 0.5490738 0.3483281
0.9813238 0.5490738 0.3483281
0.0260932 0.6872320 0.3430957
0.1047026 0.6881018 0.3439655
0.2704247 0.6899356 0.3457994
0.4301859 0.6917035 0.3475672
0.5867607 0.6934361 0.3492998
0.7411491 0.6951445 0.3510082
0.8938746 0.6968345 0.3526982
0.9867213 0.6978619 0.3537256
0.9867213 0.6978619 0.3537256
0.0314907 0.8360201 0.3484932
0.1101000 0.8368900 0.3493631
0.2758222 0.8387238 0.3511969
0.4355834 0.8404917 0.3529647
0.5921582 0.8422242 0.3546973
0.7465466 0.8439326 0.3564058
0.8992722 0.8456227 0.3580958
0.9921188 0.8466501 0.3591232
0.9921188 0.8466501 0.3591232
0.0368882 0.9848082 0.3538907
0.1154976 0.9856781 0.3547606
0.2812197 0.9875119 0.3565944
0.4409809 0.9892797 0.3583623
0.5975558 0.9910123 0.3600948
0.7519441 0.9927207 0.3618033
0.9046697 0.9944108 0.3634933
0.9975164 0.9954382 0.3645207
0.9975164 0.9954382 0.3645207
0.0369664 0.9869646 0.3539689
0.1155759 0.9878345 0.3548388
0.2812979 0.9896683 0.3566726
0.4410591 0.9914362 0.3584405
0.5976340 0.9931688 0.3601731
0.7520223 0.9948772 0.3618815
0.9047480 0.9965672 0.3635715
0.9975946 0.9975946 0.3645989
0.9975946 0.9975946 0.3645989
0.0023911 0.0213893 0.4429260
0.0810004 0.0222591 0.4437959
0.2467226 0.0240929 0.4456297
0.4064837 0.0258608 0.4473976
0.5630586 0.0275934 0.4491302
0.7174469 0.0293018 0.4508386
0.8701725 0.0309918 0.4525286
0.9630193 0.0320192 0.4535560
0.9630193 0.0320192 0.4535560
0.0049725 0.0925488 0.4455074
0.0835819 0.0934187 0.4463773
0.2493040 0.0952525 0.4482111
0.4090652 0.0970204 0.4499790
0.5656400 0.0987530 0.4517116
0.7200284 0.1004614 0.4534200
0.8727540 0.1021514 0.4551100
0.9656007 0.1031788 0.4561374
0.9656007 0.1031788 0.4561374
0.0103700 0.2413370 0.4509050
0.0889794 0.2422068 0.4517748
0.2547015 0.2440406 0.4536087
0.4144627 0.2458085 0.4553765
0.5710375 0.2475411 0.4571091
0.7254259 0.2492495 0.4588175
0.8781515 0.2509395 0.4605075
0.9709982 0.2519670 0.4615349
0.9709982 0.2519670 0.4615349
0.0157676 0.3901251 0.4563025
0.0943769 0.3909950 0.4571724
0.2600991 0.3928288 0.4590062
0.4198602 0.3945966 0.4607741
0.5764351 0.3963293 0.4625067
0.7308234 0.3980377 0.4642151
0.8835490 0.3997277 0.4659051
0.9763957 0.4007551 0.4669325
0.9763957 0.4007551 0.4669325
0.0211651 0.5389132 0.4617000
0.0997745 0.5397831 0.4625699
0.2654966 0.5416169 0.4644037
0.4252577 0.5433848 0.4661716
0.5818326 0.5451174 0.4679042
0.7362210 0.5468258 0.4696126
0.8889465 0.5485158 0.4713026
0.9817932 0.5495432 0.4723300
0.9817932 0.5495432 0.4723300
0.0265626 0.6877013 0.4670976
0.1051720 0.6885712 0.4679674
0.2708941 0.6904051 0.4698012
0.4306553 0.6921729 0.4715691
0.5872301 0.6939055 0.4733017
0.7416185 0.6956139 0.4750101
0.8943441 0.6973040 0.4767001
0.9871908 0.6983314 0.4777275
0.9871908 0.6983314 0.4777275
0.0319601 0.8364895 0.4724951
0.1105695 0.8373594 0.4733649
0.2762916 0.8391932 0.4751987
0.4360528 0.8409610 0.4769666
0.5926276 0.8426937 0.4786992
0.7470160 0.8444021 0.4804077
0.8997416 0.8460921 0.4820977
0.9925883 0.8471195 0.4831251
0.9925883 0.8471195 0.4831251
0.0373576 0.9852776 0.4778926
0.1159670 0.9861475 0.4787625
0.2816892 0.9879813 0.4805963
0.4414503 0.9897491 0.4823641
0.5980252 0.9914818 0.4840968
0.7524135 0.9931902 0.4858052
0.9051391 0.9948802 0.4874952
0.9979858 0.9959076 0.4885226
0.9979858 0.9959076 0.4885226
0.0374359 0.9874340 0.4779708
0.1160453 0.9883039 0.4788407
0.2817674 0.9901378 0.4806745
0.4415286 0.9919056 0.4824424
0.5981034 0.9936382 0.4841750
0.7524918 0.9953466 0.4858834
0.9052173 0.9970366 0.4875734
0.9980640 0.9980640 0.4886008
0.9980640 0.9980640 0.4886008
0.0028673 0.0218654 0.5687140
0.0814766 0.0227353 0.5695838
0.2471987 0.0245691 0.5714177
0.4069599 0.0263370 0.5731856
0.5635347 0.0280696 0.5749182
0.7179232 0.0297780 0.5766265
0.8706487 0.0314680 0.5783166
0.9634954 0.0324954 0.5793440
0.9634954 0.0324954 0.5793440
0.0054487 0.0930250 0.5712954
0.0840581 0.0938949 0.5721653
0.2497802 0.0957287 0.5739991
0.4095414 0.0974966 0.5757669
0.5661162 0.0992292 0.5774996
0.7205046 0.1009376 0.5792080
0.8732301 0.1026276 0.5808980
0.9660769 0.1036550 0.5819254
0.9660769 0.1036550 0.5819254
0.0108462 0.2418131 0.5766929
0.0894556 0.2426830 0.5775628
0.2551777 0.2445168 0.5793966
0.4149389 0.2462847 0.5811645
0.5715137 0.2480173 0.5828971
0.7259021 0.2497257 0.5846055
0.8786277 0.2514157 0.5862955
0.9714743 0.2524431 0.5873230
0.9714743 0.2524431 0.5873230
0.0162438 0.3906013 0.5820905
0.0948531 0.3914711 0.5829603
0.2605752 0.3933050 0.5847942
0.4203364 0.3950728 0.5865620
0.5769112 0.3968054 0.5882946
0.7312996 0.3985139 0.5900030
0.8840252 0.4002039 0.5916930
0.9768719 0.4012313 0.5927204
0.9768719 0.4012313 0.5927204
0.0216413 0.5393894 0.5874880
0.1002506 0.5402592 0.5883579
0.2659727 0.5420931 0.5901917
0.4257339 0.5438610 0.5919595
0.5823088 0.5455936 0.5936921
0.7366971 0.5473019 0.5954006
0.8894228 0.5489920 0.5970905
0.9822694 0.5500194 0.5981179
0.9822694 0.5500194 0.5981179
0.0270388 0.6881776 0.5928855
0.1056482 0.6890474 0.5937554
0.2713703 0.6908813 0.5955892
0.4311315 0.6926491 0.5973571
0.5877063 0.6943817 0.5990897
0.7420947 0.6960901 0.6007981
0.8948203 0.6977801 0.6024881
0.9876670 0.6988075 0.6035155
0.9876670 0.6988075 0.6035155
0.0324363 0.8369657 0.5982831
0.1110457 0.8378356 0.5991529
0.2767678 0.8396694 0.6009867
0.4365290 0.8414372 0.6027546
0.5931038 0.8431699 0.6044872
0.7474922 0.8448783 0.6061956
0.9002178 0.8465683 0.6078856
0.9930645 0.8475957 0.6089131
0.9930645 0.8475957 0.6089131
0.0378339 0.9857538 0.6036806
0.1164432 0.9866236 0.6045504
0.2821653 0.9884574 0.6063843
0.4419265 0.9902253 0.6081522
0.5985013 0.9919580 0.6098847
0.7528898 0.9936664 0.6115931
0.9056153 0.9953564 0.6132832
0.9984620 0.9963838 0.6143106
0.9984620 0.9963838 0.6143106
0.0379121 0.9879103 0.6037588
0.1165215 0.9887801 0.6046287
0.2822435 0.9906139 0.6064625
0.4420047 0.9923818 0.6082304
0.5985796 0.9941144 0.6099629
0.7529680 0.9958228 0.6116713
0.9056935 0.9975128 0.6133614
0.9985402 0.9985402 0.6143888
0.9985402 0.9985402 0.6143888
0.0033488 0.0223470 0.6959214
0.0819582 0.0232169 0.6967912
0.2476803 0.0250507 0.6986251
0.4074415 0.0268185 0.7003929
0.5640163 0.0285512 0.7021255
0.7184047 0.0302596 0.7038339
0.8711303 0.0319496 0.7055240
0.9639770 0.0329770 0.7065513
0.9639770 0.0329770 0.7065513
0.0059303 0.0935066 0.6985028
0.0845396 0.0943764 0.6993726
0.2502617 0.0962103 0.7012065
0.4100229 0.0979781 0.7029743
0.5665978 0.0997107 0.7047070
0.7209861 0.1014191 0.7064154
0.8737117 0.1031092 0.7081054
0.9665584 0.1041366 0.7091328
0.9665584 0.1041366 0.7091328
0.0113278 0.2422947 0.7039003
0.0899372 0.2431646 0.7047702
0.2556593 0.2449984 0.7066040
0.4154204 0.2467662 0.7083719
0.5719953 0.2484989 0.7101045
0.7263837 0.2502072 0.7118129
0.8791093 0.2518973 0.7135029
0.9719559 0.2529247 0.7145303
0.9719559 0.2529247 0.7145303
0.0167253 0.3910829 0.7092979
0.0953347 0.3919527 0.7101677
0.2610568 0.3937865 0.7120016
0.4208180 0.3955544 0.7137694
0.5773928 0.3972870 0.7155020
0.7317812 0.3989954 0.7172104
0.8845068 0.4006854 0.7189004
0.9773535 0.4017128 0.7199278
0.9773535 0.4017128 0.7199278
0.0221229 0.5398710 0.7146953
0.1007322 0.5407408 0.7155652
0.2664543 0.5425746 0.7173991
0.4262155 0.5443425 0.7191669
0.5827903 0.5460751 0.7208995
0.7371787 0.5477835 0.7226080
0.8899043 0.5494735 0.7242979
0.9827510 0.5505009 0.7253253
0.9827510 0.5505009 0.7253253
0.0275204 0.6886591 0.7200929
0.1061297 0.6895289 0.7209628
0.2718518 0.6913628 0.7227966
0.4316130 0.6931307 0.7245644
0.5881879 0.6948633 0.7262971
0.7425762 0.6965716 0.7280055
0.8953018 0.6982617 0.7296955
0.9881485 0.6992891 0.7307229
0.9881485 0.6992891 0.7307229
0.0329179 0.8374473 0.7254905
0.1115272 0.8383172 0.7263603
0.2772494 0.8401510 0.7281941
0.4370106 0.8419188 0.7299620
0.5935854 0.8436514 0.7316946
0.7479737 0.8453598 0.7334030
0.9006994 0.8470498 0.7350930
0.9935460 0.8480772 0.7361204
0.9935460 0.8480772 0.7361204
0.0383154 0.9862354 0.7308879
0.1169248 0.9871052 0.7317578
0.2826469 0.9889390 0.7335917
0.4424081 0.9907069 0.7353595
0.5989829 0.9924395 0.7370921
0.7533713 0.9941479 0.7388005
0.9060969 0.9958379 0.7404906
0.9989436 0.9968653 0.7415179
0.9989436 0.9968653 0.7415179
0.0383936 0.9883918 0.7309662
0.1170030 0.9892617 0.7318360
0.2827251 0.9910955 0.7336699
0.4424863 0.9928634 0.7354378
0.5990611 0.9945959 0.7371703
0.7534495 0.9963044 0.7388787
0.9061751 0.9979944 0.7405688
0.9990218 0.9990218 0.7415962
0.9990218 0.9990218 0.7415962
0.0038349 0.0228330 0.8243097
0.0824442 0.0237029 0.8251796
0.2481663 0.0255367 0.8270134
0.4079275 0.0273046 0.8287812
0.5645024 0.0290372 0.8305138
0.7188907 0.0307456 0.8322223
0.8716164 0.0324356 0.8339123
0.9644630 0.0334630 0.8349397
0.9644630 0.0334630 0.8349397
0.0064163 0.0939926 0.8268911
0.0850257 0.0948625 0.8277610
0.2507478 0.0966963 0.8295949
0.4105089 0.0984642 0.8313627
0.5670838 0.1001968 0.8330953
0.7214721 0.1019052 0.8348037
0.8741978 0.1035952 0.8364937
0.9670444 0.1046226 0.8375211
0.9670444 0.1046226 0.8375211
0.0118138 0.2427807 0.8322887
0.0904232 0.2436506 0.8331586
0.2561453 0.2454844 0.8349923
0.4159065 0.2472523 0.8367602
0.5724813 0.2489849 0.8384929
0.7268697 0.2506933 0.8402013
0.8795953 0.2523833 0.8418912
0.9724420 0.2534107 0.8429186
0.9724420 0.2534107 0.8429186
0.0172113 0.3915689 0.8376862
0.0958207 0.3924387 0.8385561
0.2615428 0.3942726 0.8403898
0.4213040 0.3960404 0.8421577
0.5778788 0.3977730 0.8438903
0.7322672 0.3994814 0.8455988
0.8849928 0.4011714 0.8472887
0.9778395 0.4021989 0.8483162
0.9778395 0.4021989 0.8483162
0.0226089 0.5403570 0.8430837
0.1012182 0.5412269 0.8439536
0.2669404 0.5430607 0.8457874
0.4267015 0.5448285 0.8475553
0.5832763 0.5465611 0.8492879
0.7376647 0.5482696 0.8509963
0.8903903 0.5499595 0.8526863
0.9832370 0.5509869 0.8537137
0.9832370 0.5509869 0.8537137
0.0280064 0.6891451 0.8484812
0.1066158 0.6900150 0.8493511
0.2723379 0.6918488 0.8511850
0.4320990 0.6936167 0.8529528
0.5886739 0.6953493 0.8546854
0.7430623 0.6970577 0.8563938
0.8957878 0.6987477 0.8580838
0.9886345 0.6997751 0.8591112
0.9886345 0.6997751 0.8591112
0.0334039 0.8379333 0.8538788
0.1120133 0.8388032 0.8547486
0.2777354 0.8406370 0.8565825
0.4374966 0.8424048 0.8583503
0.5940714 0.8441374 0.8600829
0.7484598 0.8458458 0.8617913
0.9011854 0.8475358 0.8634813
0.9940321 0.8485633 0.8645087
0.9940321 0.8485633 0.8645087
0.0388014 0.9867214 0.8592763
0.1174108 0.9875913 0.8601462
0.2831329 0.9894251 0.8619800
0.4428941 0.9911929 0.8637478
0.5994689 0.9929255 0.8654804
0.7538573 0.9946339 0.8671889
0.9065829 0.9963239 0.8688788
0.9994296 0.9973513 0.8699063
0.9994296 0.9973513 0.8699063
0.0388796 0.9888778 0.8593545
0.1174890 0.9897477 0.8602244
0.2832112 0.9915815 0.8620582
0.4429723 0.9933494 0.8638261
0.5995471 0.9950820 0.8655587
0.7539356 0.9967904 0.8672671
0.9066612 0.9984804 0.8689571
0.9995078 0.9995078 0.8699845
0.9995078 0.9995078 0.8699845
0.0041373 0.0231355 0.9042023
0.0827467 0.0240053 0.9050722
0.2484688 0.0258392 0.9069060
0.4082299 0.0276070 0.9086738
0.5648048 0.0293396 0.9104065
0.7191932 0.0310480 0.9121149
0.8719188 0.0327381 0.9138049
0.9647654 0.0337655 0.9148323
0.9647654 0.0337655 0.9148323
0.0067187 0.0942950 0.9067837
0.0853281 0.0951649 0.9076536
0.2510502 0.0969987 0.9094874
0.4108114 0.0987666 0.9112553
0.5673862 0.1004992 0.9129879
0.7217746 0.1022076 0.9146963
0.8745002 0.1038976 0.9163863
0.9673468 0.1049250 0.9174137
0.9673468 0.1049250 0.9174137
0.0121163 0.2430832 0.9121813
0.0907256 0.2439530 0.9130511
0.2564477 0.2457868 0.9148849
0.4162089 0.2475547 0.9166528
0.5727837 0.2492873 0.9183854
0.7271721 0.2509957 0.9200938
0.8798977 0.2526857 0.9217838
0.9727444 0.2537131 0.9228113
0.9727444 0.2537131 0.9228113
0.0175138 0.3918713 0.9175788
0.0961231 0.3927412 0.9184486
0.2618453 0.3945750 0.9202825
0.4216065 0.3963429 0.9220504
0.5781813 0.3980755 0.9237829
0.7325696 0.3997839 0.9254913
0.8852953 0.4014739 0.9271814
0.9781419 0.4025013 0.9282088
0.9781419 0.4025013 0.9282088
0.0229113 0.5406594 0.9229763
0.1015207 0.5415293 0.9238462
0.2672428 0.5433631 0.9256800
0.4270040 0.5451310 0.9274479
0.5835788 0.5468636 0.9291805
0.7379672 0.5485720 0.9308889
0.8906928 0.5502620 0.9325789
0.9835395 0.5512894 0.9336063
0.9835395 0.5512894 0.9336063
0.0283088 0.6894476 0.9283738
0.1069182 0.6903175 0.9292437
0.2726403 0.6921512 0.9310775
0.4324015 0.6939191 0.9328454
0.5889763 0.6956517 0.9345780
0.7433647 0.6973602 0.9362864
0.8960903 0.6990501 0.9379764
0.9889370 0.7000775 0.9390038
0.9889370 0.7000775 0.9390038
0.0337064 0.8382357 0.9337714
0.1123158 0.8391056 0.9346412
0.2780378 0.8409394 0.9364750
0.4377990 0.8427073 0.9382429
0.5943738 0.8444399 0.9399755
0.7487622 0.8461483 0.9416839
0.9014878 0.8478383 0.9433739
0.9943345 0.8488657 0.9444013
0.9943345 0.8488657 0.9444013
0.0391039 0.9870238 0.9391689
0.1177133 0.9878937 0.9400387
0.2834353 0.9897275 0.9418726
0.4431965 0.9914954 0.9436404
0.5997714 0.9932280 0.9453731
0.7541597 0.9949364 0.9470814
0.9068854 0.9966264 0.9487715
0.9997320 0.9976538 0.9497989
0.9997320 0.9976538 0.9497989
0.0391821 0.9891803 0.9392471
0.1177915 0.9900501 0.9401170
0.2835136 0.9918840 0.9419508
0.4432748 0.9936518 0.9437187
0.5998496 0.9953845 0.9454513
0.7542380 0.9970928 0.9471596
0.9069636 0.9987829 0.9488497
0.9998103 0.9998103 0.9498771
0.9998103 0.9998103 0.9498771
