luts/lume_20260404_214014.cube
TITLE "Lume Grade"
LUT_3D_SIZE 9
0.0000000 0.0000000 0.0185436
0.1315869 0.0000000 0.0147856
0.3065487 0.0000000 0.0097955
0.4763478 0.0000000 0.0049526
0.6431055 0.0000000 0.0001964
0.8077037 0.0000000 0.0000000
0.9706296 0.0000000 0.0000000
1.0000000 0.0000000 0.0000000
1.0000000 0.0000000 0.0000000
0.0000000 0.0851963 0.0097602
0.1228035 0.0814383 0.0060022
0.2977653 0.0764482 0.0010121
0.4675643 0.0716053 0.0000000
0.6343221 0.0668491 0.0000000
0.7989202 0.0621546 0.0000000
0.9618462 0.0575077 0.0000000
1.0000000 0.0533064 0.0000000
1.0000000 0.0533064 0.0000000
0.0000000 0.2357390 0.0000000
0.1073149 0.2319810 0.0000000
0.2822768 0.2269909 0.0000000
0.4520758 0.2221480 0.0000000
0.6188335 0.2173918 0.0000000
0.7834316 0.2126973 0.0000000
0.9463576 0.2080504 0.0000000
1.0000000 0.2038491 0.0000000
1.0000000 0.2038491 0.0000000
0.0000000 0.3862818 0.0000000
0.0918264 0.3825238 0.0000000
0.2667882 0.3775336 0.0000000
0.4365872 0.3726907 0.0000000
0.6033450 0.3679346 0.0000000
0.7679431 0.3632400 0.0000000
0.9308691 0.3585931 0.0000000
1.0000000 0.3543918 0.0000000
1.0000000 0.3543918 0.0000000
0.0000000 0.5368244 0.0000000
0.0763378 0.5330664 0.0000000
0.2512997 0.5280763 0.0000000
0.4210987 0.5232334 0.0000000
0.5878564 0.5184772 0.0000000
0.7524546 0.5137827 0.0000000
0.9153805 0.5091358 0.0000000
1.0000000 0.5049345 0.0000000
1.0000000 0.5049345 0.0000000
0.0000000 0.6873671 0.0000000
0.0608493 0.6836091 0.0000000
0.2358111 0.6786189 0.0000000
0.4056101 0.6737760 0.0000000
0.5723678 0.6690199 0.0000000
0.7369660 0.6643254 0.0000000
0.8998920 0.6596785 0.0000000
1.0000000 0.6554772 0.0000000
1.0000000 0.6554772 0.0000000
0.0000000 0.8379098 0.0000000
0.0453607 0.8341517 0.0000000
0.2203226 0.8291616 0.0000000
0.3901216 0.8243187 0.0000000
0.5568793 0.8195626 0.0000000
0.7214775 0.8148680 0.0000000
0.8844034 0.8102211 0.0000000
1.0000000 0.8060198 0.0000000
1.0000000 0.8060198 0.0000000
0.0000000 0.9884526 0.0000000
0.0298722 0.9846945 0.0000000
0.2048340 0.9797044 0.0000000
0.3746330 0.9748615 0.0000000
0.5413908 0.9701054 0.0000000
0.7059889 0.9654108 0.0000000
0.8689148 0.9607639 0.0000000
1.0000000 0.9565626 0.0000000
1.0000000 0.9565626 0.0000000
0.0000000 1.0000000 0.0000000
0.0243071 1.0000000 0.0000000
0.1992689 1.0000000 0.0000000
0.3690679 1.0000000 0.0000000
0.5358256 1.0000000 0.0000000
0.7004238 1.0000000 0.0000000
0.8633497 1.0000000 0.0000000
1.0000000 1.0000000 0.0000000
1.0000000 1.0000000 0.0000000
0.0000000 0.0000000 0.0740206
0.1310595 0.0000000 0.0702626
0.3060213 0.0000000 0.0652725
0.4758204 0.0000000 0.0604296
0.6425781 0.0000000 0.0556734
0.8071762 0.0000000 0.0509789
0.9701022 0.0000000 0.0463320
1.0000000 0.0000000 0.0421307
1.0000000 0.0000000 0.0421307
0.0000000 0.0846689 0.0652372
0.1222761 0.0809109 0.0614792
0.2972379 0.0759207 0.0564890
0.4670369 0.0710779 0.0516461
0.6337947 0.0663217 0.0468900
0.7983928 0.0616271 0.0421954
0.9613187 0.0569803 0.0375486
1.0000000 0.0527790 0.0333472
1.0000000 0.0527790 0.0333472
0.0000000 0.2352116 0.0497486
0.1067875 0.2314536 0.0459906
0.2817494 0.2264635 0.0410005
0.4515484 0.2216206 0.0361576
0.6183061 0.2168644 0.0314014
0.7829043 0.2121698 0.0267069
0.9458301 0.2075230 0.0220600
1.0000000 0.2033217 0.0178587
1.0000000 0.2033217 0.0178587
0.0000000 0.3857543 0.0342601
0.0912990 0.3819963 0.0305021
0.2662608 0.3770062 0.0255119
0.4360598 0.3721633 0.0206690
0.6028175 0.3674071 0.0159129
0.7674158 0.3627126 0.0112183
0.9303417 0.3580657 0.0065715
1.0000000 0.3538644 0.0023701
1.0000000 0.3538644 0.0023701
0.0000000 0.5362970 0.0187715
0.0758104 0.5325390 0.0150135
0.2507723 0.5275488 0.0100234
0.4205713 0.5227060 0.0051805
0.5873290 0.5179498 0.0004243
0.7519271 0.5132552 0.0000000
0.9148531 0.5086084 0.0000000
1.0000000 0.5044070 0.0000000
1.0000000 0.5044070 0.0000000
0.0000000 0.6868397 0.0032830
0.0603219 0.6830817 0.0000000
0.2352837 0.6780915 0.0000000
0.4050827 0.6732486 0.0000000
0.5718405 0.6684924 0.0000000
0.7364386 0.6637979 0.0000000
0.8993645 0.6591510 0.0000000
1.0000000 0.6549497 0.0000000
1.0000000 0.6549497 0.0000000
0.0000000 0.8373823 0.0000000
0.0448334 0.8336243 0.0000000
0.2197952 0.8286342 0.0000000
0.3895942 0.8237913 0.0000000
0.5563519 0.8190351 0.0000000
0.7209501 0.8143406 0.0000000
0.8838760 0.8096937 0.0000000
1.0000000 0.8054924 0.0000000
1.0000000 0.8054924 0.0000000
0.0000000 0.9879251 0.0000000
0.0293448 0.9841671 0.0000000
0.2043066 0.9791770 0.0000000
0.3741056 0.9743341 0.0000000
0.5408633 0.9695779 0.0000000
0.7054615 0.9648833 0.0000000
0.8683875 0.9602365 0.0000000
1.0000000 0.9560352 0.0000000
1.0000000 0.9560352 0.0000000
0.0000000 1.0000000 0.0000000
0.0237796 1.0000000 0.0000000
0.1987415 1.0000000 0.0000000
0.3685405 1.0000000 0.0000000
0.5352982 1.0000000 0.0000000
0.6998964 1.0000000 0.0000000
0.8628223 1.0000000 0.0000000
1.0000000 1.0000000 0.0000000
1.0000000 1.0000000 0.0000000
0.0000000 0.0000000 0.2073963
0.1297915 0.0000000 0.2036383
0.3047534 0.0000000 0.1986482
0.4745524 0.0000000 0.1938053
0.6413101 0.0000000 0.1890491
0.8059083 0.0000000 0.1843545
0.9688342 0.0000000 0.1797077
1.0000000 0.0000000 0.1755064
1.0000000 0.0000000 0.1755064
0.0000000 0.0834009 0.1986129
0.1210081 0.0796429 0.1948549
0.2959699 0.0746528 0.1898647
0.4657689 0.0698099 0.1850218
0.6325267 0.0650537 0.1802657
0.7971248 0.0603592 0.1755711
0.9600508 0.0557123 0.1709242
1.0000000 0.0515110 0.1667229
1.0000000 0.0515110 0.1667229
0.0000000 0.2339436 0.1831243
0.1055195 0.2301856 0.1793663
0.2804814 0.2251955 0.1743762
0.4502804 0.2203526 0.1695333
0.6170381 0.2155964 0.1647771
0.7816362 0.2109019 0.1600826
0.9445622 0.2062550 0.1554357
1.0000000 0.2020537 0.1512344
1.0000000 0.2020537 0.1512344
0.0000000 0.3844863 0.1676358
0.0900310 0.3807284 0.1638778
0.2649928 0.3757382 0.1588876
0.4347918 0.3708953 0.1540447
0.6015496 0.3661392 0.1492886
0.7661477 0.3614446 0.1445940
0.9290737 0.3567977 0.1399471
1.0000000 0.3525964 0.1357458
1.0000000 0.3525964 0.1357458
0.0000000 0.5350290 0.1521472
0.0745424 0.5312710 0.1483892
0.2495043 0.5262809 0.1433991
0.4193033 0.5214379 0.1385562
0.5860610 0.5166818 0.1338000
0.7506592 0.5119873 0.1291054
0.9135851 0.5073404 0.1244586
1.0000000 0.5031391 0.1202573
1.0000000 0.5031391 0.1202573
0.0000000 0.6855717 0.1366587
0.0590539 0.6818137 0.1329007
0.2340157 0.6768235 0.1279105
0.4038147 0.6719806 0.1230676
0.5705725 0.6672245 0.1183115
0.7351707 0.6625299 0.1136169
0.8980966 0.6578830 0.1089700
1.0000000 0.6536818 0.1047688
1.0000000 0.6536818 0.1047688
0.0000000 0.8361143 0.1211701
0.0435653 0.8323563 0.1174121
0.2185272 0.8273662 0.1124220
0.3883262 0.8225233 0.1075791
0.5550839 0.8177671 0.1028230
0.7196821 0.8130726 0.0981284
0.8826080 0.8084257 0.0934815
1.0000000 0.8042244 0.0892802
1.0000000 0.8042244 0.0892802
0.0000000 0.9866571 0.1056816
0.0280768 0.9828991 0.1019236
0.2030386 0.9779090 0.0969334
0.3728376 0.9730661 0.0920905
0.5395954 0.9683099 0.0873344
0.7041935 0.9636154 0.0826398
0.8671194 0.9589685 0.0779930
1.0000000 0.9547672 0.0737916
1.0000000 0.9547672 0.0737916
0.0000000 1.0000000 0.1001164
0.0225117 1.0000000 0.0963584
0.1974735 1.0000000 0.0913683
0.3672725 1.0000000 0.0865254
0.5340302 1.0000000 0.0817692
0.6986284 1.0000000 0.0770746
0.8615543 1.0000000 0.0724278
1.0000000 1.0000000 0.0682265
1.0000000 1.0000000 0.0682265
0.0000000 0.0000000 0.3455690
0.1284779 0.0000000 0.3418110
0.3034398 0.0000000 0.3368208
0.4732388 0.0000000 0.3319779
0.6399965 0.0000000 0.3272218
0.8045947 0.0000000 0.3225272
0.9675206 0.0000000 0.3178804
1.0000000 0.0000000 0.3136790
1.0000000 0.0000000 0.3136790
0.0000000 0.0820873 0.3367856
0.1196945 0.0783293 0.3330275
0.2946563 0.0733392 0.3280374
0.4644553 0.0684963 0.3231945
0.6312131 0.0637401 0.3184384
0.7958112 0.0590455 0.3137438
0.9587371 0.0543987 0.3090969
1.0000000 0.0501974 0.3048956
1.0000000 0.0501974 0.3048956
0.0000000 0.2326300 0.3212970
0.1042059 0.2288720 0.3175390
0.2791678 0.2238819 0.3125488
0.4489668 0.2190390 0.3077059
0.6157245 0.2142828 0.3029498
0.7803227 0.2095883 0.2982552
0.9432486 0.2049414 0.2936084
1.0000000 0.2007401 0.2894071
1.0000000 0.2007401 0.2894071
0.0000000 0.3831728 0.3058085
0.0887174 0.3794147 0.3020504
0.2636792 0.3744246 0.2970603
0.4334782 0.3695817 0.2922174
0.6002359 0.3648255 0.2874613
0.7648342 0.3601310 0.2827667
0.9277601 0.3554841 0.2781198
1.0000000 0.3512828 0.2739185
1.0000000 0.3512828 0.2739185
0.0000000 0.5337154 0.2903199
0.0732288 0.5299574 0.2865619
0.2481907 0.5249673 0.2815717
0.4179897 0.5201244 0.2767289
0.5847474 0.5153682 0.2719727
0.7493456 0.5106736 0.2672781
0.9122715 0.5060268 0.2626313
1.0000000 0.5018255 0.2584300
1.0000000 0.5018255 0.2584300
0.0000000 0.6842581 0.2748314
0.0577403 0.6805001 0.2710733
0.2327021 0.6755099 0.2660832
0.4025012 0.6706671 0.2612403
0.5692589 0.6659109 0.2564842
0.7338570 0.6612163 0.2517896
0.8967830 0.6565695 0.2471427
1.0000000 0.6523681 0.2429414
1.0000000 0.6523681 0.2429414
0.0000000 0.8348007 0.2593428
0.0422518 0.8310428 0.2555848
0.2172136 0.8260526 0.2505946
0.3870126 0.8212097 0.2457518
0.5537703 0.8164536 0.2409956
0.7183685 0.8117590 0.2363011
0.8812944 0.8071121 0.2316542
1.0000000 0.8029108 0.2274529
1.0000000 0.8029108 0.2274529
0.0000000 0.9853436 0.2438543
0.0267632 0.9815855 0.2400962
0.2017251 0.9765954 0.2351061
0.3715240 0.9717525 0.2302632
0.5382818 0.9669963 0.2255071
0.7028800 0.9623018 0.2208125
0.8658059 0.9576549 0.2161656
1.0000000 0.9534536 0.2119643
1.0000000 0.9534536 0.2119643
0.0000000 1.0000000 0.2382891
0.0211980 1.0000000 0.2345311
0.1961598 1.0000000 0.2295409
0.3659589 1.0000000 0.2246981
0.5327166 1.0000000 0.2199419
0.6973148 1.0000000 0.2152473
0.8602407 1.0000000 0.2106005
1.0000000 1.0000000 0.2063992
1.0000000 1.0000000 0.2063992
0.0000000 0.0000000 0.4866377
0.1271368 0.0000000 0.4828796
0.3020986 0.0000000 0.4778895
0.4718977 0.0000000 0.4730466
0.6386554 0.0000000 0.4682904
0.8032535 0.0000000 0.4635959
0.9661795 0.0000000 0.4589490
1.0000000 0.0000000 0.4547477
1.0000000 0.0000000 0.4547477
0.0000000 0.0807462 0.4778543
0.1183533 0.0769882 0.4740962
0.2933152 0.0719980 0.4691060
0.4631142 0.0671551 0.4642631
0.6298720 0.0623990 0.4595070
0.7944701 0.0577044 0.4548125
0.9573960 0.0530576 0.4501656
1.0000000 0.0488563 0.4459643
1.0000000 0.0488563 0.4459643
0.0000000 0.2312889 0.4623657
0.1028648 0.2275309 0.4586077
0.2778266 0.2225407 0.4536175
0.4476257 0.2176978 0.4487746
0.6143833 0.2129417 0.4440185
0.7789816 0.2082471 0.4393239
0.9419075 0.2036003 0.4346770
1.0000000 0.1993990 0.4304757
1.0000000 0.1993990 0.4304757
0.0000000 0.3818316 0.4468771
0.0873763 0.3780736 0.4431191
0.2623381 0.3730835 0.4381289
0.4321371 0.3682406 0.4332861
0.5988948 0.3634844 0.4285299
0.7634930 0.3587899 0.4238354
0.9264189 0.3541430 0.4191885
1.0000000 0.3499417 0.4149872
1.0000000 0.3499417 0.4149872
0.0000000 0.5323743 0.4313886
0.0718877 0.5286163 0.4276306
0.2468496 0.5236261 0.4226404
0.4166486 0.5187833 0.4177975
0.5834063 0.5140271 0.4130414
0.7480044 0.5093325 0.4083468
0.9109304 0.5046856 0.4036999
1.0000000 0.5004843 0.3994986
1.0000000 0.5004843 0.3994986
0.0000000 0.6829169 0.4159000
0.0563992 0.6791589 0.4121420
0.2313610 0.6741688 0.4071519
0.4011600 0.6693259 0.4023090
0.5679178 0.6645697 0.3975528
0.7325159 0.6598752 0.3928583
0.8954418 0.6552283 0.3882114
1.0000000 0.6510270 0.3840101
1.0000000 0.6510270 0.3840101
0.0000000 0.8334596 0.4004115
0.0409106 0.8297016 0.3966535
0.2158725 0.8247114 0.3916633
0.3856715 0.8198686 0.3868204
0.5524292 0.8151124 0.3820643
0.7170274 0.8104179 0.3773697
0.8799533 0.8057710 0.3727228
1.0000000 0.8015697 0.3685215
1.0000000 0.8015697 0.3685215
0.0000000 0.9840024 0.3849229
0.0254221 0.9802444 0.3811649
0.2003839 0.9752542 0.3761748
0.3701829 0.9704114 0.3713319
0.5369406 0.9656552 0.3665757
0.7015388 0.9609606 0.3618811
0.8644648 0.9563138 0.3572343
1.0000000 0.9521125 0.3530330
1.0000000 0.9521125 0.3530330
0.0000000 1.0000000 0.3793578
0.0198569 1.0000000 0.3755998
0.1948188 1.0000000 0.3706096
0.3646178 1.0000000 0.3657667
0.5313755 1.0000000 0.3610106
0.6959736 1.0000000 0.3563160
0.8588996 1.0000000 0.3516691
1.0000000 1.0000000 0.3474678
1.0000000 1.0000000 0.3474678
0.0000000 0.0000000 0.6298097
0.1257757 0.0000000 0.6260517
0.3007375 0.0000000 0.6210616
0.4705365 0.0000000 0.6162187
0.6372942 0.0000000 0.6114625
0.8018924 0.0000000 0.6067680
0.9648184 0.0000000 0.6021211
1.0000000 0.0000000 0.5979198
1.0000000 0.0000000 0.5979198
0.0000000 0.0793851 0.6210263
0.1169922 0.0756271 0.6172683
0.2919541 0.0706369 0.6122781
0.4617531 0.0657940 0.6074352
0.6285108 0.0610379 0.6026791
0.7931090 0.0563433 0.5979846
0.9560349 0.0516964 0.5933377
1.0000000 0.0474951 0.5891364
1.0000000 0.0474951 0.5891364
0.0000000 0.2299278 0.6055377
0.1015037 0.2261698 0.6017797
0.2764655 0.2211796 0.5967896
0.4462645 0.2163367 0.5919467
0.6130223 0.2115806 0.5871905
0.7776204 0.2068860 0.5824960
0.9405464 0.2022391 0.5778491
1.0000000 0.1980378 0.5736478
1.0000000 0.1980378 0.5736478
0.0000000 0.3804705 0.5900491
0.0860151 0.3767125 0.5862912
0.2609770 0.3717223 0.5813010
0.4307760 0.3668795 0.5764582
0.5975337 0.3621233 0.5717020
0.7621319 0.3574287 0.5670074
0.9250578 0.3527819 0.5623606
1.0000000 0.3485806 0.5581592
1.0000000 0.3485806 0.5581592
0.0000000 0.5310131 0.5745606
0.0705266 0.5272552 0.5708026
0.2454884 0.5222650 0.5658125
0.4152874 0.5174221 0.5609696
0.5820451 0.5126660 0.5562134
0.7466433 0.5079714 0.5515189
0.9095693 0.5033246 0.5468720
1.0000000 0.4991232 0.5426707
1.0000000 0.4991232 0.5426707
0.0000000 0.6815559 0.5590721
0.0550381 0.6777978 0.5553141
0.2299999 0.6728077 0.5503240
0.3997989 0.6679648 0.5454810
0.5665566 0.6632086 0.5407249
0.7311548 0.6585141 0.5360304
0.8940807 0.6538672 0.5313835
1.0000000 0.6496659 0.5271822
1.0000000 0.6496659 0.5271822
0.0000000 0.8320985 0.5435835
0.0395495 0.8283405 0.5398256
0.2145113 0.8233503 0.5348354
0.3843104 0.8185074 0.5299925
0.5510681 0.8137513 0.5252364
0.7156662 0.8090568 0.5205418
0.8785922 0.8044099 0.5158949
1.0000000 0.8002086 0.5116936
1.0000000 0.8002086 0.5116936
0.0000000 0.9826413 0.5280950
0.0240610 0.9788833 0.5243370
0.1990228 0.9738931 0.5193468
0.3688218 0.9690502 0.5145040
0.5355795 0.9642941 0.5097477
0.7001777 0.9595996 0.5050533
0.8631036 0.9549527 0.5004064
1.0000000 0.9507514 0.4962051
1.0000000 0.9507514 0.4962051
0.0000000 1.0000000 0.5225298
0.0184958 1.0000000 0.5187718
0.1934576 1.0000000 0.5137817
0.3632566 1.0000000 0.5089388
0.5300144 1.0000000 0.5041826
0.6946125 1.0000000 0.4994881
0.8575385 1.0000000 0.4948412
1.0000000 1.0000000 0.4906399
1.0000000 1.0000000 0.4906399
0.0000000 0.0000000 0.7746414
0.1243988 0.0000000 0.7708834
0.2993606 0.0000000 0.7658933
0.4691596 0.0000000 0.7610505
0.6359173 0.0000000 0.7562943
0.8005155 0.0000000 0.7515997
0.9634414 0.0000000 0.7469529
1.0000000 0.0000000 0.7427515
1.0000000 0.0000000 0.7427515
0.0000000 0.0780082 0.7658581
0.1156153 0.0742501 0.7621001
0.2905772 0.0692600 0.7571099
0.4603762 0.0644171 0.7522670
0.6271339 0.0596609 0.7475108
0.7917321 0.0549664 0.7428163
0.9546580 0.0503195 0.7381694
1.0000000 0.0461182 0.7339681
1.0000000 0.0461182 0.7339681
0.0000000 0.2285509 0.7503695
0.1001268 0.2247929 0.7466115
0.2750886 0.2198027 0.7416213
0.4448876 0.2149598 0.7367784
0.6116453 0.2102036 0.7320223
0.7762436 0.2055091 0.7273277
0.9391694 0.2008622 0.7226809
1.0000000 0.1966609 0.7184795
1.0000000 0.1966609 0.7184795
0.0000000 0.3790936 0.7348809
0.0846382 0.3753356 0.7311230
0.2596001 0.3703454 0.7261328
0.4293991 0.3655026 0.7212899
0.5961568 0.3607464 0.7165337
0.7607549 0.3560518 0.7118392
0.9236809 0.3514050 0.7071923
1.0000000 0.3472037 0.7029910
1.0000000 0.3472037 0.7029910
0.0000000 0.5296363 0.7193924
0.0691496 0.5258783 0.7156343
0.2441115 0.5208881 0.7106442
0.4139105 0.5160452 0.7058014
0.5806683 0.5112891 0.7010452
0.7452664 0.5065945 0.6963506
0.9081924 0.5019476 0.6917037
1.0000000 0.4977463 0.6875024
1.0000000 0.4977463 0.6875024
0.0000000 0.6801789 0.7039039
0.0536611 0.6764209 0.7001458
0.2286230 0.6714308 0.6951557
0.3984220 0.6665879 0.6903128
0.5651797 0.6618317 0.6855567
0.7297779 0.6571372 0.6808621
0.8927038 0.6524903 0.6762152
1.0000000 0.6482890 0.6720139
1.0000000 0.6482890 0.6720139
0.0000000 0.8307216 0.6884153
0.0381726 0.8269635 0.6846573
0.2131344 0.8219734 0.6796671
0.3829334 0.8171306 0.6748242
0.5496911 0.8123744 0.6700681
0.7142893 0.8076798 0.6653736
0.8772153 0.8030329 0.6607267
1.0000000 0.7988316 0.6565254
1.0000000 0.7988316 0.6565254
0.0000000 0.9812644 0.6729267
0.0226840 0.9775064 0.6691687
0.1976458 0.9725162 0.6641786
0.3674449 0.9676733 0.6593357
0.5342026 0.9629171 0.6545795
0.6988008 0.9582226 0.6498850
0.8617267 0.9535757 0.6452381
1.0000000 0.9493744 0.6410368
1.0000000 0.9493744 0.6410368
0.0000000 1.0000000 0.6673616
0.0171189 1.0000000 0.6636035
0.1920807 1.0000000 0.6586134
0.3618797 1.0000000 0.6537706
0.5286375 1.0000000 0.6490144
0.6932356 1.0000000 0.6443198
0.8561615 1.0000000 0.6396730
1.0000000 1.0000000 0.6354716
1.0000000 1.0000000 0.6354716
0.0000000 0.0000000 0.9208477
0.1230088 0.0000000 0.9170896
0.2979707 0.0000000 0.9120995
0.4677697 0.0000000 0.9072566
0.6345273 0.0000000 0.9025005
0.7991256 0.0000000 0.8978059
0.9620515 0.0000000 0.8931590
1.0000000 0.0000000 0.8889577
1.0000000 0.0000000 0.8889577
0.0000000 0.0766182 0.9120642
0.1142253 0.0728602 0.9083062
0.2891872 0.0678700 0.9033160
0.4589862 0.0630271 0.8984731
0.6257439 0.0582710 0.8937170
0.7903421 0.0535764 0.8890225
0.9532681 0.0489295 0.8843756
1.0000000 0.0447282 0.8801743
1.0000000 0.0447282 0.8801743
0.0000000 0.2271609 0.8965757
0.0987368 0.2234029 0.8928177
0.2736987 0.2184127 0.8878275
0.4434977 0.2135698 0.8829846
0.6102554 0.2088137 0.8782285
0.7748536 0.2041191 0.8735339
0.9377795 0.1994723 0.8688871
1.0000000 0.1952710 0.8646857
1.0000000 0.1952710 0.8646857
0.0000000 0.3777036 0.8810871
0.0832483 0.3739456 0.8773291
0.2582101 0.3689555 0.8723390
0.4280091 0.3641126 0.8674960
0.5947669 0.3593564 0.8627399
0.7593650 0.3546619 0.8580453
0.9222909 0.3500150 0.8533984
1.0000000 0.3458137 0.8491971
1.0000000 0.3458137 0.8491971
0.0000000 0.5282463 0.8655986
0.0677597 0.5244883 0.8618405
0.2427215 0.5194981 0.8568504
0.4125206 0.5146552 0.8520075
0.5792783 0.5098991 0.8472514
0.7438765 0.5052046 0.8425568
0.9068024 0.5005577 0.8379099
1.0000000 0.4963564 0.8337086
1.0000000 0.4963564 0.8337086
0.0000000 0.6787890 0.8501101
0.0522712 0.6750309 0.8463520
0.2272330 0.6700408 0.8413619
0.3970320 0.6651979 0.8365190
0.5637897 0.6604418 0.8317628
0.7283879 0.6557472 0.8270683
0.8913139 0.6511003 0.8224214
1.0000000 0.6468990 0.8182201
1.0000000 0.6468990 0.8182201
0.0000000 0.8293316 0.8346215
0.0367826 0.8255736 0.8308635
0.2117445 0.8205835 0.8258733
0.3815435 0.8157406 0.8210304
0.5483012 0.8109844 0.8162743
0.7128994 0.8062899 0.8115797
0.8758253 0.8016430 0.8069329
1.0000000 0.7974417 0.8027315
1.0000000 0.7974417 0.8027315
0.0000000 0.9798744 0.8191329
0.0212941 0.9761164 0.8153749
0.1962559 0.9711263 0.8103848
0.3660549 0.9662834 0.8055419
0.5328126 0.9615272 0.8007857
0.6974108 0.9568326 0.7960911
0.8603367 0.9521858 0.7914443
1.0000000 0.9479845 0.7872430
1.0000000 0.9479845 0.7872430
0.0000000 1.0000000 0.8135678
0.0157290 1.0000000 0.8098097
0.1906908 1.0000000 0.8048196
0.3604898 1.0000000 0.7999767
0.5272475 1.0000000 0.7952206
0.6918457 1.0000000 0.7905260
0.8547716 1.0000000 0.7858791
1.0000000 1.0000000 0.7816778
1.0000000 1.0000000 0.7816778
0.0000000 0.0000000 1.0000000
0.1218432 0.0000000 1.0000000
0.2968051 0.0000000 1.0000000
0.4666041 0.0000000 1.0000000
0.6333618 0.0000000 1.0000000
0.7979599 0.0000000 1.0000000
0.9608860 0.0000000 1.0000000
1.0000000 0.0000000 1.0000000
1.0000000 0.0000000 1.0000000
0.0000000 0.0754526 1.0000000
0.1130598 0.0716946 1.0000000
0.2880217 0.0667045 1.0000000
0.4578207 0.0618616 1.0000000
0.6245784 0.0571054 1.0000000
0.7891766 0.0524109 1.0000000
0.9521025 0.0477640 1.0000000
1.0000000 0.0435627 1.0000000
1.0000000 0.0435627 1.0000000
0.0000000 0.2259953 1.0000000
0.0975713 0.2222373 1.0000000
0.2725331 0.2172472 1.0000000
0.4423321 0.2124043 1.0000000
0.6090899 0.2076481 1.0000000
0.7736880 0.2029536 0.9961332
0.9366139 0.1983067 0.9914863
1.0000000 0.1941054 0.9872850
1.0000000 0.1941054 0.9872850
0.0000000 0.3765381 1.0000000
0.0820827 0.3727801 0.9999284
0.2570446 0.3677899 0.9949383
0.4268436 0.3629470 0.9900954
0.5936013 0.3581909 0.9853392
0.7581995 0.3534963 0.9806446
0.9211254 0.3488495 0.9759978
1.0000000 0.3446482 0.9717965
1.0000000 0.3446482 0.9717965
0.0000000 0.5270808 0.9881978
0.0665942 0.5233228 0.9844398
0.2415560 0.5183326 0.9794497
0.4113550 0.5134897 0.9746068
0.5781127 0.5087336 0.9698507
0.7427109 0.5040390 0.9651561
0.9056368 0.4993921 0.9605092
1.0000000 0.4951908 0.9563079
1.0000000 0.4951908 0.9563079
0.0000000 0.6776234 0.9727093
0.0511056 0.6738654 0.9689513
0.2260675 0.6688753 0.9639612
0.3958665 0.6640323 0.9591182
0.5626242 0.6592762 0.9543622
0.7272224 0.6545817 0.9496676
0.8901483 0.6499348 0.9450207
1.0000000 0.6457335 0.9408194
1.0000000 0.6457335 0.9408194
0.0000000 0.8281661 0.9572208
0.0356171 0.8244081 0.9534628
0.2105789 0.8194180 0.9484726
0.3803779 0.8145750 0.9436297
0.5471357 0.8098189 0.9388736
0.7117338 0.8051243 0.9341790
0.8746598 0.8004774 0.9295322
1.0000000 0.7962762 0.9253308
1.0000000 0.7962762 0.9253308
0.0000000 0.9787089 0.9417322
0.0201285 0.9749509 0.9379742
0.1950904 0.9699607 0.9329841
0.3648894 0.9651178 0.9281412
0.5316471 0.9603617 0.9233850
0.6962453 0.9556671 0.9186904
0.8591712 0.9510202 0.9140436
1.0000000 0.9468189 0.9098423
1.0000000 0.9468189 0.9098423
0.0000000 1.0000000 0.9361671
0.0145634 1.0000000 0.9324090
0.1895252 1.0000000 0.9274189
0.3593242 1.0000000 0.9225760
0.5260819 1.0000000 0.9178199
0.6906801 1.0000000 0.9131253
0.8536060 1.0000000 0.9084784
1.0000000 1.0000000 0.9042771
1.0000000 1.0000000 0.9042771
