luts/lume_20260408_160814.cube
TITLE "Lume Grade"
LUT_3D_SIZE 5
0.0008712 0.0198694 0.0414406
0.2452027 0.0225731 0.0441443
0.5615387 0.0260735 0.0476448
0.8686527 0.0294720 0.0510432
0.9614993 0.0304994 0.0520706
0.0088502 0.2398171 0.0494196
0.2531816 0.2425208 0.0521233
0.5695177 0.2460212 0.0556237
0.8766316 0.2494197 0.0590222
0.9694782 0.2504471 0.0600496
0.0196452 0.5373933 0.0602146
0.2639767 0.5400971 0.0629183
0.5803127 0.5435975 0.0664188
0.8874267 0.5469959 0.0698172
0.9802734 0.5480233 0.0708446
0.0304403 0.8349696 0.0710097
0.2747717 0.8376733 0.0737134
0.5911078 0.8411738 0.0772138
0.8982217 0.8445722 0.0806122
0.9910684 0.8455997 0.0816396
0.0359160 0.9859142 0.0764854
0.2802475 0.9886179 0.0791891
0.5965835 0.9921184 0.0826896
0.9036975 0.9955168 0.0860880
0.9965442 0.9965442 0.0871154
0.0014614 0.0204596 0.1973488
0.2457929 0.0231633 0.2000525
0.5621289 0.0266638 0.2035530
0.8692429 0.0300622 0.2069514
0.9620895 0.0310896 0.2079788
0.0094404 0.2404073 0.2053278
0.2537718 0.2431110 0.2080315
0.5701079 0.2466114 0.2115319
0.8772218 0.2500099 0.2149303
0.9700686 0.2510373 0.2159578
0.0202354 0.5379835 0.2161228
0.2645669 0.5406873 0.2188265
0.5809029 0.5441877 0.2223270
0.8880169 0.5475861 0.2257254
0.9808636 0.5486135 0.2267528
0.0310305 0.8355598 0.2269179
0.2753620 0.8382635 0.2296216
0.5916980 0.8417640 0.2331220
0.8988119 0.8451625 0.2365204
0.9916586 0.8461899 0.2375479
0.0365062 0.9865044 0.2323936
0.2808377 0.9892081 0.2350973
0.5971737 0.9927086 0.2385978
0.9042877 0.9961070 0.2419962
0.9971344 0.9971344 0.2430236
0.0023911 0.0213893 0.4429260
0.2467226 0.0240929 0.4456297
0.5630586 0.0275934 0.4491302
0.8701725 0.0309918 0.4525286
0.9630193 0.0320192 0.4535560
0.0103700 0.2413370 0.4509050
0.2547015 0.2440406 0.4536087
0.5710375 0.2475411 0.4571091
0.8781515 0.2509395 0.4605075
0.9709982 0.2519670 0.4615349
0.0211651 0.5389132 0.4617000
0.2654966 0.5416169 0.4644037
0.5818326 0.5451174 0.4679042
0.8889465 0.5485158 0.4713026
0.9817932 0.5495432 0.4723300
0.0319601 0.8364895 0.4724951
0.2762916 0.8391932 0.4751987
0.5926276 0.8426937 0.4786992
0.8997416 0.8460921 0.4820977
0.9925883 0.8471195 0.4831251
0.0374359 0.9874340 0.4779708
0.2817674 0.9901378 0.4806745
0.5981034 0.9936382 0.4841750
0.9052173 0.9970366 0.4875734
0.9980640 0.9980640 0.4886008
0.0033488 0.0223470 0.6959214
0.2476803 0.0250507 0.6986251
0.5640163 0.0285512 0.7021255
0.8711303 0.0319496 0.7055240
0.9639770 0.0329770 0.7065513
0.0113278 0.2422947 0.7039003
0.2556593 0.2449984 0.7066040
0.5719953 0.2484989 0.7101045
0.8791093 0.2518973 0.7135029
0.9719559 0.2529247 0.7145303
0.0221229 0.5398710 0.7146953
0.2664543 0.5425746 0.7173991
0.5827903 0.5460751 0.7208995
0.8899043 0.5494735 0.7242979
0.9827510 0.5505009 0.7253253
0.0329179 0.8374473 0.7254905
0.2772494 0.8401510 0.7281941
0.5935854 0.8436514 0.7316946
0.9006994 0.8470498 0.7350930
0.9935460 0.8480772 0.7361204
0.0383936 0.9883918 0.7309662
0.2827251 0.9910955 0.7336699
0.5990611 0.9945959 0.7371703
0.9061751 0.9979944 0.7405688
0.9990218 0.9990218 0.7415962
0.0041373 0.0231355 0.9042023
0.2484688 0.0258392 0.9069060
0.5648048 0.0293396 0.9104065
0.8719188 0.0327381 0.9138049
0.9647654 0.0337655 0.9148323
0.0121163 0.2430832 0.9121813
0.2564477 0.2457868 0.9148849
0.5727837 0.2492873 0.9183854
0.8798977 0.2526857 0.9217838
0.9727444 0.2537131 0.9228113
0.0229113 0.5406594 0.9229763
0.2672428 0.5433631 0.9256800
0.5835788 0.5468636 0.9291805
0.8906928 0.5502620 0.9325789
0.9835395 0.5512894 0.9336063
0.0337064 0.8382357 0.9337714
0.2780378 0.8409394 0.9364750
0.5943738 0.8444399 0.9399755
0.9014878 0.8478383 0.9433739
0.9943345 0.8488657 0.9444013
0.0391821 0.9891803 0.9392471
0.2835136 0.9918840 0.9419508
0.5998496 0.9953845 0.9454513
0.9069636 0.9987829 0.9488497
0.9998103 0.9998103 0.9498771
