luts/lume_20260404_213943.cube
TITLE "Lume Grade"
LUT_3D_SIZE 5
0.1473874 0.0586015 0.0000000
0.4481431 0.0500236 0.0000000
0.7285252 0.0420267 0.0000000
0.9983186 0.0343318 0.0000000
1.0000000 0.0311000 0.0000000
0.1210034 0.3150440 0.0000000
0.4217591 0.3064660 0.0000000
0.7021412 0.2984692 0.0000000
0.9719346 0.2907743 0.0000000
1.0000000 0.2875425 0.0000000
0.0957912 0.5600969 0.0000000
0.3965469 0.5515189 0.0000000
0.6769289 0.5435221 0.0000000
0.9467223 0.5358272 0.0000000
1.0000000 0.5325955 0.0000000
0.0711334 0.7997606 0.0000000
0.3718891 0.7911826 0.0000000
0.6522712 0.7831857 0.0000000
0.9220646 0.7754909 0.0000000
1.0000000 0.7722591 0.0000000
0.0468436 1.0000000 0.0000000
0.3475993 1.0000000 0.0000000
0.6279813 1.0000000 0.0000000
0.8977747 1.0000000 0.0000000
1.0000000 1.0000000 0.0000000
0.1456734 0.0568875 0.1694206
0.4464291 0.0483096 0.1608427
0.7268112 0.0403127 0.1528458
0.9966046 0.0326178 0.1451509
1.0000000 0.0293860 0.1419191
0.1192894 0.3133300 0.1430366
0.4200451 0.3047520 0.1344586
0.7004271 0.2967552 0.1264618
0.9702205 0.2890603 0.1187669
1.0000000 0.2858285 0.1155351
0.0940772 0.5583829 0.1178244
0.3948329 0.5498049 0.1092464
0.6752149 0.5418081 0.1012495
0.9450083 0.5341132 0.0935547
1.0000000 0.5308814 0.0903229
0.0694194 0.7980466 0.0931666
0.3701752 0.7894686 0.0845887
0.6505572 0.7814717 0.0765918
0.9203506 0.7737769 0.0688969
1.0000000 0.7705451 0.0656652
0.0451296 1.0000000 0.0688768
0.3458853 1.0000000 0.0602989
0.6262673 1.0000000 0.0523019
0.8960607 1.0000000 0.0446071
1.0000000 1.0000000 0.0413753
0.1434307 0.0546448 0.4053260
0.4441864 0.0460668 0.3967481
0.7245684 0.0380699 0.3887512
0.9943619 0.0303751 0.3810563
1.0000000 0.0271433 0.3778245
0.1170467 0.3110873 0.3789420
0.4178023 0.3025093 0.3703640
0.6981844 0.2945124 0.3623672
0.9679778 0.2868176 0.3546723
1.0000000 0.2835858 0.3514405
0.0918345 0.5561402 0.3537298
0.3925901 0.5475622 0.3451518
0.6729722 0.5395653 0.3371550
0.9427656 0.5318705 0.3294601
1.0000000 0.5286387 0.3262283
0.0671768 0.7958038 0.3290721
0.3679324 0.7872258 0.3204941
0.6483145 0.7792290 0.3124972
0.9181079 0.7715341 0.3048024
1.0000000 0.7683024 0.3015706
0.0428869 1.0000000 0.3047822
0.3436426 1.0000000 0.2962043
0.6240246 1.0000000 0.2882074
0.8938180 1.0000000 0.2805125
1.0000000 1.0000000 0.2772807
0.1410452 0.0522593 0.6562435
0.4418009 0.0436814 0.6476656
0.7221830 0.0356845 0.6396687
0.9919764 0.0279896 0.6319739
1.0000000 0.0247579 0.6287420
0.1146612 0.3087018 0.6298595
0.4154169 0.3001238 0.6212816
0.6957989 0.2921270 0.6132847
0.9655923 0.2844321 0.6055898
1.0000000 0.2812003 0.6023580
0.0894490 0.5537547 0.6046473
0.3902047 0.5451767 0.5960693
0.6705867 0.5371799 0.5880725
0.9403801 0.5294850 0.5803776
1.0000000 0.5262532 0.5771458
0.0647913 0.7934183 0.5799896
0.3655470 0.7848404 0.5714116
0.6459290 0.7768435 0.5634148
0.9157224 0.7691486 0.5557199
1.0000000 0.7659169 0.5524881
0.0405014 1.0000000 0.5556997
0.3412571 1.0000000 0.5471218
0.6216391 1.0000000 0.5391248
0.8914325 1.0000000 0.5314300
1.0000000 1.0000000 0.5281982
0.1385644 0.0497785 0.9171928
0.4393201 0.0412005 0.9086149
0.7197021 0.0332037 0.9006181
0.9894955 0.0255088 0.8929231
1.0000000 0.0222770 0.8896914
0.1121804 0.3062210 0.8908088
0.4129361 0.2976430 0.8822309
0.6933181 0.2896461 0.8742340
0.9631115 0.2819513 0.8665391
1.0000000 0.2787195 0.8633074
0.0869682 0.5512739 0.8655967
0.3877239 0.5426959 0.8570187
0.6681059 0.5346991 0.8490218
0.9378993 0.5270042 0.8413270
1.0000000 0.5237724 0.8380952
0.0623105 0.7909375 0.8409389
0.3630661 0.7823596 0.8323610
0.6434482 0.7743627 0.8243641
0.9132416 0.7666678 0.8166692
1.0000000 0.7634361 0.8134375
0.0380206 1.0000000 0.8166491
0.3387763 1.0000000 0.8080711
0.6191583 1.0000000 0.8000742
0.8889517 1.0000000 0.7923794
1.0000000 0.9995241 0.7891476
